;Generated by Cura LulzBot Edition GCodeWriter Version: master
;FLAVOR:Marlin
;TIME:1650
;Filament used: 0.852055m
;Layer height: 0.25
;Generated with Cura_SteamEngine 3.2.32
M82 ;absolute extrusion mode
;This G-Code has been generated specifically for the LulzBot TAZ 5 with standard extruder
M75			 ; start GLCD timer
M140 S85    ; start bed heating up
G21                      ; set units to Millimetres
G90                      ; absolute positioning
M107                     ; disable fans
M82                      ; set extruder to absolute mode
G28 X0 Y0                ; home X and Y
G28 Z0                   ; home Z
G1 Z15.0 F175 ; move extruder up
M117 Heating...                     ; progress indicator message on LCD
M109 R240  ; wait for extruder to reach printing temp
M190 S85    ; wait for bed to reach printing temp
G92 E0                   ; set extruder position to 0
G1 F200 E0               ; prime the nozzle with filament
G92 E0                   ; re-set extruder position to 0
G1 F175       ; set travel speed
M203 X192 Y208 Z3        ; set limits on travel speed
M117 TAZ 5 Printing...   ; progress indicator message on LCD

M221 S100
;LAYER_COUNT:40
;LAYER:0
M107
G0 F2625 X124.88 Y112.156 Z0.424
;TYPE:SKIRT
G1 F900 X125.544 Y111.61 E0.02857
G1 X130.023 Y108.629 E0.20737
G1 X130.529 Y108.34 E0.22673
G1 X131.081 Y108.12 E0.24648
G1 X136.823 Y106.28 E0.44685
G1 X137.389 Y106.14 E0.46623
G1 X137.736 Y106.094 E0.47786
G1 X144.467 Y105.484 E0.70246
G1 X145.05 Y105.472 E0.72184
G1 X145.353 Y105.497 E0.73195
G1 X153.048 Y106.413 E0.98947
G1 X153.621 Y106.521 E1.00885
G1 X154.255 Y106.742 E1.03116
G1 X160.312 Y109.403 E1.25102
G1 X160.829 Y109.673 E1.2704
G1 X161.303 Y110.012 E1.28976
G1 X161.616 Y110.297 E1.30383
G1 X165.967 Y114.671 E1.50886
G1 X166.349 Y115.111 E1.52822
G1 X166.667 Y115.6 E1.54761
G1 X166.851 Y115.971 E1.56137
G1 X169.479 Y122.006 E1.78011
G1 X169.674 Y122.555 E1.79947
G1 X169.761 Y122.929 E1.81223
G1 X170.248 Y125.558 E1.90109
G1 X170.316 Y126.179 E1.92185
G1 X170.382 Y128.015 E1.9829
G1 X170.363 Y128.598 E2.00229
G1 X170.313 Y128.945 E2.01394
G1 X170.066 Y130.273 E2.05883
G1 X169.166 Y136.04 E2.25279
G1 X168.648 Y141.409 E2.43205
G1 X168.43 Y146.887 E2.61423
G1 X168.414 Y151.063 E2.75301
G1 X168.409 Y151.257 E2.75946
G1 X168.3 Y153.463 E2.83286
G1 X168.208 Y154.155 E2.85606
G1 X167.732 Y156.346 E2.93057
G1 X167.57 Y156.906 E2.94994
G1 X167.363 Y157.379 E2.9671
G1 X166.407 Y159.249 E3.03689
G1 X166.107 Y159.748 E3.05624
G1 X165.922 Y159.994 E3.06647
G1 X164.286 Y162.008 E3.1527
G1 X163.76 Y162.549 E3.17778
G1 X161.287 Y164.678 E3.28622
G1 X160.82 Y165.027 E3.30559
G1 X160.562 Y165.181 E3.31558
G1 X157.533 Y166.847 E3.43046
G1 X156.806 Y167.162 E3.45679
G1 X153.935 Y168.101 E3.55717
G1 X153.581 Y168.2 E3.56939
G1 X151.994 Y168.571 E3.62355
G1 X151.675 Y168.633 E3.63435
G1 X147.84 Y169.225 E3.7633
G1 X147.546 Y169.26 E3.77314
G1 X144.407 Y169.522 E3.87782
G1 X143.824 Y169.531 E3.89719
G1 X143.436 Y169.492 E3.91015
G1 X140.186 Y169.015 E4.01931
G1 X139.821 Y168.945 E4.03166
G1 X134.85 Y167.764 E4.20146
G1 X134.293 Y167.591 E4.22084
G1 X133.721 Y167.318 E4.2419
G1 X129.236 Y164.752 E4.41362
G1 X128.752 Y164.429 E4.43296
G1 X128.162 Y163.877 E4.45981
G1 X124.865 Y160.146 E4.62527
G1 X124.51 Y159.684 E4.64463
G1 X124.14 Y158.999 E4.6705
G1 X122.042 Y154.078 E4.84828
G1 X121.8 Y153.317 E4.87482
G1 X121.456 Y151.741 E4.92842
G1 X121.38 Y151.266 E4.94441
G1 X121.243 Y149.921 E4.98934
G1 X121.221 Y149.538 E5.00209
G1 X121.136 Y142.066 E5.25041
G1 X120.755 Y136.695 E5.42935
G1 X119.722 Y128.826 E5.6931
G1 X119.688 Y128.408 E5.70703
G1 X119.613 Y126.044 E5.78563
G1 X119.611 Y125.85 E5.79208
G1 X119.654 Y122.749 E5.89514
G1 X119.672 Y122.413 E5.90633
G1 X119.785 Y121.201 E5.94678
G1 X119.908 Y120.511 E5.97007
G1 X120.218 Y119.337 E6.01042
G1 X120.446 Y118.69 E6.03322
G1 X121.011 Y117.424 E6.07929
G1 X121.284 Y116.909 E6.09866
G1 X121.492 Y116.605 E6.1109
G1 X124.499 Y112.597 E6.27741
G1 X124.88 Y112.156 E6.29678
G0 F2625 X125.259 Y112.485
G1 F900 X125.821 Y112.026 E6.32089
G1 X130.3 Y109.045 E6.49969
G1 X130.777 Y108.776 E6.51789
G1 X131.234 Y108.596 E6.53421
G1 X136.976 Y106.756 E6.73459
G1 X137.508 Y106.627 E6.75278
G1 X137.782 Y106.592 E6.76196
G1 X144.513 Y105.982 E6.98656
G1 X145.294 Y105.993 E7.01252
G1 X152.989 Y106.909 E7.27004
G1 X153.527 Y107.013 E7.28825
G1 X154.054 Y107.2 E7.30684
G1 X160.111 Y109.861 E7.52669
G1 X160.595 Y110.117 E7.54489
G1 X161.036 Y110.441 E7.56307
G1 X161.262 Y110.649 E7.57328
G1 X165.613 Y115.023 E7.7783
G1 X165.969 Y115.439 E7.7965
G1 X166.262 Y115.901 E7.81468
G1 X166.392 Y116.171 E7.82464
G1 X169.02 Y122.206 E8.04338
G1 X169.201 Y122.722 E8.06156
G1 X169.269 Y123.02 E8.07171
G1 X169.756 Y125.649 E8.16057
G1 X169.817 Y126.197 E8.17889
G1 X169.883 Y128.033 E8.23994
G1 X169.862 Y128.58 E8.25814
G1 X169.822 Y128.853 E8.2673
G1 X169.571 Y130.203 E8.31294
G1 X168.671 Y135.967 E8.50681
G1 X168.148 Y141.394 E8.68799
G1 X167.93 Y146.865 E8.86995
G1 X167.914 Y151.061 E9.00939
G1 X167.909 Y151.232 E9.01508
G1 X167.8 Y153.438 E9.08848
G1 X167.72 Y154.049 E9.10895
G1 X167.244 Y156.24 E9.18346
G1 X167.089 Y156.765 E9.20165
G1 X166.918 Y157.151 E9.21568
G1 X165.962 Y159.021 E9.28548
G1 X165.534 Y159.678 E9.31154
G1 X163.898 Y161.692 E9.39776
G1 X163.434 Y162.17 E9.4199
G1 X160.961 Y164.299 E9.52834
G1 X160.321 Y164.743 E9.55423
G1 X157.292 Y166.409 E9.66911
G1 X156.651 Y166.687 E9.69233
G1 X153.78 Y167.626 E9.79271
G1 X153.468 Y167.714 E9.80349
G1 X151.881 Y168.085 E9.85765
G1 X151.599 Y168.139 E9.86719
G1 X147.764 Y168.731 E9.99614
G1 X147.504 Y168.762 E10.00484
G1 X144.365 Y169.024 E10.10952
G1 X143.818 Y169.03 E10.1277
G1 X143.508 Y168.997 E10.13806
G1 X140.258 Y168.52 E10.24722
G1 X139.936 Y168.458 E10.25812
G1 X134.965 Y167.277 E10.42791
G1 X134.443 Y167.112 E10.44611
G1 X133.97 Y166.884 E10.46356
G1 X129.485 Y164.318 E10.63527
G1 X129.031 Y164.012 E10.65347
G1 X128.537 Y163.546 E10.67603
G1 X125.24 Y159.815 E10.8415
G1 X124.908 Y159.38 E10.85968
G1 X124.6 Y158.803 E10.88142
G1 X122.502 Y153.882 E11.05919
G1 X122.288 Y153.211 E11.0826
G1 X121.944 Y151.635 E11.13621
G1 X121.877 Y151.215 E11.15034
G1 X121.74 Y149.87 E11.19527
G1 X121.721 Y149.532 E11.20652
G1 X121.636 Y142.058 E11.45491
G1 X121.251 Y136.629 E11.63578
G1 X120.218 Y128.761 E11.89949
G1 X120.188 Y128.392 E11.9118
G1 X120.113 Y126.028 E11.9904
G1 X120.111 Y125.857 E11.99608
G1 X120.154 Y122.756 E12.09914
G1 X120.17 Y122.46 E12.10899
G1 X120.283 Y121.248 E12.14944
G1 X120.391 Y120.639 E12.17
G1 X120.701 Y119.465 E12.21035
G1 X120.903 Y118.894 E12.23048
G1 X121.468 Y117.628 E12.27655
G1 X121.727 Y117.145 E12.29476
G1 X121.892 Y116.906 E12.30441
G1 X124.899 Y112.898 E12.47092
G1 X125.259 Y112.485 E12.48913
G0 F2625 X125.636 Y112.815
G1 F900 X126.098 Y112.442 E12.50886
G1 X130.577 Y109.461 E12.68766
G1 X131.022 Y109.213 E12.70459
G1 X131.386 Y109.072 E12.71757
G1 X137.128 Y107.232 E12.91794
G1 X137.827 Y107.09 E12.94164
G1 X144.558 Y106.48 E13.16625
G1 X145.235 Y106.49 E13.18875
G1 X152.93 Y107.406 E13.44627
G1 X153.43 Y107.505 E13.46321
G1 X153.853 Y107.657 E13.47815
G1 X159.91 Y110.318 E13.698
G1 X160.359 Y110.559 E13.71494
G1 X160.907 Y111.002 E13.73835
G1 X165.258 Y115.376 E13.94338
G1 X165.588 Y115.764 E13.96031
G1 X165.934 Y116.37 E13.9835
G1 X168.562 Y122.405 E14.20224
G1 X168.778 Y123.111 E14.22678
G1 X169.265 Y125.74 E14.31563
G1 X169.317 Y126.215 E14.33151
G1 X169.383 Y128.051 E14.39256
G1 X169.33 Y128.762 E14.41626
G1 X169.079 Y130.111 E14.46186
G1 X168.174 Y135.907 E14.6568
G1 X167.648 Y141.362 E14.83892
G1 X167.43 Y146.843 E15.02121
G1 X167.414 Y151.059 E15.16132
G1 X167.41 Y151.207 E15.16624
G1 X167.301 Y153.413 E15.23964
G1 X167.231 Y153.943 E15.2574
G1 X166.755 Y156.134 E15.33191
G1 X166.608 Y156.622 E15.34885
G1 X166.473 Y156.923 E15.35981
G1 X165.517 Y158.793 E15.42961
G1 X165.146 Y159.363 E15.45221
G1 X163.51 Y161.377 E15.53844
G1 X163.107 Y161.791 E15.55764
G1 X160.634 Y163.92 E15.66608
G1 X160.08 Y164.305 E15.6885
G1 X157.051 Y165.971 E15.80338
G1 X156.495 Y166.212 E15.82352
G1 X153.624 Y167.151 E15.9239
G1 X153.354 Y167.227 E15.93322
G1 X151.767 Y167.598 E15.98738
G1 X151.523 Y167.645 E15.99564
G1 X147.688 Y168.237 E16.12459
G1 X147.462 Y168.264 E16.13216
G1 X144.323 Y168.526 E16.23684
G1 X143.581 Y168.503 E16.26151
G1 X140.331 Y168.026 E16.37067
G1 X140.052 Y167.972 E16.38011
G1 X135.081 Y166.791 E16.54991
G1 X134.596 Y166.635 E16.56684
G1 X134.218 Y166.45 E16.58082
G1 X129.733 Y163.884 E16.75254
G1 X129.312 Y163.597 E16.76947
G1 X128.912 Y163.215 E16.78785
G1 X125.615 Y159.484 E16.95331
G1 X125.308 Y159.077 E16.97025
G1 X125.06 Y158.607 E16.98791
G1 X122.962 Y153.686 E17.16569
G1 X122.777 Y153.104 E17.18599
G1 X122.433 Y151.528 E17.23959
G1 X122.375 Y151.164 E17.25184
G1 X122.238 Y149.819 E17.29677
G1 X122.221 Y149.527 E17.30649
G1 X122.136 Y142.034 E17.55551
G1 X121.749 Y136.578 E17.73728
G1 X120.714 Y128.696 E18.00147
G1 X120.688 Y128.376 E18.01213
G1 X120.613 Y126.012 E18.09073
G1 X120.611 Y125.864 E18.09565
G1 X120.654 Y122.763 E18.19872
G1 X120.668 Y122.506 E18.20727
G1 X120.781 Y121.294 E18.24772
G1 X120.875 Y120.766 E18.26554
G1 X121.185 Y119.592 E18.30589
G1 X121.359 Y119.097 E18.32333
G1 X121.924 Y117.831 E18.3694
G1 X122.292 Y117.206 E18.39351
G1 X125.299 Y113.198 E18.56002
G1 X125.636 Y112.815 E18.57697
G1 F600 E17.57697
G0 F2625 X127.291 Y114.838
G0 X128.437 Y115.698
G0 X130.231 Y136.193
G0 X150.498 Y142.293
G0 X153.559 Y143.607
G0 X155.731 Y145.166
G0 X156.948 Y146.459
G0 X157.799 Y147.803
G0 X158.289 Y149.273
G0 X158.449 Y150.958
G0 X157.532 Y154.748
G0 X157.445 Y154.701
;TYPE:WALL-INNER
G1 F600 E18.57697
G1 F900 X158.41 Y150.955 E18.70552
G1 X158.25 Y149.281 E18.76141
G1 X157.763 Y147.82 E18.81258
G1 X156.917 Y146.483 E18.86516
G1 X155.705 Y145.196 E18.92391
G1 X153.54 Y143.641 E19.01249
G1 X150.485 Y142.33 E19.12297
G1 X145.937 Y141.027 E19.28019
G1 X137.171 Y138.995 E19.57923
G1 X135.153 Y138.439 E19.64879
G1 X133.427 Y137.886 E19.70902
G1 X132.253 Y137.409 E19.75113
G1 X130.209 Y136.225 E19.82963
G1 X128.291 Y134.66 E19.91189
G1 X126.672 Y132.879 E19.99188
G1 X125.504 Y131.032 E20.0645
G1 X125.012 Y129.961 E20.10367
G1 X124.746 Y128.957 E20.13819
G1 X124.629 Y127.575 E20.18428
G1 X124.605 Y125.353 E20.25812
G1 X124.631 Y123.09 E20.33333
G1 X124.75 Y121.705 E20.37953
G1 X125.027 Y120.67 E20.41513
G1 X125.532 Y119.534 E20.45645
G1 X128.424 Y115.684 E20.61647
G1 X132.701 Y112.84 E20.78715
G1 X138.259 Y111.058 E20.98112
G1 X144.903 Y110.456 E21.20282
G1 X152.387 Y111.359 E21.45333
G1 X158.186 Y113.92 E21.664
G1 X162.336 Y118.097 E21.85967
G1 X164.894 Y123.977 E22.07276
G1 X165.244 Y125.69 E22.13087
G1 X165.388 Y126.979 E22.17397
G1 X165.395 Y127.046 E22.17621
G1 X165.395 Y127.424 E22.18877
G1 X165.327 Y127.424 E22.19083
G1 X160.175 Y127.424 E22.36204
G1 X160.01 Y126.299 E22.39982
G1 X158.389 Y121.542 E22.56683
G1 X155.035 Y117.841 E22.73282
G1 X150.302 Y115.495 E22.90837
G1 X144.504 Y114.68 E23.10294
G1 X139.748 Y115.133 E23.26171
G1 X135.666 Y116.428 E23.40402
G1 X132.453 Y118.509 E23.53123
G1 X130.394 Y121.286 E23.64612
G1 X129.841 Y123.1 E23.70914
G1 X129.679 Y125.042 E23.7739
G1 X129.882 Y126.975 E23.83849
G1 X130.47 Y128.734 E23.90013
G1 X132.09 Y130.965 E23.99175
G1 X134.793 Y132.742 E24.09925
G1 X138.899 Y134.279 E24.24495
G1 X144.833 Y135.839 E24.44885
G1 X149.044 Y136.876 E24.59297
G1 X152.499 Y137.849 E24.71225
G1 X155.303 Y138.809 E24.81074
G1 X157.537 Y139.793 E24.89187
G1 X159.28 Y140.832 E24.9593
G1 X160.615 Y141.956 E25.01729
G1 X161.672 Y143.233 E25.07238
G1 X162.536 Y144.719 E25.12951
G1 X163.024 Y145.832 E25.16989
G1 X163.292 Y146.835 E25.20439
G1 X163.416 Y148.177 E25.24918
G1 X163.448 Y150.259 E25.31838
G1 X163.319 Y153.154 E25.41468
G1 X162.87 Y155.219 E25.48491
G1 X161.973 Y156.958 E25.54993
G1 X160.441 Y158.825 E25.63019
G1 X158.046 Y160.882 E25.73511
G1 X155.188 Y162.442 E25.84331
G1 X151.739 Y163.556 E25.96376
G1 X147.612 Y164.235 E26.10275
G1 X144.102 Y164.542 E26.21984
G1 X143.968 Y164.515 E26.22438
G1 X143.356 Y164.431 E26.24491
G1 X141.51 Y164.205 E26.30672
G1 X136.09 Y162.93 E26.49175
G1 X131.815 Y160.479 E26.65551
G1 X128.662 Y156.907 E26.81385
G1 X126.662 Y152.19 E26.98411
G1 X126.331 Y150.672 E27.03574
G1 X126.199 Y149.298 E27.08161
G1 X126.199 Y148.742 E27.10009
G1 X131.422 Y148.742 E27.27366
G1 X131.422 Y149.114 E27.28602
G1 X131.647 Y150.504 E27.33282
G1 X132.185 Y152.255 E27.39369
G1 X134.125 Y155.67 E27.52421
G1 X137.064 Y158.139 E27.65177
G1 X140.922 Y159.595 E27.78881
G1 X145.664 Y160.073 E27.94719
G1 X150.746 Y159.44 E28.11738
G1 X154.768 Y157.612 E28.2642
G1 X157.445 Y154.701 E28.39562
G0 F2625 X156.992 Y154.455
;TYPE:WALL-OUTER
G1 F900 X157.904 Y150.915 E28.5171
G1 X157.758 Y149.385 E28.56818
G1 X157.308 Y148.036 E28.61544
G1 X156.52 Y146.791 E28.6644
G1 X155.374 Y145.574 E28.71995
G1 X153.293 Y144.079 E28.80511
G1 X150.317 Y142.802 E28.91273
G1 X145.812 Y141.511 E29.06846
G1 X137.046 Y139.479 E29.3675
G1 X135.011 Y138.918 E29.43765
G1 X133.26 Y138.357 E29.49875
G1 X132.028 Y137.857 E29.54293
G1 X129.928 Y136.641 E29.62358
G1 X127.945 Y135.023 E29.70863
G1 X126.271 Y133.181 E29.79134
G1 X125.065 Y131.274 E29.86633
G1 X124.54 Y130.131 E29.90813
G1 X124.252 Y129.042 E29.94556
G1 X124.129 Y127.595 E29.99382
G1 X124.105 Y125.347 E30.06853
G1 X124.131 Y123.068 E30.14427
G1 X124.256 Y121.618 E30.19264
G1 X124.554 Y120.502 E30.23102
G1 X125.098 Y119.279 E30.2755
G1 X128.075 Y115.316 E30.44022
G1 X132.483 Y112.385 E30.61614
G1 X138.159 Y110.565 E30.81422
G1 X144.909 Y109.953 E31.03946
G1 X152.521 Y110.872 E31.29425
G1 X158.475 Y113.501 E31.51055
G1 X162.758 Y117.812 E31.7125
G1 X165.373 Y123.825 E31.9304
G1 X165.738 Y125.611 E31.99098
G1 X165.895 Y127.018 E32.03803
G1 X165.895 Y127.924 E32.06813
G1 X159.743 Y127.924 E32.27258
G1 X159.522 Y126.417 E32.32319
G1 X157.949 Y121.801 E32.48525
G1 X154.728 Y118.247 E32.64465
G1 X150.152 Y115.979 E32.81437
G1 X144.493 Y115.183 E33.00428
G1 X139.848 Y115.626 E33.15935
G1 X135.881 Y116.884 E33.29765
G1 X132.801 Y118.879 E33.4196
G1 X130.847 Y121.514 E33.52861
G1 X130.335 Y123.195 E33.58701
G1 X130.181 Y125.037 E33.64844
G1 X130.374 Y126.868 E33.70962
G1 X130.92 Y128.503 E33.7669
G1 X132.441 Y130.597 E33.85291
G1 X135.021 Y132.293 E33.95552
G1 X139.051 Y133.802 E34.09852
G1 X144.956 Y135.354 E34.30142
G1 X149.164 Y136.39 E34.44544
G1 X152.65 Y137.372 E34.56579
G1 X155.492 Y138.345 E34.66562
G1 X157.766 Y139.347 E34.7482
G1 X159.567 Y140.42 E34.81787
G1 X160.973 Y141.604 E34.87895
G1 X162.082 Y142.944 E34.93676
G1 X162.985 Y144.497 E34.99646
G1 X163.497 Y145.665 E35.03884
G1 X163.786 Y146.748 E35.07609
G1 X163.916 Y148.149 E35.12284
G1 X163.948 Y150.281 E35.1937
G1 X163.817 Y153.218 E35.2914
G1 X163.346 Y155.387 E35.36516
G1 X162.391 Y157.237 E35.43435
G1 X160.801 Y159.175 E35.51766
G1 X158.33 Y161.297 E35.6259
G1 X155.387 Y162.904 E35.73733
G1 X151.862 Y164.042 E35.86042
G1 X147.67 Y164.732 E36.00161
G1 X144.075 Y165.046 E36.12153
G1 X143.885 Y165.008 E36.12797
G1 X143.292 Y164.927 E36.14786
G1 X141.416 Y164.697 E36.21067
G1 X135.905 Y163.4 E36.39881
G1 X131.495 Y160.872 E36.56774
G1 X128.234 Y157.178 E36.73149
G1 X126.182 Y152.338 E36.90619
G1 X125.836 Y150.75 E36.9602
G1 X125.699 Y149.325 E37.00777
G1 X125.699 Y148.242 E37.04376
G1 X131.922 Y148.242 E37.25057
G1 X131.922 Y149.074 E37.27822
G1 X132.135 Y150.39 E37.32252
G1 X132.647 Y152.056 E37.38044
G1 X134.515 Y155.345 E37.50614
G1 X137.32 Y157.701 E37.62787
G1 X141.037 Y159.104 E37.7599
G1 X145.658 Y159.57 E37.91424
G1 X150.609 Y158.953 E38.08005
G1 X154.469 Y157.199 E38.22095
G1 X156.992 Y154.455 E38.34482
G0 F2625 X157.054 Y154.213
G0 X157.634 Y154.362
G0 X157.888 Y154.942
;TYPE:SKIN
G1 F900 X158.906 Y150.994 E38.48031
G1 X158.732 Y149.179 E38.54091
G1 X158.209 Y147.608 E38.59593
G1 X157.305 Y146.181 E38.65207
G1 X156.029 Y144.826 E38.71392
G1 X153.783 Y143.212 E38.80583
G1 X150.65 Y141.867 E38.91914
G1 X146.06 Y140.553 E39.0778
G1 X137.281 Y138.517 E39.37728
G1 X135.297 Y137.97 E39.44568
G1 X133.591 Y137.424 E39.5052
