;Generated by Cura LulzBot Edition GCodeWriter Version: master
;FLAVOR:Marlin
;TIME:1239
;Filament used: 0.633338m
;Layer height: 0.25
;Generated with Cura_SteamEngine 3.2.32
M82 ;absolute extrusion mode
;This G-Code has been generated specifically for the LulzBot TAZ 5 with standard extruder
M75			 ; start GLCD timer
M140 S85    ; start bed heating up
G21                      ; set units to Millimetres
G90                      ; absolute positioning
M107                     ; disable fans
M82                      ; set extruder to absolute mode
G28 X0 Y0                ; home X and Y
G28 Z0                   ; home Z
G1 Z15.0 F175 ; move extruder up
M117 Heating...                     ; progress indicator message on LCD
M109 R240  ; wait for extruder to reach printing temp
M190 S85    ; wait for bed to reach printing temp
G92 E0                   ; set extruder position to 0
G1 F200 E0               ; prime the nozzle with filament
G92 E0                   ; re-set extruder position to 0
G1 F175       ; set travel speed
M203 X192 Y208 Z3        ; set limits on travel speed
M117 TAZ 5 Printing...   ; progress indicator message on LCD

M221 S100
;LAYER_COUNT:40
;LAYER:0
M107
G0 F2625 X137.567 Y109.044 Z0.424
;TYPE:SKIRT
G1 F900 X137.942 Y108.598 E0.01936
G1 X138.375 Y108.208 E0.03873
G1 X138.857 Y107.881 E0.05809
G1 X139.38 Y107.623 E0.07747
G1 X139.932 Y107.438 E0.09681
G1 X140.505 Y107.332 E0.11618
G1 X140.997 Y107.303 E0.13256
G1 X148.269 Y107.303 E0.37422
G1 X148.85 Y107.343 E0.39357
G1 X149.421 Y107.462 E0.41296
G1 X149.97 Y107.658 E0.43233
G1 X150.486 Y107.927 E0.45167
G1 X150.962 Y108.265 E0.47107
G1 X151.386 Y108.664 E0.49042
G1 X151.752 Y109.118 E0.50979
G1 X152.052 Y109.617 E0.52914
G1 X152.235 Y110.025 E0.544
G1 X171.946 Y161.187 E2.36604
G1 X171.997 Y161.329 E2.37105
G1 X172.163 Y161.81 E2.38796
G1 X172.315 Y162.372 E2.40731
G1 X172.389 Y162.95 E2.42667
G1 X172.383 Y163.533 E2.44605
G1 X172.297 Y164.109 E2.4654
G1 X172.133 Y164.669 E2.48479
G1 X171.894 Y165.2 E2.50414
G1 X171.584 Y165.694 E2.52353
G1 X171.21 Y166.141 E2.54289
G1 X170.779 Y166.532 E2.56223
G1 X170.298 Y166.861 E2.5816
G1 X169.776 Y167.121 E2.60098
G1 X169.063 Y167.346 E2.62582
G1 X168.393 Y167.494 E2.64863
G1 X167.646 Y167.591 E2.67366
G1 X164.901 Y167.701 E2.76495
G1 X164.722 Y167.704 E2.7709
G1 X160.793 Y167.696 E2.90147
G1 X160.191 Y167.652 E2.92153
G1 X156.908 Y167.175 E3.03178
G1 X151.496 Y166.636 E3.21252
G1 X146.096 Y166.405 E3.39214
G1 X140.657 Y166.479 E3.5729
G1 X135.277 Y166.858 E3.75213
G1 X129.132 Y167.659 E3.95807
G1 X128.557 Y167.695 E3.97722
G1 X122.814 Y167.66 E4.16807
G1 X122.426 Y167.64 E4.18098
G1 X121.783 Y167.577 E4.20245
G1 X121.208 Y167.48 E4.22183
G1 X120.652 Y167.306 E4.24119
G1 X120.036 Y167.007 E4.26395
G1 X119.704 Y166.811 E4.27676
G1 X119.224 Y166.481 E4.29612
G1 X118.793 Y166.088 E4.3155
G1 X118.42 Y165.64 E4.33487
G1 X118.112 Y165.146 E4.35422
G1 X117.875 Y164.614 E4.37357
G1 X117.712 Y164.054 E4.39296
G1 X117.628 Y163.478 E4.4123
G1 X117.621 Y162.918 E4.43091
G1 X117.641 Y162.554 E4.44303
G1 X117.713 Y161.976 E4.46238
G1 X117.903 Y161.302 E4.48565
G1 X137.015 Y110.068 E6.30287
G1 X137.256 Y109.537 E6.32224
G1 X137.567 Y109.044 E6.34162
G0 F2625 X138.01 Y109.286
G1 F900 X138.372 Y108.875 E6.35982
G1 X138.79 Y108.522 E6.378
G1 X139.254 Y108.232 E6.39618
G1 X139.756 Y108.014 E6.41437
G1 X140.285 Y107.871 E6.43258
G1 X140.997 Y107.803 E6.45635
G1 X148.269 Y107.803 E6.69801
G1 X148.815 Y107.843 E6.7162
G1 X149.349 Y107.962 E6.73439
G1 X149.86 Y108.157 E6.75256
G1 X150.338 Y108.425 E6.77077
G1 X150.771 Y108.76 E6.78897
G1 X151.151 Y109.154 E6.80716
G1 X151.47 Y109.599 E6.82535
G1 X151.768 Y110.205 E6.84779
G1 X171.479 Y161.367 E8.66983
G1 X171.525 Y161.492 E8.67425
G1 X171.691 Y161.973 E8.69116
G1 X171.831 Y162.502 E8.70935
G1 X171.893 Y163.046 E8.72754
G1 X171.875 Y163.593 E8.74573
G1 X171.778 Y164.131 E8.7639
G1 X171.603 Y164.65 E8.7821
G1 X171.354 Y165.138 E8.80031
G1 X171.037 Y165.584 E8.81849
G1 X170.659 Y165.979 E8.83666
G1 X170.227 Y166.316 E8.85487
G1 X169.751 Y166.585 E8.87304
G1 X169.24 Y166.783 E8.89125
G1 X168.955 Y166.858 E8.90104
G1 X168.285 Y167.006 E8.92384
G1 X167.626 Y167.091 E8.94592
G1 X164.881 Y167.201 E9.03722
G1 X164.723 Y167.204 E9.04247
G1 X160.794 Y167.196 E9.17304
G1 X160.263 Y167.157 E9.19073
G1 X156.985 Y166.681 E9.30081
G1 X151.532 Y166.137 E9.48292
G1 X146.093 Y165.904 E9.66384
G1 X140.651 Y165.979 E9.8447
G1 X135.229 Y166.361 E10.02533
G1 X129.068 Y167.164 E10.23181
G1 X128.56 Y167.195 E10.24872
G1 X122.817 Y167.16 E10.43958
G1 X122.474 Y167.142 E10.45099
G1 X121.831 Y167.079 E10.47246
G1 X121.292 Y166.986 E10.49064
G1 X120.772 Y166.816 E10.50882
G1 X120.291 Y166.576 E10.52668
G1 X119.959 Y166.38 E10.53949
G1 X119.509 Y166.068 E10.55769
G1 X119.109 Y165.694 E10.57589
G1 X118.768 Y165.266 E10.59408
G1 X118.493 Y164.793 E10.61226
G1 X118.29 Y164.284 E10.63047
G1 X118.163 Y163.752 E10.64864
G1 X118.121 Y162.945 E10.6755
G1 X118.141 Y162.581 E10.68761
G1 X118.21 Y162.038 E10.7058
G1 X118.371 Y161.476 E10.72523
G1 X137.483 Y110.242 E12.54244
G1 X137.712 Y109.745 E12.56063
G1 X138.01 Y109.286 E12.57882
G0 F2625 X138.451 Y109.532
G1 F900 X138.798 Y109.159 E12.59575
G1 X139.2 Y108.845 E12.6127
G1 X139.645 Y108.598 E12.62961
G1 X140.123 Y108.423 E12.64653
G1 X140.623 Y108.325 E12.66346
G1 X140.997 Y108.303 E12.67591
G1 X148.269 Y108.303 E12.91757
G1 X148.777 Y108.343 E12.93451
G1 X149.272 Y108.462 E12.95143
G1 X149.743 Y108.657 E12.96837
G1 X150.178 Y108.923 E12.98531
G1 X150.565 Y109.253 E13.00221
G1 X150.897 Y109.64 E13.01916
G1 X151.163 Y110.075 E13.0361
G1 X151.302 Y110.385 E13.04739
G1 X171.013 Y161.547 E14.86942
G1 X171.052 Y161.655 E14.87324
G1 X171.218 Y162.136 E14.89015
G1 X171.346 Y162.629 E14.90708
G1 X171.395 Y163.136 E14.924
G1 X171.365 Y163.645 E14.94095
G1 X171.255 Y164.142 E14.95786
G1 X171.069 Y164.617 E14.97482
G1 X170.811 Y165.056 E14.99174
G1 X170.488 Y165.45 E15.00867
G1 X170.107 Y165.788 E15.02559
G1 X169.678 Y166.062 E15.04251
G1 X169.211 Y166.267 E15.05946
G1 X168.847 Y166.369 E15.07202
G1 X168.177 Y166.517 E15.09482
G1 X167.606 Y166.591 E15.11396
G1 X164.861 Y166.701 E15.20525
G1 X164.724 Y166.704 E15.20981
G1 X160.795 Y166.696 E15.34038
G1 X160.335 Y166.662 E15.3557
G1 X157.039 Y166.183 E15.46639
G1 X151.569 Y165.638 E15.64907
G1 X146.107 Y165.404 E15.83075
G1 X140.627 Y165.479 E16.01287
G1 X135.179 Y165.863 E16.19437
G1 X129.003 Y166.668 E16.40135
G1 X128.563 Y166.695 E16.416
G1 X122.82 Y166.66 E16.60685
G1 X122.523 Y166.645 E16.61673
G1 X121.88 Y166.582 E16.6382
G1 X121.378 Y166.492 E16.65515
G1 X120.897 Y166.326 E16.67206
G1 X120.545 Y166.146 E16.6852
G1 X120.213 Y165.95 E16.69801
G1 X119.796 Y165.657 E16.71495
G1 X119.429 Y165.303 E16.7319
G1 X119.123 Y164.896 E16.74882
G1 X118.884 Y164.446 E16.76575
G1 X118.718 Y163.964 E16.78269
G1 X118.63 Y163.462 E16.79963
G1 X118.62 Y162.973 E16.81588
G1 X118.64 Y162.609 E16.828
G1 X118.708 Y162.104 E16.84493
G1 X118.84 Y161.651 E16.86061
G1 X137.952 Y110.417 E18.67782
G1 X138.167 Y109.955 E18.69476
G1 X138.451 Y109.532 E18.71169
G1 F600 E17.71169
G0 F2625 X140.182 Y111.807
G0 X141.522 Y112.309
G0 X145.118 Y117.923
G0 X145.064 Y118.007
;TYPE:WALL-INNER
G1 F600 E18.71169
G1 F900 X144.101 Y118.007 E18.74369
G1 X143.679 Y118.922 E18.77718
G1 X143.162 Y120.256 E18.82472
G1 X142.393 Y122.332 E18.89829
G1 X141.394 Y125.07 E18.99515
G1 X140.197 Y128.385 E19.11227
G1 X137.341 Y136.37 E19.39409
G1 X135.744 Y140.856 E19.55234
G1 X128.037 Y162.707 E20.32233
G1 X125.125 Y162.707 E20.4191
G1 X123.229 Y162.691 E20.48211
G1 X123.039 Y162.675 E20.48845
G1 X123.038 Y162.674 E20.4885
G1 X122.712 Y162.648 E20.49937
G1 X122.825 Y162.341 E20.50591
G1 X124.352 Y158.208 E20.65233
G1 X132.51 Y136.32 E21.42859
G1 X141.511 Y112.293 E22.28125
G1 X147.763 Y112.293 E22.48901
G1 X157.503 Y137.506 E23.38724
G1 X164.514 Y155.732 E24.03619
G1 X167.043 Y162.355 E24.27179
G1 X167.135 Y162.596 E24.28036
G1 X167.147 Y162.627 E24.28146
G1 X167.017 Y162.64 E24.28189
G1 X166.759 Y162.651 E24.28786
G1 X165.903 Y162.69 E24.31634
G1 X164.493 Y162.707 E24.3632
G1 X161.331 Y162.707 E24.46828
G1 X160.552 Y160.578 E24.54362
G1 X159.202 Y156.824 E24.67619
G1 X152.854 Y139.023 E25.30424
G1 X149.978 Y131.048 E25.58597
G1 X147.59 Y124.521 E25.81694
G1 X146.655 Y122.009 E25.90602
G1 X145.938 Y120.108 E25.97353
G1 X145.463 Y118.885 E26.01713
G1 X145.064 Y118.007 E26.04918
G0 F2625 X144.742 Y118.507
;TYPE:WALL-OUTER
G1 F900 X144.421 Y118.507 E26.05985
G1 X144.34 Y118.684 E26.06632
G1 X144.14 Y119.117 E26.08217
G1 X143.63 Y120.433 E26.12907
G1 X142.862 Y122.505 E26.20251
G1 X141.864 Y125.241 E26.29929
G1 X140.668 Y128.554 E26.41634
G1 X137.812 Y136.538 E26.69813
G1 X136.215 Y141.023 E26.85634
G1 X128.391 Y163.207 E27.63807
G1 X125.121 Y163.207 E27.74674
G1 X123.211 Y163.191 E27.81021
G1 X122.375 Y163.121 E27.83809
G1 X122.271 Y163.113 E27.84156
G1 X122.103 Y163.012 E27.84807
G1 X122.125 Y162.808 E27.85489
G1 X122.16 Y162.71 E27.85835
G1 X122.364 Y162.134 E27.87865
G1 X123.883 Y158.033 E28.02399
G1 X132.041 Y136.145 E28.80025
G1 X141.164 Y111.793 E29.66444
G1 X148.105 Y111.793 E29.8951
G1 X157.969 Y137.326 E30.80473
G1 X164.981 Y155.554 E31.45376
G1 X167.682 Y162.626 E31.70533
G1 X167.714 Y162.711 E31.70835
G1 X167.84 Y163.056 E31.72056
G1 X167.82 Y163.063
G1 X167.751 Y163.069
G1 X167.66 Y163.078 E31.72326
G1 X167.066 Y163.138 E31.7431
G1 X165.909 Y163.19 E31.78159
G1 X164.499 Y163.207 E31.82845
G1 X160.981 Y163.207 E31.94536
G1 X160.082 Y160.75 E32.0323
G1 X158.731 Y156.993 E32.16498
G1 X152.383 Y139.192 E32.79303
G1 X149.508 Y131.219 E33.07469
G1 X147.121 Y124.694 E33.30558
G1 X146.187 Y122.184 E33.39458
G1 X145.471 Y120.287 E33.46197
G1 X145.002 Y119.079 E33.50503
G1 X144.822 Y118.684 E33.51946
G1 X144.742 Y118.507 E33.52591
G0 F2625 X144.492 Y118.507
G0 X144.492 Y117.907
G0 X143.787 Y117.517
;TYPE:SKIN
G1 F900 X143.228 Y118.73 E33.5703
G1 X142.704 Y120.082 E33.61848
G1 X141.933 Y122.163 E33.69223
G1 X140.934 Y124.902 E33.78912
G1 X139.736 Y128.218 E33.90629
G1 X135.282 Y140.692 E34.34646
G1 X127.69 Y162.217 E35.10496
G1 X125.129 Y162.217 E35.19007
G1 X123.399 Y162.202 E35.24756
G1 X124.812 Y158.378 E35.38304
G1 X133.017 Y136.363 E36.1638
G1 X141.851 Y112.783 E37.0006
G1 X147.427 Y112.783 E37.1859
G1 X157.046 Y137.682 E38.07294
G1 X164.057 Y155.908 E38.7219
G1 X166.45 Y162.175 E38.94483
G1 X165.881 Y162.2 E38.96376
G1 X164.487 Y162.217 E39.01008
G1 X161.673 Y162.217 E39.1036
G1 X161.012 Y160.411 E39.16751
G1 X159.663 Y156.658 E39.30004
G1 X153.315 Y138.857 E39.92809
G1 X150.439 Y130.881 E40.20986
G1 X148.05 Y124.351 E40.44093
G1 X147.114 Y121.837 E40.53008
G1 X146.395 Y119.933 E40.59771
G1 X145.915 Y118.695 E40.64184
G1 X145.379 Y117.517 E40.68484
G1 X143.787 Y117.517 E40.73775
G0 F2625 X146.948 Y113.007
G1 F900 X147.477 Y113.535 E40.76259
G0 F2625 X147.921 Y114.687
G1 F900 X146.241 Y113.007 E40.84154
G1 X146.153 Y112.919
G0 F2625 X145.534 Y113.007
G1 F900 X148.367 Y115.84 E40.97469
G1 X148.455 Y115.928
G0 F2625 X148.812 Y116.992
G1 F900 X144.827 Y113.007 E41.16197
G1 X144.739 Y112.919
G0 F2625 X144.12 Y113.007
G1 F900 X149.256 Y118.144 E41.40337
G1 X149.344 Y118.232
G0 F2625 X149.702 Y119.296
G1 F900 X143.413 Y113.007 E41.69894
G1 X143.325 Y112.919
G0 F2625 X142.706 Y113.007
G1 F900 X150.147 Y120.448 E42.04864
G1 X150.235 Y120.536
G0 F2625 X150.591 Y121.6
G1 F900 X142.004 Y113.012 E42.45223
G1 X141.916 Y112.924
G0 F2625 X141.81 Y113.526
G1 F900 X151.037 Y122.753 E42.88587
G1 X151.125 Y122.841
G0 F2625 X151.482 Y123.904
G1 F900 X146.069 Y118.492 E43.14024
G1 X145.981 Y118.404
G0 F2625 X146.528 Y119.658
G1 F900 X151.927 Y125.057 E43.39398
G1 X152.015 Y125.145
G0 F2625 X152.372 Y126.209
G1 F900 X146.961 Y120.798 E43.64828
G1 X146.873 Y120.71
G0 F2625 X147.389 Y121.933
G1 F900 X152.817 Y127.361 E43.90338
G1 X152.905 Y127.449
G0 F2625 X153.262 Y128.513
G1 F900 X147.809 Y123.06 E44.15966
G1 X147.721 Y122.972
G0 F2625 X148.228 Y124.187
G1 F900 X153.707 Y129.665 E44.41713
G1 X153.795 Y129.753
G0 F2625 X154.152 Y130.818
G1 F900 X148.637 Y125.302 E44.67634
G1 X148.549 Y125.214
G0 F2625 X149.045 Y126.417
G1 F900 X154.597 Y131.97 E44.9373
G1 X154.685 Y132.058
G0 F2625 X155.042 Y133.122
G1 F900 X149.453 Y127.533 E45.19996
G1 X149.365 Y127.445
G0 F2625 X149.861 Y128.648
G1 F900 X155.487 Y134.274 E45.46437
G1 X155.575 Y134.362
G0 F2625 X155.932 Y135.426
G1 F900 X150.269 Y129.763 E45.73051
G1 X150.181 Y129.675
G0 F2625 X150.676 Y130.877
G1 F900 X156.377 Y136.578 E45.99844
G1 X156.465 Y136.666
G0 F2625 X156.822 Y137.73
G1 F900 X151.074 Y131.982 E46.26858
G1 X150.986 Y131.894
G0 F2625 X151.473 Y133.088
G1 F900 X157.264 Y138.88 E46.54077
G1 X157.352 Y138.968
G0 F2625 X157.706 Y140.029
G1 F900 X151.872 Y134.194 E46.81497
G1 X151.784 Y134.106
G0 F2625 X152.27 Y135.299
G1 F900 X158.149 Y141.178 E47.09127
G1 X158.237 Y141.266
G0 F2625 X158.591 Y142.327
G1 F900 X152.669 Y136.405 E47.36958
G1 X152.581 Y136.317
G0 F2625 X153.067 Y137.511
G1 F900 X159.033 Y143.476 E47.64995
G1 X159.121 Y143.564
G0 F2625 X159.475 Y144.625
G1 F900 X153.466 Y138.616 E47.93235
G1 X153.378 Y138.528
G0 F2625 X153.859 Y139.717
G1 F900 X159.917 Y145.775 E48.21706
G1 X160.005 Y145.863
G0 F2625 X160.359 Y146.924
G1 F900 X154.251 Y140.816 E48.50412
G1 X154.163 Y140.728
G0 F2625 X154.642 Y141.914
G1 F900 X160.801 Y148.073 E48.79357
G1 X160.889 Y148.161
G0 F2625 X161.243 Y149.222
G1 F900 X155.035 Y143.014 E49.08533
G1 X154.947 Y142.926
G0 F2625 X155.427 Y144.113
G1 F900 X161.685 Y150.371 E49.37944
G1 X161.773 Y150.459
G0 F2625 X162.128 Y151.521
G1 F900 X155.818 Y145.212 E49.67597
G1 X155.73 Y145.124
G0 F2625 X156.211 Y146.311
G1 F900 X162.57 Y152.67 E49.97482
G1 X162.658 Y152.758
G0 F2625 X163.012 Y153.819
G1 F900 X156.602 Y147.41 E50.27605
G1 X156.514 Y147.322
G0 F2625 X156.994 Y148.509
G1 F900 X163.454 Y154.968 E50.57963
G1 X163.542 Y155.056
G0 F2625 X163.896 Y156.117
G1 F900 X157.387 Y149.608 E50.88553
G1 X157.299 Y149.52
G0 F2625 X157.778 Y150.707
G1 F900 X164.333 Y157.261 E51.19358
G1 X164.421 Y157.349
G0 F2625 X164.77 Y158.406
G1 F900 X158.17 Y151.806 E51.50376
G1 X158.082 Y151.718
G0 F2625 X158.563 Y152.906
G1 F900 X165.207 Y159.55 E51.81601
G1 X165.295 Y159.638
G0 F2625 X165.644 Y160.694
G1 F900 X158.954 Y154.005 E52.13039
G1 X158.866 Y153.917
G0 F2625 X159.346 Y155.103
G1 F900 X166.08 Y161.838 E52.4469
G1 X166.168 Y161.926
G0 F2625 X165.515 Y161.979
G1 F900 X159.738 Y156.203 E52.71837
G1 X159.65 Y156.115
G0 F2625 X160.134 Y157.305
G1 F900 X164.816 Y161.988 E52.93844
G1 X164.904 Y162.076
G0 F2625 X164.113 Y161.991
G1 F900 X160.53 Y158.409 E53.10681
G1 X160.442 Y158.321
G0 F2625 X160.928 Y159.514
G1 F900 X163.406 Y161.991 E53.22324
G1 X163.494 Y162.079
G0 F2625 X162.698 Y161.991
G1 F900 X161.328 Y160.621 E53.28763
G1 X161.24 Y160.533
G0 F2625 X161.738 Y161.738
G1 F900 X161.991 Y161.991 E53.29952
G0 F2625 X147.741 Y112.325
G0 X145.982 Y112.325
G0 X131.354 Y151.153
G1 F900 X128.725 Y148.524 E53.42307
G1 X128.637 Y148.436
G0 F2625 X128.532 Y149.039
G1 F900 X131.169 Y151.675 E53.54698
G1 X131.257 Y151.763
G0 F2625 X130.985 Y152.198
G1 F900 X128.341 Y149.554 E53.67124
G1 X128.253 Y149.466
G0 F2625 X128.148 Y150.069
G1 F900 X130.801 Y152.721 E53.7959
G1 X130.889 Y152.809
G0 F2625 X130.616 Y153.244
G1 F900 X127.957 Y150.584 E53.92089
G1 X127.869 Y150.496
G0 F2625 X127.765 Y151.099
G1 F900 X130.432 Y153.766 E54.04623
G1 X130.52 Y153.854
G0 F2625 X130.247 Y154.289
G1 F900 X127.573 Y151.615 E54.1719
G1 X127.485 Y151.527
G0 F2625 X127.381 Y152.129
G1 F900 X130.063 Y154.812 E54.29797
G1 X130.151 Y154.9
G0 F2625 X129.879 Y155.335
G1 F900 X127.189 Y152.645 E54.42439
G1 X127.101 Y152.557
G0 F2625 X126.997 Y153.16
G1 F900 X129.694 Y155.857 E54.55114
G1 X129.782 Y155.945
G0 F2625 X129.51 Y156.38
G1 F900 X126.804 Y153.674 E54.67832
G1 X126.716 Y153.586
G0 F2625 X126.613 Y154.19
G1 F900 X129.326 Y156.903 E54.80582
G1 X129.414 Y156.991
G0 F2625 X129.141 Y157.426
G1 F900 X126.42 Y154.705 E54.9337
G1 X126.332 Y154.617
G0 F2625 X126.229 Y155.22
G1 F900 X128.957 Y157.948 E55.06191
G1 X129.045 Y158.036
