;Generated by Cura LulzBot Edition GCodeWriter Version: master
;FLAVOR:Marlin
;TIME:1511
;Filament used: 0.747231m
;Layer height: 0.25
;Generated with Cura_SteamEngine 3.2.32
M82 ;absolute extrusion mode
;This G-Code has been generated specifically for the LulzBot TAZ 5 with standard extruder
M75			 ; start GLCD timer
M140 S85    ; start bed heating up
G21                      ; set units to Millimetres
G90                      ; absolute positioning
M107                     ; disable fans
M82                      ; set extruder to absolute mode
G28 X0 Y0                ; home X and Y
G28 Z0                   ; home Z
G1 Z15.0 F175 ; move extruder up
M117 Heating...                     ; progress indicator message on LCD
M109 R240  ; wait for extruder to reach printing temp
M190 S85    ; wait for bed to reach printing temp
G92 E0                   ; set extruder position to 0
G1 F200 E0               ; prime the nozzle with filament
G92 E0                   ; re-set extruder position to 0
G1 F175       ; set travel speed
M203 X192 Y208 Z3        ; set limits on travel speed
M117 TAZ 5 Printing...   ; progress indicator message on LCD

M221 S100
;LAYER_COUNT:40
;LAYER:0
M107
G0 F2625 X124.386 Y114.216 Z0.424
;TYPE:SKIRT
G1 F900 X126.099 Y112.458 E0.08157
G1 X126.379 Y112.195 E0.09434
G1 X127.58 Y111.167 E0.14687
G1 X127.806 Y110.987 E0.15647
G1 X129.481 Y109.74 E0.22587
G1 X130.005 Y109.407 E0.2465
G1 X132.807 Y107.899 E0.35225
G1 X133.434 Y107.624 E0.375
G1 X136.37 Y106.61 E0.47822
G1 X137.073 Y106.432 E0.50232
G1 X139.752 Y105.995 E0.59253
G1 X140.307 Y105.942 E0.61106
G1 X144.356 Y105.819 E0.74567
G1 X144.755 Y105.826 E0.75894
G1 X147.834 Y106.022 E0.86146
G1 X148.243 Y106.068 E0.87514
G1 X150.59 Y106.448 E0.95415
G1 X151.359 Y106.647 E0.98055
G1 X155.964 Y108.316 E1.14332
G1 X156.497 Y108.552 E1.16269
G1 X156.81 Y108.734 E1.17473
G1 X160.971 Y111.402 E1.33899
G1 X161.439 Y111.75 E1.35837
G1 X161.691 Y111.984 E1.3698
G1 X165.21 Y115.524 E1.53568
G1 X165.592 Y115.964 E1.55504
G1 X165.789 Y116.25 E1.56658
G1 X168.482 Y120.513 E1.73415
G1 X168.792 Y121.101 E1.75624
G1 X170.033 Y123.98 E1.86042
G1 X170.145 Y124.269 E1.87072
G1 X170.681 Y125.814 E1.92507
G1 X170.758 Y126.059 E1.9336
G1 X171.478 Y128.626 E2.0222
G1 X171.592 Y129.164 E2.04048
G1 X172.1 Y132.667 E2.15811
G1 X172.141 Y133.117 E2.17312
G1 X172.3 Y137.338 E2.31349
G1 X172.3 Y137.658 E2.32413
G1 X172.141 Y141.884 E2.46467
G1 X172.1 Y142.337 E2.47978
G1 X171.576 Y145.932 E2.60051
G1 X171.454 Y146.496 E2.61969
G1 X170.503 Y149.795 E2.73379
G1 X170.331 Y150.279 E2.75086
G1 X168.807 Y153.868 E2.88043
G1 X168.485 Y154.482 E2.90347
G1 X165.8 Y158.719 E3.07017
G1 X165.455 Y159.189 E3.08954
G1 X165.2 Y159.464 E3.10201
G1 X161.436 Y163.19 E3.27801
G1 X160.995 Y163.571 E3.29738
G1 X160.747 Y163.744 E3.30743
G1 X156.859 Y166.247 E3.46109
G1 X156.348 Y166.528 E3.48047
G1 X155.999 Y166.671 E3.49301
G1 X151.453 Y168.309 E3.65359
G1 X150.892 Y168.469 E3.67297
G1 X150.573 Y168.524 E3.68373
G1 X145.778 Y169.163 E3.84449
G1 X145.147 Y169.199 E3.86549
G1 X140.291 Y169.119 E4.02689
G1 X139.613 Y169.054 E4.04952
G1 X136.13 Y168.431 E4.16711
G1 X135.528 Y168.277 E4.18776
G1 X132.306 Y167.198 E4.30067
G1 X131.661 Y166.921 E4.324
G1 X128.845 Y165.424 E4.42998
G1 X128.228 Y165.023 E4.45444
G1 X125.79 Y163.123 E4.55716
G1 X125.237 Y162.607 E4.58229
G1 X123.14 Y160.267 E4.68671
G1 X122.689 Y159.664 E4.71173
G1 X120.993 Y156.918 E4.81899
G1 X120.672 Y156.286 E4.84255
G1 X119.433 Y153.24 E4.95183
G1 X119.24 Y152.644 E4.97265
G1 X118.368 Y149.06 E5.09522
G1 X118.3 Y148.717 E5.10684
G1 X118.107 Y147.493 E5.14802
G1 X118.057 Y146.697 E5.17453
G1 X118.231 Y141.169 E5.35832
G1 X118.094 Y135.73 E5.53913
G1 X117.711 Y130.802 E5.70339
G1 X117.706 Y130.219 E5.72277
G1 X117.741 Y129.873 E5.73432
G1 X117.946 Y128.435 E5.78259
G1 X117.999 Y128.135 E5.79272
G1 X118.583 Y125.439 E5.88439
G1 X118.654 Y125.16 E5.89396
G1 X119.001 Y123.958 E5.93553
G1 X119.102 Y123.651 E5.94627
G1 X120.056 Y121.095 E6.03694
G1 X120.29 Y120.577 E6.05583
G1 X121.815 Y117.725 E6.1633
G1 X122.135 Y117.216 E6.18328
G1 X124.002 Y114.669 E6.28823
G1 X124.386 Y114.216 E6.30796
G0 F2625 X124.744 Y114.565
G1 F900 X126.457 Y112.807 E6.38953
G1 X126.704 Y112.575 E6.4008
G1 X127.905 Y111.547 E6.45333
G1 X128.105 Y111.388 E6.46182
G1 X129.78 Y110.141 E6.53122
G1 X130.242 Y109.847 E6.54942
G1 X133.044 Y108.339 E6.65516
G1 X133.597 Y108.096 E6.67523
G1 X136.533 Y107.082 E6.77846
G1 X137.153 Y106.926 E6.7997
G1 X139.832 Y106.489 E6.88991
G1 X140.322 Y106.442 E6.90627
G1 X144.371 Y106.319 E7.04089
G1 X144.723 Y106.325 E7.05259
G1 X147.802 Y106.521 E7.15511
G1 X148.163 Y106.561 E7.16718
G1 X150.51 Y106.941 E7.2462
G1 X151.189 Y107.117 E7.26951
G1 X155.794 Y108.786 E7.43228
G1 X156.293 Y109.01 E7.45046
G1 X156.54 Y109.155 E7.45998
G1 X160.701 Y111.823 E7.62424
G1 X161.337 Y112.336 E7.65139
G1 X164.856 Y115.876 E7.81727
G1 X165.366 Y116.517 E7.84449
G1 X168.059 Y120.78 E8.01206
G1 X168.333 Y121.299 E8.03156
G1 X169.574 Y124.178 E8.13575
G1 X169.673 Y124.433 E8.14484
G1 X170.209 Y125.978 E8.19918
G1 X170.277 Y126.194 E8.20671
G1 X170.997 Y128.761 E8.29531
G1 X171.097 Y129.236 E8.31144
G1 X171.605 Y132.739 E8.42907
G1 X171.641 Y133.136 E8.44231
G1 X171.8 Y137.357 E8.58269
G1 X171.8 Y137.639 E8.59206
G1 X171.641 Y141.865 E8.73259
G1 X171.605 Y142.265 E8.74594
G1 X171.081 Y145.86 E8.86667
G1 X170.973 Y146.358 E8.88361
G1 X170.022 Y149.657 E8.9977
G1 X169.871 Y150.084 E9.01275
G1 X168.347 Y153.673 E9.14233
G1 X168.063 Y154.214 E9.16264
G1 X165.378 Y158.451 E9.32933
G1 X165.052 Y158.891 E9.34753
G1 X164.848 Y159.109 E9.35745
G1 X161.084 Y162.835 E9.53346
G1 X160.476 Y163.323 E9.55937
G1 X156.588 Y165.826 E9.71303
G1 X156.107 Y166.088 E9.73123
G1 X155.829 Y166.201 E9.74121
G1 X151.283 Y167.839 E9.90179
G1 X150.507 Y168.028 E9.92833
G1 X145.712 Y168.667 E10.08908
G1 X145.155 Y168.699 E10.10763
G1 X140.299 Y168.619 E10.26902
G1 X139.701 Y168.561 E10.28899
G1 X136.218 Y167.938 E10.40657
G1 X135.687 Y167.803 E10.42478
G1 X132.465 Y166.724 E10.5377
G1 X131.896 Y166.479 E10.55828
G1 X129.08 Y164.982 E10.66427
G1 X128.535 Y164.629 E10.68585
G1 X126.097 Y162.729 E10.78856
G1 X125.609 Y162.274 E10.81074
G1 X123.512 Y159.934 E10.91516
G1 X123.114 Y159.402 E10.93724
G1 X121.418 Y156.656 E11.04449
G1 X121.135 Y156.098 E11.06528
G1 X119.896 Y153.052 E11.17456
G1 X119.726 Y152.526 E11.19293
G1 X118.854 Y148.942 E11.31551
G1 X118.794 Y148.639 E11.32578
G1 X118.601 Y147.415 E11.36695
G1 X118.557 Y146.713 E11.39033
G1 X118.731 Y141.172 E11.57456
G1 X118.593 Y135.716 E11.75593
G1 X118.209 Y130.763 E11.92102
G1 X118.236 Y129.944 E11.94825
G1 X118.441 Y128.506 E11.99652
G1 X118.488 Y128.241 E12.00547
G1 X119.072 Y125.545 E12.09714
G1 X119.134 Y125.299 E12.10557
G1 X119.481 Y124.097 E12.14715
G1 X119.571 Y123.826 E12.15664
G1 X120.525 Y121.27 E12.2473
G1 X120.731 Y120.813 E12.26396
G1 X122.256 Y117.961 E12.37144
G1 X122.539 Y117.512 E12.38907
G1 X124.406 Y114.965 E12.49402
G1 X124.744 Y114.565 E12.51142
G0 F2625 X125.102 Y114.914
G1 F900 X126.815 Y113.156 E12.59299
G1 X127.03 Y112.955 E12.60277
G1 X128.231 Y111.927 E12.65531
G1 X128.403 Y111.789 E12.66264
G1 X130.078 Y110.542 E12.73203
G1 X130.479 Y110.287 E12.74783
G1 X133.281 Y108.779 E12.85357
G1 X133.76 Y108.569 E12.87095
G1 X136.696 Y107.555 E12.97418
G1 X137.234 Y107.419 E12.99262
G1 X139.913 Y106.982 E13.08282
G1 X140.337 Y106.941 E13.09698
G1 X144.386 Y106.818 E13.2316
G1 X144.691 Y106.824 E13.24173
G1 X147.77 Y107.02 E13.34426
G1 X148.083 Y107.055 E13.35473
G1 X150.43 Y107.435 E13.43374
G1 X151.018 Y107.587 E13.45392
G1 X155.623 Y109.256 E13.6167
G1 X156.27 Y109.576 E13.64068
G1 X160.431 Y112.244 E13.80495
G1 X160.982 Y112.689 E13.82848
G1 X164.501 Y116.229 E13.99436
G1 X164.944 Y116.784 E14.01796
G1 X167.637 Y121.047 E14.18553
G1 X167.874 Y121.497 E14.20243
G1 X169.115 Y124.376 E14.30661
G1 X169.2 Y124.597 E14.31448
G1 X169.736 Y126.142 E14.36883
G1 X169.795 Y126.329 E14.37534
G1 X170.515 Y128.896 E14.46394
G1 X170.602 Y129.308 E14.47794
G1 X171.11 Y132.811 E14.59556
G1 X171.142 Y133.155 E14.60705
G1 X171.301 Y137.376 E14.74742
G1 X171.301 Y137.62 E14.75553
G1 X171.142 Y141.846 E14.89606
G1 X171.11 Y142.193 E14.90764
G1 X170.586 Y145.788 E15.02838
G1 X170.493 Y146.219 E15.04303
G1 X169.542 Y149.518 E15.15712
G1 X169.41 Y149.888 E15.17018
G1 X167.886 Y153.477 E15.29976
G1 X167.64 Y153.947 E15.31739
G1 X164.955 Y158.184 E15.48408
G1 X164.496 Y158.754 E15.5084
G1 X160.732 Y162.48 E15.68441
G1 X160.205 Y162.903 E15.70687
G1 X156.317 Y165.406 E15.86053
G1 X155.66 Y165.731 E15.88489
G1 X151.114 Y167.369 E16.04547
G1 X150.441 Y167.533 E16.06849
G1 X145.646 Y168.172 E16.22924
G1 X145.163 Y168.2 E16.24532
G1 X140.307 Y168.12 E16.40672
G1 X139.789 Y168.069 E16.42402
G1 X136.306 Y167.446 E16.5416
G1 X135.846 Y167.329 E16.55737
G1 X132.624 Y166.25 E16.67029
G1 X132.13 Y166.038 E16.68816
G1 X129.314 Y164.541 E16.79414
G1 X128.842 Y164.234 E16.81285
G1 X126.404 Y162.334 E16.91557
G1 X125.982 Y161.94 E16.93475
G1 X123.885 Y159.6 E17.03917
G1 X123.54 Y159.139 E17.05831
G1 X121.844 Y156.393 E17.16557
G1 X121.599 Y155.91 E17.18356
G1 X120.36 Y152.864 E17.29284
G1 X120.212 Y152.407 E17.30881
G1 X119.34 Y148.823 E17.43138
G1 X119.288 Y148.561 E17.44026
G1 X119.095 Y147.337 E17.48144
G1 X119.057 Y146.729 E17.50168
G1 X119.232 Y141.176 E17.68631
G1 X119.093 Y135.685 E17.86885
G1 X118.708 Y130.725 E18.03417
G1 X118.731 Y130.014 E18.05781
G1 X118.936 Y128.576 E18.10609
G1 X118.977 Y128.347 E18.11382
G1 X119.561 Y125.651 E18.20549
G1 X119.615 Y125.438 E18.21279
G1 X119.962 Y124.236 E18.25437
G1 X120.039 Y124.001 E18.26258
G1 X120.993 Y121.445 E18.35325
G1 X121.172 Y121.049 E18.36769
G1 X122.697 Y118.197 E18.47517
G1 X122.942 Y117.808 E18.49044
G1 X124.809 Y115.261 E18.59539
G1 X125.102 Y114.914 E18.61048
G1 F600 E17.61048
G0 F2625 X129.1 Y114.519
G0 X130.122 Y115.526
G0 X142.589 Y114.978
G0 X145.53 Y115.011
G0 X148.355 Y115.501
G0 X152.756 Y117.398
G0 X152.703 Y117.482
;TYPE:WALL-INNER
G1 F600 E18.61048
G1 F900 X148.344 Y115.539 E18.76908
G1 X145.527 Y115.05 E18.86409
G1 X142.591 Y115.017 E18.96167
G1 X139.766 Y115.416 E19.05648
G1 X137.302 Y116.248 E19.14291
G1 X134.203 Y118.241 E19.26535
G1 X131.595 Y120.929 E19.38982
G1 X129.605 Y124.145 E19.5155
G1 X128.375 Y127.678 E19.63982
G1 X127.93 Y129.73 E19.70959
G1 X123.089 Y129.73 E19.87047
G1 X123.088 Y129.73 E19.8705
G1 X122.802 Y129.73 E19.88001
G1 X122.842 Y129.446 E19.88594
G1 X122.887 Y129.128 E19.89661
G1 X123.607 Y125.882 E20.0071
G1 X124.719 Y122.874 E20.11368
G1 X126.193 Y120.119 E20.21751
G1 X128.007 Y117.645 E20.31946
G1 X130.109 Y115.511 E20.419
G1 X132.488 Y113.725 E20.51786
G1 X135.118 Y112.32 E20.61695
G1 X137.949 Y111.343 E20.71648
G1 X140.53 Y110.924 E20.80337
G1 X143.689 Y110.782 E20.90846
G1 X146.945 Y110.927 E21.01677
G1 X149.659 Y111.342 E21.10801
G1 X154.184 Y112.979 E21.26792
G1 X158.217 Y115.564 E21.42711
G1 X161.615 Y118.984 E21.58733
G1 X164.237 Y123.138 E21.75057
G1 X165.699 Y126.561 E21.87427
G1 X166.643 Y129.829 E21.98731
G1 X167.155 Y133.34 E22.10522
G1 X167.312 Y137.501 E22.2436
G1 X167.155 Y141.663 E22.38201
G1 X166.643 Y145.173 E22.49988
G1 X165.699 Y148.442 E22.61296
G1 X164.239 Y151.86 E22.73647
G1 X161.617 Y155.997 E22.89924
G1 X158.213 Y159.428 E23.05986
G1 X154.213 Y162.014 E23.21814
G1 X149.847 Y163.585 E23.37234
G1 X145.108 Y164.217 E23.53122
G1 X140.438 Y164.132 E23.68644
G1 X137.026 Y163.522 E23.80163
G1 X133.938 Y162.481 E23.90992
G1 X131.225 Y161.037 E24.01206
G1 X128.866 Y159.194 E24.11154
G1 X126.879 Y156.964 E24.2108
G1 X125.27 Y154.347 E24.31289
G1 X124.051 Y151.349 E24.42044
G1 X123.276 Y148.126 E24.5306
G1 X123.235 Y147.955 E24.53644
G1 X123.193 Y147.724 E24.54424
G1 X123.241 Y147.725
G1 X123.416 Y147.73 E24.54881
G1 X128.456 Y147.889 E24.71639
G1 X129.102 Y149.712 E24.78066
G1 X130.418 Y152.717 E24.88968
G1 X132.14 Y155.237 E24.99111
G1 X134.293 Y157.258 E25.08924
G1 X136.9 Y158.796 E25.18983
G1 X139.461 Y159.602 E25.27905
G1 X142.463 Y159.989 E25.37964
G1 X145.538 Y159.952 E25.48183
G1 X148.339 Y159.461 E25.57634
G1 X152.082 Y157.859 E25.71164
G1 X155.322 Y155.418 E25.84645
G1 X157.995 Y152.272 E25.98364
G1 X160.056 Y148.542 E26.12525
G1 X161.459 Y144.35 E26.27216
G1 X162.164 Y139.812 E26.42477
G1 X162.12 Y135.042 E26.5833
G1 X161.277 Y130.142 E26.74853
G1 X159.338 Y124.994 E26.93134
G1 X156.43 Y120.706 E27.10351
G1 X152.703 Y117.482 E27.26728
G0 F2625 X152.756 Y117.398
G0 X156.459 Y120.68
G0 X159.373 Y124.976
G0 X161.315 Y130.132
G0 X162.159 Y135.039
G0 X162.203 Y139.814
G0 X161.497 Y144.359
G0 X160.092 Y148.558
G0 X158.027 Y152.294
G0 X155.349 Y155.447
G0 X152.102 Y157.893
G0 X148.35 Y159.499
G0 X145.541 Y159.991
G0 X142.461 Y160.028
G0 X139.453 Y159.641
G0 X136.884 Y158.832
G0 X134.27 Y157.29
G0 X123.268 Y147.789
G0 X122.898 Y147.213
;TYPE:WALL-OUTER
G1 F900 X128.813 Y147.4 E27.46394
G1 X129.567 Y149.528 E27.53897
G1 X130.857 Y152.474 E27.64585
G1 X132.522 Y154.91 E27.7439
G1 X134.595 Y156.855 E27.83837
G1 X137.105 Y158.336 E27.93522
G1 X139.569 Y159.112 E28.02107
G1 X142.492 Y159.489 E28.11901
G1 X145.492 Y159.453 E28.21871
G1 X148.196 Y158.979 E28.30994
G1 X151.83 Y157.423 E28.44131
G1 X154.977 Y155.052 E28.57225
G1 X157.582 Y151.986 E28.70595
G1 X159.596 Y148.34 E28.84437
G1 X160.971 Y144.231 E28.98836
G1 X161.664 Y139.776 E29.13819
G1 X161.62 Y135.087 E29.29402
G1 X160.792 Y130.274 E29.45632
G1 X158.891 Y125.226 E29.63558
G1 X156.053 Y121.041 E29.80361
G1 X152.432 Y117.909 E29.96272
G1 X148.197 Y116.021 E30.1168
G1 X145.481 Y115.55 E30.20841
G1 X142.623 Y115.517 E30.30339
G1 X139.882 Y115.905 E30.39539
G1 X137.52 Y116.702 E30.47823
G1 X134.522 Y118.63 E30.59669
G1 X131.992 Y121.238 E30.71743
G1 X130.059 Y124.361 E30.83949
G1 X128.857 Y127.814 E30.96099
G1 X128.334 Y130.23 E31.04314
G1 X122.514 Y130.23 E31.23655
G1 X122.513 Y130.23 E31.23659
G1 X122.226 Y130.23 E31.24612
G1 X122.266 Y129.945 E31.25208
G1 X122.395 Y129.04 E31.28246
G1 X123.127 Y125.74 E31.39479
G1 X124.263 Y122.667 E31.50367
G1 X125.768 Y119.853 E31.60971
G1 X127.625 Y117.321 E31.71406
G1 X129.779 Y115.133 E31.8161
G1 X132.22 Y113.301 E31.91752
G1 X134.918 Y111.86 E32.01917
G1 X137.827 Y110.856 E32.12144
G1 X140.47 Y110.427 E32.21042
G1 X143.7 Y110.282 E32.31786
G1 X146.988 Y110.428 E32.42724
G1 X149.783 Y110.855 E32.5212
G1 X154.408 Y112.529 E32.68466
G1 X158.532 Y115.172 E32.84743
G1 X162.009 Y118.672 E33.01138
G1 X164.681 Y122.904 E33.17771
G1 X166.17 Y126.391 E33.30371
G1 X167.134 Y129.727 E33.41911
G1 X167.654 Y133.296 E33.53897
G1 X167.813 Y137.501 E33.67881
G1 X167.654 Y141.707 E33.81868
G1 X167.134 Y145.275 E33.9385
G1 X166.17 Y148.612 E34.05393
G1 X164.683 Y152.093 E34.17973
G1 X162.01 Y156.311 E34.34568
G1 X158.53 Y159.818 E34.50986
G1 X154.438 Y162.464 E34.6718
G1 X149.962 Y164.074 E34.82988
G1 X145.139 Y164.718 E34.99158
G1 X140.391 Y164.631 E35.14939
G1 X136.898 Y164.007 E35.26731
G1 X133.743 Y162.943 E35.37795
G1 X130.95 Y161.457 E35.48309
G1 X128.523 Y159.561 E35.58544
G1 X126.476 Y157.263 E35.68771
G1 X124.824 Y154.576 E35.79253
G1 X123.573 Y151.501 E35.90285
G1 X122.745 Y148.053 E36.02069
G1 X122.645 Y147.507 E36.03914
G1 X122.59 Y147.204 E36.04937
G1 X122.897 Y147.212 E36.05561
G1 X122.898 Y147.213 E36.05566
G0 F2625 X123.147 Y147.22
G0 X123.268 Y147.789
G0 X123.806 Y148.234
;TYPE:SKIN
G1 F900 X128.106 Y148.369 E36.19863
G1 X128.646 Y149.892 E36.25233
G1 X129.987 Y152.956 E36.36348
G1 X131.766 Y155.558 E36.46822
G1 X133.997 Y157.652 E36.56991
G1 X136.7 Y159.247 E36.67421
G1 X139.355 Y160.082 E36.7667
G1 X142.434 Y160.479 E36.86987
G1 X145.583 Y160.442 E36.97452
G1 X148.48 Y159.934 E37.07226
G1 X152.329 Y158.286 E37.2114
G1 X155.661 Y155.777 E37.35001
G1 X158.4 Y152.552 E37.49062
G1 X160.507 Y148.74 E37.63537
G1 X161.937 Y144.466 E37.78514
G1 X162.654 Y139.847 E37.94048
G1 X162.61 Y134.998 E38.10163
G1 X161.752 Y130.013 E38.26972
G1 X159.777 Y124.767 E38.456
G1 X156.799 Y120.377 E38.63229
G1 X152.969 Y117.064 E38.80058
G1 X148.487 Y115.067 E38.96364
G1 X145.572 Y114.56 E39.06197
G1 X142.559 Y114.527 E39.1621
