;Generated by Cura LulzBot Edition GCodeWriter Version: master
;FLAVOR:Marlin
;TIME:967
;Filament used: 0.457381m
;Layer height: 0.25
;Generated with Cura_SteamEngine 3.2.32
M82 ;absolute extrusion mode
;This G-Code has been generated specifically for the LulzBot TAZ 5 with standard extruder
M75			 ; start GLCD timer
M140 S85    ; start bed heating up
G21                      ; set units to Millimetres
G90                      ; absolute positioning
M107                     ; disable fans
M82                      ; set extruder to absolute mode
G28 X0 Y0                ; home X and Y
G28 Z0                   ; home Z
G1 Z15.0 F175 ; move extruder up
M117 Heating...                     ; progress indicator message on LCD
M109 R240  ; wait for extruder to reach printing temp
M190 S85    ; wait for bed to reach printing temp
G92 E0                   ; set extruder position to 0
G1 F200 E0               ; prime the nozzle with filament
G92 E0                   ; re-set extruder position to 0
G1 F175       ; set travel speed
M203 X192 Y208 Z3        ; set limits on travel speed
M117 TAZ 5 Printing...   ; progress indicator message on LCD

M221 S100
;LAYER_COUNT:40
;LAYER:0
M107
G0 F2625 X147.772 Y108.788 Z0.424
;TYPE:SKIRT
G1 F900 X148.123 Y108.322 E0.01939
G1 X148.534 Y107.909 E0.03875
G1 X148.997 Y107.556 E0.0581
G1 X149.505 Y107.27 E0.07747
G1 X150.047 Y107.056 E0.09684
G1 X150.613 Y106.918 E0.1162
G1 X151.334 Y106.857 E0.14024
G1 X157.992 Y106.858 E0.3615
G1 X158.573 Y106.898 E0.38086
G1 X159.143 Y107.017 E0.40021
G1 X159.692 Y107.213 E0.41958
G1 X160.209 Y107.483 E0.43896
G1 X160.684 Y107.82 E0.45832
G1 X161.109 Y108.219 E0.47769
G1 X161.474 Y108.673 E0.49705
G1 X161.775 Y109.172 E0.51641
G1 X162.004 Y109.708 E0.53578
G1 X162.158 Y110.27 E0.55515
G1 X162.241 Y111.108 E0.58313
G1 X162.241 Y163.086 E2.31046
G1 X162.201 Y163.667 E2.32982
G1 X162.082 Y164.238 E2.3492
G1 X161.886 Y164.787 E2.36857
G1 X161.617 Y165.303 E2.38791
G1 X161.279 Y165.779 E2.40731
G1 X160.88 Y166.203 E2.42666
G1 X160.426 Y166.569 E2.44604
G1 X159.927 Y166.869 E2.46539
G1 X159.391 Y167.099 E2.48477
G1 X158.829 Y167.253 E2.50414
G1 X158.251 Y167.328 E2.52351
G1 X157.957 Y167.336 E2.53328
G1 X145.655 Y167.239 E2.94211
G1 X140.199 Y167.472 E3.12359
G1 X132.364 Y168.128 E3.38487
G1 X131.782 Y168.137 E3.40422
G1 X131.203 Y168.066 E3.4236
G1 X130.64 Y167.916 E3.44297
G1 X130.103 Y167.691 E3.46231
G1 X129.601 Y167.394 E3.4817
G1 X129.145 Y167.032 E3.50105
G1 X128.742 Y166.61 E3.52044
G1 X128.401 Y166.138 E3.53979
G1 X128.128 Y165.623 E3.55916
G1 X127.928 Y165.076 E3.57851
G1 X127.804 Y164.506 E3.5979
G1 X127.76 Y163.893 E3.61832
G1 X127.76 Y157.133 E3.84297
G1 X127.8 Y156.552 E3.86232
G1 X127.919 Y155.981 E3.88171
G1 X128.115 Y155.432 E3.90108
G1 X128.534 Y154.688 E3.92945
G1 X132.493 Y149.06 E4.15812
G1 X135.317 Y144.467 E4.3373
G1 X137.901 Y139.682 E4.51802
G1 X140.192 Y134.792 E4.69748
G1 X142.231 Y129.719 E4.87917
G1 X143.104 Y127.236 E4.96664
G1 X144.696 Y122.034 E5.14742
G1 X145.99 Y116.751 E5.32818
G1 X146.525 Y114.094 E5.41825
G1 X147.141 Y110.406 E5.5425
G1 X147.276 Y109.839 E5.56187
G1 X147.488 Y109.296 E5.58125
G1 X147.772 Y108.788 E5.60059
G0 F2625 X148.246 Y108.978
G1 F900 X148.589 Y108.551 E5.61879
G1 X148.99 Y108.179 E5.63696
G1 X149.442 Y107.869 E5.65518
G1 X149.933 Y107.628 E5.67336
G1 X150.455 Y107.461 E5.69157
G1 X150.995 Y107.372 E5.70976
G1 X151.334 Y107.357 E5.72103
G1 X157.992 Y107.358 E5.94229
G1 X158.537 Y107.398 E5.96045
G1 X159.072 Y107.517 E5.97867
G1 X159.583 Y107.713 E5.99685
G1 X160.06 Y107.981 E6.01504
G1 X160.493 Y108.315 E6.03321
G1 X160.873 Y108.709 E6.0514
G1 X161.192 Y109.154 E6.06959
G1 X161.442 Y109.641 E6.08779
G1 X161.619 Y110.159 E6.10598
G1 X161.718 Y110.697 E6.12416
G1 X161.741 Y111.108 E6.13784
G1 X161.741 Y163.086 E7.86517
G1 X161.701 Y163.632 E7.88336
G1 X161.582 Y164.166 E7.90154
G1 X161.387 Y164.677 E7.91972
G1 X161.119 Y165.155 E7.93793
G1 X160.784 Y165.588 E7.95612
G1 X160.39 Y165.968 E7.97431
G1 X159.945 Y166.287 E7.99251
G1 X159.458 Y166.537 E8.0107
G1 X158.94 Y166.714 E8.02889
G1 X158.402 Y166.813 E8.04707
G1 X157.961 Y166.836 E8.06175
G1 X145.656 Y166.739 E8.47068
G1 X140.163 Y166.974 E8.65339
G1 X132.323 Y167.63 E8.91484
G1 X131.775 Y167.636 E8.93305
G1 X131.233 Y167.562 E8.95123
G1 X130.707 Y167.409 E8.96943
G1 X130.209 Y167.182 E8.98762
G1 X129.75 Y166.885 E9.00579
G1 X129.338 Y166.524 E9.02399
G1 X128.983 Y166.107 E9.04219
G1 X128.693 Y165.643 E9.06038
G1 X128.474 Y165.142 E9.07855
G1 X128.33 Y164.614 E9.09673
G1 X128.26 Y163.893 E9.12081
G1 X128.26 Y157.133 E9.34546
G1 X128.3 Y156.587 E9.36365
G1 X128.419 Y156.053 E9.38183
G1 X128.614 Y155.542 E9.40001
G1 X128.943 Y154.975 E9.42179
G1 X132.915 Y149.329 E9.6512
G1 X135.748 Y144.722 E9.83093
G1 X138.343 Y139.915 E10.01247
G1 X140.651 Y134.99 E10.19321
G1 X142.707 Y129.874 E10.37644
G1 X143.576 Y127.405 E10.46343
G1 X145.181 Y122.158 E10.64577
G1 X146.482 Y116.848 E10.82745
G1 X147.012 Y114.213 E10.91677
G1 X147.634 Y110.489 E11.04224
G1 X147.764 Y109.957 E11.06044
G1 X147.969 Y109.45 E11.07862
G1 X148.246 Y108.978 E11.0968
G0 F2625 X148.719 Y109.175
G1 F900 X149.053 Y108.791 E11.11372
G1 X149.443 Y108.463 E11.13065
G1 X149.88 Y108.2 E11.1476
G1 X150.352 Y108.009 E11.16452
G1 X150.848 Y107.893 E11.18145
G1 X151.333 Y107.857 E11.19761
G1 X157.991 Y107.858 E11.41887
G1 X158.499 Y107.898 E11.4358
G1 X158.995 Y108.017 E11.45275
G1 X159.466 Y108.212 E11.46969
G1 X159.9 Y108.478 E11.48661
G1 X160.288 Y108.809 E11.50356
G1 X160.619 Y109.196 E11.52048
G1 X160.885 Y109.63 E11.5374
G1 X161.081 Y110.101 E11.55435
G1 X161.2 Y110.596 E11.57127
G1 X161.241 Y111.108 E11.58834
G1 X161.241 Y163.086 E13.31567
G1 X161.201 Y163.594 E13.33261
G1 X161.082 Y164.089 E13.34952
G1 X160.887 Y164.56 E13.36647
G1 X160.621 Y164.995 E13.38341
G1 X160.291 Y165.382 E13.40031
G1 X159.904 Y165.714 E13.41726
G1 X159.469 Y165.98 E13.4342
G1 X158.999 Y166.176 E13.45112
G1 X158.504 Y166.295 E13.46804
G1 X157.965 Y166.336 E13.48601
G1 X145.639 Y166.239 E13.89564
G1 X140.148 Y166.474 E14.07828
G1 X132.281 Y167.132 E14.34063
G1 X131.771 Y167.134 E14.35758
G1 X131.268 Y167.057 E14.37449
G1 X130.782 Y166.902 E14.39144
G1 X130.327 Y166.673 E14.40837
G1 X129.913 Y166.376 E14.4253
G1 X129.551 Y166.018 E14.44222
G1 X129.249 Y165.608 E14.45914
G1 X129.015 Y165.155 E14.47608
G1 X128.855 Y164.671 E14.49303
G1 X128.772 Y164.169 E14.50993
G1 X128.76 Y163.893 E14.51911
G1 X128.76 Y157.133 E14.74376
G1 X128.8 Y156.625 E14.7607
G1 X128.919 Y156.13 E14.77762
G1 X129.114 Y155.659 E14.79456
G1 X129.352 Y155.263 E14.80991
G1 X133.332 Y149.606 E15.03977
G1 X136.182 Y144.97 E15.22062
G1 X138.789 Y140.142 E15.40296
G1 X141.108 Y135.193 E15.58458
G1 X143.17 Y130.061 E15.76838
G1 X144.053 Y127.552 E15.85677
G1 X145.661 Y122.297 E16.0394
G1 X146.972 Y116.945 E16.22251
G1 X147.502 Y114.307 E16.31193
G1 X148.127 Y110.571 E16.43781
G1 X148.251 Y110.077 E16.45474
G1 X148.449 Y109.608 E16.47166
G1 X148.719 Y109.175 E16.48861
G1 F600 E15.48861
G0 F2625 X150.637 Y133.05
G0 X152.071 Y133.07
G0 X152.506 Y151.394
G0 X152.427 Y151.454
;TYPE:WALL-INNER
G1 F600 E16.48861
G1 F900 X151.321 Y151.155 E16.52669
G1 X149.748 Y153.826 E16.6297
G1 X146.917 Y157.582 E16.786
G1 X143.519 Y160.34 E16.93144
G1 X139.558 Y162.135 E17.07596
G1 X135.001 Y162.948 E17.22979
G1 X133.016 Y163.083 E17.2959
G1 X132.75 Y163.1 E17.30476
G1 X132.75 Y162.834 E17.31038
G1 X132.75 Y162.833 E17.31041
G1 X132.75 Y157.874 E17.47521
G1 X134.072 Y157.874 E17.51914
G1 X137.132 Y157.595 E17.62125
G1 X140.07 Y156.777 E17.7226
G1 X142.798 Y155.465 E17.8232
G1 X145.263 Y153.705 E17.92385
G1 X147.419 Y151.541 E18.02537
G1 X149.216 Y149.014 E18.12841
G1 X150.604 Y146.169 E18.23361
G1 X151.533 Y143.052 E18.3417
G1 X151.804 Y141.103 E18.40709
G1 X151.968 Y137.975 E18.51118
G1 X152.051 Y133.07 E18.67421
G1 X152.074 Y125.783 E18.91637
G1 X152.074 Y111.848 E19.37946
G1 X157.25 Y111.848 E19.55147
G1 X157.25 Y162.345 E21.22958
G1 X152.427 Y162.345 E21.38986
G1 X152.427 Y151.454 E21.75179
G0 F2625 X151.927 Y151.837
;TYPE:WALL-OUTER
G1 F900 X151.558 Y151.737 E21.76449
G1 X151.449 Y151.923 E21.77166
G1 X150.167 Y154.101 E21.85565
G1 X147.279 Y157.931 E22.01505
G1 X143.785 Y160.768 E22.16462
G1 X139.706 Y162.616 E22.31344
G1 X135.059 Y163.445 E22.4703
G1 X132.516 Y163.617 E22.55501
G1 X132.25 Y163.635 E22.56387
G1 X132.25 Y163.369 E22.56947
G1 X132.25 Y163.368 E22.56951
G1 X132.25 Y157.374 E22.7687
G1 X134.049 Y157.374 E22.82848
G1 X137.041 Y157.101 E22.92833
G1 X139.893 Y156.307 E23.02671
G1 X142.542 Y155.033 E23.12439
G1 X144.938 Y153.322 E23.22223
G1 X147.036 Y151.217 E23.321
G1 X148.785 Y148.758 E23.42128
G1 X150.137 Y145.987 E23.52374
G1 X151.043 Y142.946 E23.62919
G1 X151.306 Y141.055 E23.69264
G1 X151.468 Y137.958 E23.7957
G1 X151.551 Y133.065 E23.95832
G1 X151.574 Y125.782 E24.20035
G1 X151.574 Y111.348 E24.68002
G1 X157.75 Y111.348 E24.88526
G1 X157.75 Y162.845 E26.59661
G1 X151.927 Y162.845 E26.79012
G1 X151.927 Y152.053 E27.14876
G1 X151.927 Y151.837 E27.15512
G0 F2625 X151.686 Y151.772
G0 X151.843 Y151.193
G0 X151.088 Y150.585
;TYPE:SKIN
G1 F900 X149.34 Y153.553 E27.26959
G1 X146.561 Y157.24 E27.42302
G1 X143.261 Y159.918 E27.56426
G1 X139.408 Y161.665 E27.70485
G1 X134.937 Y162.462 E27.85577
G1 X133.24 Y162.577 E27.91229
G1 X133.24 Y158.364 E28.0523
G1 X134.094 Y158.364 E28.08068
G1 X137.22 Y158.079 E28.18499
G1 X140.243 Y157.238 E28.28927
G1 X143.049 Y155.888 E28.39275
G1 X145.581 Y154.08 E28.49614
G1 X147.795 Y151.858 E28.60038
G1 X149.639 Y149.265 E28.70612
G1 X151.062 Y146.347 E28.81401
G1 X152.013 Y143.156 E28.92466
G1 X152.292 Y141.15 E28.99196
G1 X152.458 Y137.992 E29.09705
G1 X152.541 Y133.075 E29.26048
G1 X152.564 Y125.785 E29.50274
G1 X152.564 Y112.338 E29.94961
G1 X156.76 Y112.338 E30.08905
G1 X156.76 Y161.855 E31.7346
G1 X152.917 Y161.855 E31.86231
G1 X152.917 Y151.079 E32.22042
G1 X151.088 Y150.585 E32.28338
G0 F2625 X134.014 Y162.298
G1 F900 X133.464 Y161.749 E32.3092
G0 F2625 X133.464 Y161.042
G1 F900 X134.676 Y162.253 E32.36614
G1 X134.764 Y162.341
G0 F2625 X135.297 Y162.167
G1 F900 X133.464 Y160.335 E32.45226
G1 X133.376 Y160.247
G0 F2625 X133.464 Y159.627
G1 F900 X135.898 Y162.061 E32.56666
G1 X135.986 Y162.149
G0 F2625 X136.498 Y161.954
G1 F900 X133.464 Y158.92 E32.70924
G1 X133.376 Y158.832
G0 F2625 X133.839 Y158.588
G1 F900 X137.098 Y161.847 E32.86241
G1 X137.186 Y161.935
G0 F2625 X137.698 Y161.74
G1 F900 X134.51 Y158.551 E33.01226
G1 X134.422 Y158.463
G0 F2625 X135.157 Y158.492
G1 F900 X138.298 Y161.633 E33.15988
G1 X138.386 Y161.721
G0 F2625 X138.899 Y161.526
G1 F900 X135.806 Y158.433 E33.30524
G1 X135.718 Y158.345
G0 F2625 X136.453 Y158.374
G1 F900 X139.469 Y161.389 E33.44696
G1 X139.557 Y161.477
G0 F2625 X139.955 Y161.168
G1 F900 X137.101 Y158.314 E33.58109
G1 X137.013 Y158.226
G0 F2625 X137.677 Y158.184
G1 F900 X140.441 Y160.947 E33.71096
G1 X140.529 Y161.035
G0 F2625 X140.927 Y160.726
G1 F900 X138.231 Y158.03 E33.83767
G1 X138.143 Y157.942
G0 F2625 X138.784 Y157.876
G1 F900 X141.414 Y160.506 E33.96127
G1 X141.502 Y160.594
G0 F2625 X141.9 Y160.285
G1 F900 X139.338 Y157.722 E34.0817
G1 X139.25 Y157.634
G0 F2625 X139.891 Y157.568
G1 F900 X142.386 Y160.064 E34.19898
G1 X142.474 Y160.152
G0 F2625 X142.873 Y159.843
G1 F900 X140.427 Y157.397 E34.31394
G1 X140.339 Y157.309
G0 F2625 X140.904 Y157.167
G1 F900 X143.316 Y159.579 E34.42729
G1 X143.404 Y159.667
G0 F2625 X143.706 Y159.263
G1 F900 X141.382 Y156.938 E34.53654
G1 X141.294 Y156.85
G0 F2625 X141.859 Y156.709
G1 F900 X144.097 Y158.946 E34.6417
G1 X144.185 Y159.034
G0 F2625 X144.487 Y158.629
G1 F900 X142.337 Y156.479 E34.74274
G1 X142.249 Y156.391
G0 F2625 X142.814 Y156.249
G1 F900 X144.878 Y158.313 E34.83974
G1 X144.966 Y158.401
G0 F2625 X145.268 Y157.996
G1 F900 X143.274 Y156.002 E34.93345
G1 X143.186 Y155.914
G0 F2625 X143.687 Y155.708
G1 F900 X145.659 Y157.679 E35.02611
G1 X145.747 Y157.767
G0 F2625 X146.049 Y157.363
G1 F900 X144.099 Y155.413 E35.11775
G1 X144.011 Y155.325
G0 F2625 X144.512 Y155.118
G1 F900 X146.431 Y157.037 E35.20794
G1 X146.519 Y157.125
G0 F2625 X146.735 Y156.634
G1 F900 X144.925 Y154.824 E35.29301
G1 X144.837 Y154.736
G0 F2625 X145.337 Y154.529
G1 F900 X147.039 Y156.231 E35.37299
G1 X147.127 Y156.319
G0 F2625 X147.343 Y155.828
G1 F900 X145.745 Y154.23 E35.4481
G1 X145.657 Y154.142
G0 F2625 X146.098 Y153.877
G1 F900 X147.646 Y155.424 E35.52082
G1 X147.734 Y155.512
G0 F2625 X147.95 Y155.021
G1 F900 X146.451 Y153.522 E35.59127
G1 X146.363 Y153.434
G0 F2625 X146.804 Y153.168
G1 F900 X148.254 Y154.618 E35.65942
G1 X148.342 Y154.706
G0 F2625 X148.558 Y154.215
G1 F900 X147.157 Y152.814 E35.72526
G1 X147.069 Y152.726
G0 F2625 X147.51 Y152.46
G1 F900 X148.862 Y153.812 E35.7888
G1 X148.95 Y153.9
G0 F2625 X149.164 Y153.407
G1 F900 X147.863 Y152.106 E35.84994
G1 X147.775 Y152.018
G0 F2625 X148.174 Y151.71
G1 F900 X149.427 Y152.962 E35.90881
G1 X149.515 Y153.05
G0 F2625 X149.688 Y152.517
G1 F900 X148.469 Y151.297 E35.96612
G1 X148.381 Y151.209
G0 F2625 X148.762 Y150.883
G1 F900 X149.951 Y152.072 E36.022
G1 X150.039 Y152.16
G0 F2625 X150.213 Y151.627
G1 F900 X149.056 Y150.47 E36.07638
G1 X148.968 Y150.382
G0 F2625 X149.35 Y150.057
G1 F900 X150.475 Y151.182 E36.12925
G1 X150.563 Y151.27
G0 F2625 X150.737 Y150.737
G1 F900 X149.644 Y149.644 E36.18062
G1 X149.556 Y149.556
G0 F2625 X149.915 Y149.208
G1 F900 X151.047 Y150.34 E36.23382
G1 X151.135 Y150.428
G0 F2625 X152.017 Y150.603
G1 F900 X150.147 Y148.733 E36.3217
G1 X150.059 Y148.645
G0 F2625 X150.379 Y148.258
G1 F900 X152.986 Y150.864 E36.4442
G1 X153.074 Y150.952
G0 F2625 X153.141 Y151.02
G1 F900 X156.535 Y154.413 E36.60368
G1 X156.623 Y154.501
G0 F2625 X156.535 Y153.706
G1 F900 X150.611 Y147.783 E36.88207
G1 X150.523 Y147.695
G0 F2625 X150.842 Y147.307
G1 F900 X156.535 Y152.999 E37.1496
G1 X156.623 Y153.087
G0 F2625 X156.535 Y152.292
G1 F900 X151.074 Y146.832 E37.40623
G1 X150.986 Y146.744
G0 F2625 X151.296 Y146.346
G1 F900 X156.535 Y151.585 E37.65245
G1 X156.623 Y151.673
G0 F2625 X156.535 Y150.878
G1 F900 X151.458 Y145.801 E37.89105
G1 X151.37 Y145.713
G0 F2625 X151.62 Y145.256
G1 F900 X156.535 Y150.171 E38.12204
G1 X156.623 Y150.259
G0 F2625 X156.535 Y149.463
G1 F900 X151.782 Y144.711 E38.3454
G1 X151.694 Y144.623
G0 F2625 X151.945 Y144.167
G1 F900 X156.535 Y148.756 E38.56109
G1 X156.623 Y148.844
G0 F2625 X156.535 Y148.049
G1 F900 X152.107 Y143.621 E38.76919
G1 X152.019 Y143.533
G0 F2625 X152.252 Y143.059
G1 F900 X156.535 Y147.342 E38.97048
G1 X156.623 Y147.43
G0 F2625 X156.535 Y146.635
G1 F900 X152.339 Y142.439 E39.16768
G1 X152.251 Y142.351
G0 F2625 X152.425 Y141.818
G1 F900 X156.535 Y145.928 E39.36084
G1 X156.623 Y146.016
G0 F2625 X156.535 Y145.221
G1 F900 X152.511 Y141.197 E39.54996
G1 X152.423 Y141.109
G0 F2625 X152.549 Y140.528
G1 F900 X156.535 Y144.514 E39.73729
G1 X156.623 Y144.602
G0 F2625 X156.535 Y143.807
G1 F900 X152.584 Y139.856 E39.92297
G1 X152.496 Y139.768
G0 F2625 X152.619 Y139.184
G1 F900 X156.535 Y143.1 E40.10701
G1 X156.623 Y143.188
G0 F2625 X156.535 Y142.392
G1 F900 X152.654 Y138.512 E40.28939
G1 X152.566 Y138.424
G0 F2625 X152.684 Y137.834
G1 F900 X156.535 Y141.685 E40.47037
G1 X156.623 Y141.773
G0 F2625 X156.535 Y140.978
G1 F900 X152.696 Y137.139 E40.65079
G1 X152.608 Y137.051
G0 F2625 X152.708 Y136.444
G1 F900 X156.535 Y140.271 E40.83065
G1 X156.623 Y140.359
G0 F2625 X156.535 Y139.564
G1 F900 X152.719 Y135.748 E41.00999
G1 X152.631 Y135.66
G0 F2625 X152.731 Y135.053
G1 F900 X156.535 Y138.857 E41.18877
G1 X156.623 Y138.945
G0 F2625 X156.535 Y138.15
G1 F900 X152.743 Y134.358 E41.36698
G1 X152.655 Y134.27
G0 F2625 X152.754 Y133.662
G1 F900 X156.535 Y137.443 E41.54468
G1 X156.623 Y137.531
G0 F2625 X156.535 Y136.736
G1 F900 X152.765 Y132.966 E41.72186
G1 X152.677 Y132.878
G0 F2625 X152.767 Y132.261
G1 F900 X156.535 Y136.028 E41.89892
G1 X156.623 Y136.116
G0 F2625 X156.535 Y135.321
G1 F900 X152.769 Y131.556 E42.07589
G1 X152.681 Y131.468
G0 F2625 X152.772 Y130.852
G1 F900 X156.535 Y134.614 E42.25271
G1 X156.623 Y134.702
G0 F2625 X156.535 Y133.907
G1 F900 X152.774 Y130.147 E42.42945
