;Generated by Cura LulzBot Edition GCodeWriter Version: master
;FLAVOR:Marlin
;TIME:2491
;Filament used: 1.25993m
;Layer height: 0.25
;Generated with Cura_SteamEngine 3.2.32
M82 ;absolute extrusion mode
;This G-Code has been generated specifically for the LulzBot TAZ 5 with standard extruder
M75			 ; start GLCD timer
M140 S85    ; start bed heating up
G21                      ; set units to Millimetres
G90                      ; absolute positioning
M107                     ; disable fans
M82                      ; set extruder to absolute mode
G28 X0 Y0                ; home X and Y
G28 Z0                   ; home Z
G1 Z15.0 F175 ; move extruder up
M117 Heating...                     ; progress indicator message on LCD
M109 R240  ; wait for extruder to reach printing temp
M190 S85    ; wait for bed to reach printing temp
G92 E0                   ; set extruder position to 0
G1 F200 E0               ; prime the nozzle with filament
G92 E0                   ; re-set extruder position to 0
G1 F175       ; set travel speed
M203 X192 Y208 Z3        ; set limits on travel speed
M117 TAZ 5 Printing...   ; progress indicator message on LCD

M221 S100
;LAYER_COUNT:40
;LAYER:0
M107
G0 F2625 X124.306 Y103.928 Z0.424
;TYPE:SKIRT
G1 F900 X124.754 Y103.429 E0.02229
G1 X126.071 Y102.18 E0.0826
G1 X126.363 Y101.928 E0.09542
G1 X127.631 Y100.927 E0.14911
G1 X127.875 Y100.748 E0.15916
G1 X129.089 Y99.923 E0.20794
G1 X129.579 Y99.636 E0.22681
G1 X131.293 Y98.78 E0.29048
G1 X131.592 Y98.645 E0.30138
G1 X133.086 Y98.038 E0.35497
G1 X133.324 Y97.949 E0.36342
G1 X135.195 Y97.316 E0.42906
G1 X135.835 Y97.154 E0.451
G1 X139.285 Y96.559 E0.56734
G1 X139.769 Y96.504 E0.58353
G1 X143.471 Y96.296 E0.70675
G1 X143.814 Y96.29 E0.71815
G1 X148.83 Y96.414 E0.88489
G1 X149.358 Y96.46 E0.9025
G1 X152.861 Y96.988 E1.02023
G1 X153.601 Y97.169 E1.04554
G1 X157.497 Y98.499 E1.18235
G1 X158.134 Y98.776 E1.20544
G1 X161.474 Y100.569 E1.33141
G1 X162.104 Y100.983 E1.35647
G1 X164.911 Y103.208 E1.4755
G1 X165.342 Y103.601 E1.49488
G1 X165.601 Y103.899 E1.508
G1 X167.51 Y106.307 E1.61012
G1 X167.84 Y106.787 E1.62948
G1 X168.034 Y107.156 E1.64333
G1 X169.183 Y109.629 E1.73395
G1 X169.374 Y110.117 E1.75137
G1 X170.292 Y112.966 E1.85084
G1 X170.447 Y113.618 E1.87311
G1 X170.655 Y114.959 E1.91821
G1 X170.704 Y115.539 E1.93755
G1 X170.695 Y115.898 E1.94948
G1 X170.565 Y117.819 E2.01347
G1 X170.401 Y123.266 E2.19457
G1 X170.545 Y128.705 E2.37538
G1 X170.992 Y134.075 E2.55445
G1 X171.756 Y139.509 E2.73681
G1 X172.16 Y141.783 E2.81356
G1 X172.217 Y142.257 E2.82943
G1 X172.545 Y147.415 E3.00118
G1 X172.55 Y147.87 E3.01631
G1 X172.373 Y151.929 E3.15132
G1 X172.347 Y152.244 E3.16183
G1 X172.144 Y153.956 E3.21912
G1 X172.111 Y154.188 E3.22691
G1 X171.537 Y157.473 E3.33773
G1 X171.399 Y158.033 E3.35689
G1 X170.811 Y159.876 E3.42118
G1 X170.669 Y160.256 E3.43466
G1 X169.107 Y163.905 E3.56657
G1 X168.843 Y164.422 E3.58586
G1 X166.957 Y167.561 E3.70756
G1 X166.553 Y168.124 E3.73058
G1 X164.673 Y170.337 E3.82708
G1 X164.444 Y170.585 E3.8383
G1 X163.539 Y171.493 E3.8809
G1 X163.255 Y171.754 E3.89372
G1 X160.986 Y173.651 E3.99201
G1 X160.437 Y174.04 E4.01437
G1 X157.401 Y175.851 E4.13184
G1 X156.756 Y176.165 E4.15568
G1 X153.19 Y177.543 E4.28273
G1 X152.535 Y177.738 E4.30544
G1 X149.105 Y178.461 E4.42193
G1 X148.457 Y178.546 E4.44365
G1 X145.032 Y178.731 E4.55763
G1 X144.329 Y178.711 E4.58101
G1 X136.058 Y177.784 E4.85759
G1 X130.654 Y177.435 E5.03755
G1 X121.659 Y177.36 E5.33648
G1 X121.078 Y177.315 E5.35585
G1 X120.508 Y177.191 E5.37523
G1 X119.961 Y176.991 E5.39459
G1 X119.446 Y176.717 E5.41397
G1 X118.974 Y176.376 E5.43332
G1 X118.553 Y175.973 E5.45269
G1 X118.191 Y175.516 E5.47207
G1 X117.895 Y175.014 E5.49143
G1 X117.67 Y174.477 E5.51078
G1 X117.521 Y173.913 E5.53017
G1 X117.444 Y173.108 E5.55704
G1 X117.463 Y140.034 E6.65616
G1 X117.463 Y139.981 E6.65792
G1 X117.656 Y125.071 E7.15345
G1 X117.66 Y124.953 E7.15737
G1 X117.8 Y121.508 E7.27195
G1 X117.834 Y121.112 E7.28516
G1 X118.484 Y116.301 E7.44649
G1 X118.598 Y115.743 E7.46542
G1 X119.706 Y111.716 E7.60421
G1 X119.974 Y111.001 E7.62959
G1 X121.619 Y107.581 E7.75571
G1 X122.076 Y106.838 E7.78469
G1 X124.306 Y103.928 E7.90653
G0 F2625 X124.702 Y104.232
G1 F900 X125.099 Y103.792 E7.92622
G1 X126.416 Y102.543 E7.98654
G1 X126.672 Y102.321 E7.9978
G1 X127.94 Y101.32 E8.05149
G1 X128.156 Y101.161 E8.0604
G1 X129.37 Y100.336 E8.10918
G1 X129.803 Y100.083 E8.12585
G1 X131.517 Y99.227 E8.18951
G1 X131.78 Y99.108 E8.19911
G1 X133.274 Y98.501 E8.2527
G1 X133.484 Y98.423 E8.26014
G1 X135.355 Y97.79 E8.32578
G1 X135.92 Y97.647 E8.34515
G1 X139.37 Y97.052 E8.46149
G1 X139.797 Y97.003 E8.47577
G1 X143.499 Y96.795 E8.59899
G1 X143.802 Y96.79 E8.60906
G1 X148.818 Y96.914 E8.77581
G1 X149.284 Y96.955 E8.79135
G1 X152.787 Y97.483 E8.90908
G1 X153.44 Y97.642 E8.93141
G1 X157.336 Y98.972 E9.06822
G1 X157.898 Y99.217 E9.0886
G1 X161.238 Y101.01 E9.21457
G1 X161.793 Y101.375 E9.23665
G1 X164.6 Y103.6 E9.35568
G1 X165.003 Y103.971 E9.37388
G1 X165.21 Y104.209 E9.38437
G1 X167.119 Y106.617 E9.48648
G1 X167.426 Y107.07 E9.50467
G1 X167.581 Y107.367 E9.5158
G1 X168.73 Y109.84 E9.60642
G1 X168.898 Y110.27 E9.62176
G1 X169.816 Y113.119 E9.72124
G1 X169.953 Y113.694 E9.74088
G1 X170.161 Y115.035 E9.78598
G1 X170.205 Y115.581 E9.80418
G1 X170.196 Y115.864 E9.81359
G1 X170.065 Y117.796 E9.87794
G1 X169.901 Y123.265 E10.05977
G1 X170.045 Y128.724 E10.24124
G1 X170.495 Y134.131 E10.42155
G1 X171.262 Y139.588 E10.60468
G1 X171.668 Y141.871 E10.68174
G1 X171.718 Y142.289 E10.69573
G1 X172.046 Y147.447 E10.86749
G1 X172.05 Y147.848 E10.88081
G1 X171.873 Y151.907 E11.01583
G1 X171.851 Y152.186 E11.02513
G1 X171.648 Y153.898 E11.08242
G1 X171.618 Y154.101 E11.08924
G1 X171.044 Y157.386 E11.20006
G1 X170.923 Y157.881 E11.217
G1 X170.335 Y159.724 E11.28129
G1 X170.209 Y160.06 E11.29321
G1 X168.647 Y163.709 E11.42512
G1 X168.414 Y164.164 E11.4421
G1 X166.528 Y167.303 E11.5638
G1 X166.172 Y167.8 E11.58412
G1 X164.292 Y170.013 E11.68061
G1 X164.09 Y170.232 E11.69052
G1 X163.185 Y171.14 E11.73312
G1 X162.934 Y171.37 E11.74443
G1 X160.665 Y173.267 E11.84272
G1 X160.181 Y173.611 E11.86245
G1 X157.145 Y175.422 E11.97993
G1 X156.576 Y175.699 E12.00096
G1 X153.01 Y177.077 E12.128
G1 X152.431 Y177.248 E12.14807
G1 X149.001 Y177.971 E12.26456
G1 X148.43 Y178.047 E12.2837
G1 X145.005 Y178.232 E12.39769
G1 X144.385 Y178.214 E12.4183
G1 X136.104 Y177.285 E12.69522
G1 X130.672 Y176.935 E12.87611
G1 X121.663 Y176.86 E13.17551
G1 X121.117 Y176.815 E13.19371
G1 X120.584 Y176.692 E13.21189
G1 X120.074 Y176.492 E13.2301
G1 X119.599 Y176.22 E13.24829
G1 X119.169 Y175.882 E13.26646
G1 X118.792 Y175.485 E13.28466
G1 X118.477 Y175.037 E13.30286
G1 X118.231 Y174.549 E13.32102
G1 X118.058 Y174.029 E13.33923
G1 X117.963 Y173.49 E13.35742
G1 X117.944 Y173.108 E13.37013
G1 X117.963 Y140.034 E14.46924
G1 X117.963 Y139.987 E14.4708
G1 X118.156 Y125.077 E14.96633
G1 X118.159 Y124.974 E14.96976
G1 X118.299 Y121.529 E15.08434
G1 X118.33 Y121.179 E15.09601
G1 X118.98 Y116.368 E15.25735
G1 X119.08 Y115.875 E15.27406
G1 X120.188 Y111.848 E15.41286
G1 X120.425 Y111.218 E15.43523
G1 X122.07 Y107.798 E15.56135
G1 X122.472 Y107.142 E15.58691
G1 X124.702 Y104.232 E15.70875
G0 F2625 X125.099 Y104.536
G1 F900 X125.443 Y104.155 E15.72581
G1 X126.76 Y102.906 E15.78613
G1 X126.982 Y102.713 E15.7959
G1 X128.25 Y101.712 E15.84959
G1 X128.437 Y101.575 E15.85729
G1 X129.651 Y100.75 E15.90607
G1 X130.026 Y100.53 E15.92052
G1 X131.74 Y99.674 E15.98419
G1 X131.969 Y99.571 E15.99253
G1 X133.463 Y98.964 E16.04612
G1 X133.644 Y98.896 E16.05255
G1 X135.515 Y98.263 E16.11818
G1 X136.005 Y98.139 E16.13498
G1 X139.455 Y97.544 E16.25132
G1 X139.825 Y97.502 E16.2637
G1 X143.527 Y97.294 E16.38692
G1 X143.789 Y97.29 E16.39563
G1 X148.805 Y97.414 E16.56237
G1 X149.209 Y97.449 E16.57584
G1 X152.712 Y97.977 E16.69357
G1 X153.278 Y98.115 E16.71293
G1 X157.174 Y99.445 E16.84974
G1 X157.661 Y99.658 E16.8674
G1 X161.001 Y101.451 E16.99338
G1 X161.483 Y101.767 E17.01253
G1 X164.29 Y103.992 E17.13157
G1 X164.818 Y104.52 E17.15638
G1 X166.727 Y106.928 E17.2585
G1 X167.127 Y107.578 E17.28386
G1 X168.276 Y110.051 E17.37448
G1 X168.422 Y110.423 E17.38776
G1 X169.34 Y113.272 E17.48724
G1 X169.459 Y113.771 E17.50428
G1 X169.667 Y115.112 E17.54938
G1 X169.698 Y115.83 E17.57326
G1 X169.566 Y117.773 E17.63798
G1 X169.401 Y123.281 E17.82111
G1 X169.546 Y128.743 E18.00268
G1 X170 Y134.208 E18.18492
G1 X170.762 Y139.632 E18.36694
G1 X171.176 Y141.958 E18.44545
G1 X171.219 Y142.321 E18.4576
G1 X171.547 Y147.479 E18.62936
G1 X171.551 Y147.827 E18.64092
G1 X171.374 Y151.886 E18.77594
G1 X171.354 Y152.127 E18.78398
G1 X171.151 Y153.839 E18.84127
G1 X171.125 Y154.015 E18.84718
G1 X170.551 Y157.3 E18.958
G1 X170.446 Y157.729 E18.97268
G1 X169.858 Y159.572 E19.03697
G1 X169.75 Y159.863 E19.04728
G1 X168.188 Y163.512 E19.17919
G1 X167.986 Y163.907 E19.19393
G1 X166.1 Y167.046 E19.31563
G1 X165.791 Y167.476 E19.33322
G1 X163.911 Y169.689 E19.42972
G1 X163.736 Y169.879 E19.43831
G1 X162.831 Y170.787 E19.48091
G1 X162.614 Y170.986 E19.49069
G1 X160.345 Y172.883 E19.58898
G1 X159.925 Y173.181 E19.60609
G1 X156.889 Y174.992 E19.72357
G1 X156.395 Y175.233 E19.74184
G1 X152.829 Y176.611 E19.86888
G1 X152.328 Y176.759 E19.88624
G1 X148.898 Y177.482 E20.00273
G1 X148.403 Y177.547 E20.01932
G1 X144.978 Y177.732 E20.13331
G1 X144.441 Y177.717 E20.15116
G1 X136.151 Y176.787 E20.42838
G1 X130.691 Y176.435 E20.61021
G1 X121.667 Y176.36 E20.9101
G1 X121.159 Y176.316 E20.92705
G1 X120.665 Y176.193 E20.94397
G1 X120.196 Y175.994 E20.9609
G1 X119.763 Y175.724 E20.97785
G1 X119.378 Y175.391 E20.99477
G1 X119.051 Y175.001 E21.01168
G1 X118.788 Y174.564 E21.02863
G1 X118.596 Y174.092 E21.04557
G1 X118.481 Y173.596 E21.06249
G1 X118.444 Y173.108 E21.07875
G1 X118.463 Y140.034 E22.17787
G1 X118.463 Y139.994 E22.1792
G1 X118.656 Y125.084 E22.67473
G1 X118.659 Y124.994 E22.67772
G1 X118.799 Y121.549 E22.7923
G1 X118.825 Y121.246 E22.8024
G1 X119.475 Y116.435 E22.96373
G1 X119.562 Y116.008 E22.97822
G1 X120.67 Y111.981 E23.11701
G1 X120.875 Y111.434 E23.13643
G1 X122.52 Y108.014 E23.26254
G1 X122.869 Y107.446 E23.2847
G1 X125.099 Y104.536 E23.40653
G1 F600 E22.40653
G0 F2625 X124.977 Y108.921
G0 X126.114 Y109.794
G0 X127.822 Y148.14
G0 X128.802 Y163.242
G0 X128.761 Y163.333
;TYPE:WALL-INNER
G1 F600 E23.40653
G1 F900 X127.623 Y163.609 E23.44545
G1 X127.582 Y168.674 E23.61377
G1 X127.582 Y172.37 E23.7366
G1 X122.435 Y172.37 E23.90764
G1 X122.435 Y149.436 E24.66979
G1 X122.443 Y144.591 E24.8308
G1 X122.464 Y139.912 E24.98629
G1 X122.499 Y135.513 E25.13248
G1 X122.543 Y131.51 E25.26552
G1 X122.597 Y128.015 E25.38168
G1 X122.656 Y125.147 E25.47701
G1 X122.719 Y123.012 E25.54799
G1 X122.782 Y121.761 E25.58961
G1 X123.429 Y116.981 E25.74991
G1 X124.519 Y113.042 E25.88573
G1 X126.097 Y109.784 E26.00603
G1 X128.223 Y107.017 E26.12199
G1 X129.973 Y105.375 E26.20174
G1 X131.902 Y104.046 E26.27959
G1 X134.12 Y102.963 E26.36161
G1 X136.74 Y102.061 E26.45369
G1 X140.124 Y101.478 E26.56781
G1 X144.387 Y101.254 E26.70967
G1 X148.688 Y101.403 E26.85269
G1 X152.114 Y101.923 E26.96785
G1 X155.829 Y103.201 E27.0984
G1 X159.104 Y104.961 E27.22196
G1 X161.749 Y107.07 E27.33438
G1 X163.591 Y109.397 E27.433
G1 X164.315 Y110.865 E27.4874
G1 X165.015 Y112.702 E27.55273
G1 X165.524 Y114.436 E27.61278
G1 X165.668 Y115.358 E27.6438
G1 X165.708 Y115.619 E27.65257
G1 X165.445 Y115.644 E27.65816
G1 X165.036 Y115.683 E27.67181
G1 X163.207 Y115.695 E27.73259
G1 X160.505 Y115.695 E27.82239
G1 X160.063 Y114.32 E27.87038
G1 X158.833 Y111.637 E27.96847
G1 X156.94 Y109.352 E28.06708
G1 X154.449 Y107.558 E28.16909
G1 X151.394 Y106.278 E28.27916
G1 X146.394 Y105.348 E28.44817
G1 X141.485 Y105.557 E28.61146
G1 X137.009 Y106.862 E28.7664
G1 X133.33 Y109.226 E28.91172
G1 X130.839 Y112.106 E29.03826
G1 X129.173 Y115.632 E29.16786
G1 X128.189 Y120.174 E29.3223
G1 X127.723 Y126.127 E29.52074
G1 X127.455 Y132.548 E29.73431
G1 X128.531 Y132.905 E29.77198
G1 X130.29 Y130.305 E29.8763
G1 X133.234 Y126.826 E30.02775
G1 X136.661 Y124.392 E30.16744
G1 X140.642 Y122.937 E30.3083
G1 X145.249 Y122.446 E30.46226
G1 X149.187 Y122.708 E30.59342
G1 X152.794 Y123.491 E30.71608
G1 X156.019 Y124.767 E30.83134
G1 X158.884 Y126.54 E30.9433
G1 X161.36 Y128.79 E31.05448
G1 X163.45 Y131.51 E31.16848
G1 X165.152 Y134.726 E31.2894
G1 X166.438 Y138.402 E31.41882
G1 X167.259 Y142.728 E31.56514
G1 X167.564 Y147.57 E31.72637
G1 X167.348 Y152.383 E31.88648
G1 X166.607 Y156.683 E32.03148
G1 X166.307 Y157.671 E32.0658
G1 X165.798 Y159.024 E32.11384
G1 X165.183 Y160.49 E32.16667
G1 X164.544 Y161.887 E32.21772
G1 X162.709 Y164.941 E32.33612
G1 X160.453 Y167.578 E32.45145
G1 X157.833 Y169.784 E32.56527
G1 X154.894 Y171.537 E32.67899
G1 X151.703 Y172.803 E32.79307
G1 X148.331 Y173.548 E32.90783
G1 X144.819 Y173.745 E33.02473
G1 X141.261 Y173.362 E33.14365
G1 X137.958 Y172.252 E33.25945
G1 X134.607 Y170.286 E33.38856
G1 X131.712 Y167.82 E33.51494
G1 X129.735 Y165.192 E33.62423
G1 X128.761 Y163.333 E33.69397
G0 F2625 X128.802 Y163.242
G0 X137.893 Y168.06
G0 X137.938 Y167.971
G1 F900 X142.775 Y169.485 E33.8624
G1 X148.044 Y169.32 E34.03759
G1 X151.198 Y168.386 E34.1469
G1 X154.009 Y166.863 E34.25315
G1 X156.457 Y164.791 E34.35973
G1 X158.511 Y162.226 E34.46893
G1 X160.149 Y159.213 E34.5829
G1 X161.352 Y155.797 E34.70325
G1 X162.092 Y152.024 E34.83102
G1 X162.354 Y147.943 E34.96692
G1 X162.246 Y144.583 E35.07864
G1 X161.841 Y141.638 E35.17743
G1 X161.093 Y138.916 E35.27124
G1 X159.959 Y136.208 E35.3688
G1 X157.132 Y131.92 E35.53948
G1 X153.426 Y128.809 E35.70028
G1 X149.001 Y127.018 E35.85892
G1 X144.028 Y126.641 E36.02466
G1 X139.401 Y127.579 E36.18155
G1 X135.405 Y129.752 E36.33271
G1 X132.152 Y133.08 E36.48737
G1 X129.746 Y137.442 E36.65291
G1 X128.832 Y139.986 E36.74275
G1 X128.243 Y142.444 E36.82674
G1 X127.935 Y145.076 E36.91481
G1 X127.861 Y148.139 E37.01662
G1 X128.564 Y154.606 E37.2328
G1 X130.707 Y160.456 E37.43984
G1 X133.829 Y164.905 E37.62046
G1 X137.938 Y167.971 E37.79084
G0 F2625 X138.169 Y167.519
;TYPE:WALL-OUTER
G1 F900 X142.844 Y168.983 E37.95364
G1 X147.964 Y168.822 E38.12387
G1 X151.006 Y167.921 E38.2293
G1 X153.725 Y166.448 E38.33207
G1 X156.097 Y164.441 E38.43532
G1 X158.093 Y161.948 E38.54145
G1 X159.691 Y159.009 E38.65262
G1 X160.868 Y155.665 E38.77043
G1 X161.595 Y151.96 E38.89591
G1 X161.853 Y147.935 E39.02994
G1 X161.747 Y144.625 E39.13999
G1 X161.35 Y141.739 E39.23681
G1 X160.619 Y139.079 E39.32848
G1 X159.516 Y136.444 E39.42341
G1 X156.755 Y132.256 E39.59011
G1 X153.165 Y129.243 E39.74586
G1 X148.886 Y127.511 E39.89927
G1 X144.059 Y127.145 E40.06014
G1 X139.574 Y128.054 E40.21221
G1 X135.71 Y130.155 E40.35838
G1 X132.557 Y133.381 E40.50828
G1 X130.203 Y137.649 E40.67026
G1 X129.312 Y140.129 E40.75783
G1 X128.736 Y142.532 E40.83995
G1 X128.434 Y145.111 E40.92624
G1 X128.362 Y148.118 E41.0262
G1 X129.054 Y154.491 E41.23923
G1 X131.154 Y160.222 E41.44207
G1 X134.192 Y164.552 E41.61785
G1 X138.169 Y167.519 E41.78274
G0 F2625 X138.407 Y167.593
G0 X138.227 Y168.165
G0 X128.777 Y163.297
G0 X128.358 Y163.328
G0 X128.499 Y163.911
G1 F900 X128.12 Y164.003 E41.7957
G1 X128.119 Y164.222 E41.80298
G1 X128.082 Y168.676 E41.951
G1 X128.082 Y172.87 E42.09037
G1 X121.935 Y172.87 E42.29465
G1 X121.935 Y149.436 E43.07341
G1 X121.943 Y144.589 E43.23448
G1 X121.964 Y139.908 E43.39004
G1 X121.999 Y135.508 E43.53627
G1 X122.043 Y131.502 E43.6694
G1 X122.097 Y128.005 E43.78563
G1 X122.156 Y125.132 E43.88113
G1 X122.219 Y122.997 E43.95211
G1 X122.284 Y121.716 E43.99473
G1 X122.939 Y116.877 E44.15701
G1 X124.049 Y112.865 E44.29534
G1 X125.669 Y109.521 E44.41883
G1 X127.853 Y106.679 E44.53794
G1 X129.659 Y104.984 E44.62025
G1 X131.644 Y103.616 E44.70036
G1 X133.934 Y102.498 E44.78505
G1 X136.615 Y101.575 E44.87927
G1 X140.063 Y100.981 E44.99555
G1 X144.39 Y100.753 E45.13954
G1 X148.729 Y100.904 E45.28382
G1 X152.237 Y101.436 E45.40173
G1 X156.027 Y102.74 E45.53493
G1 X159.383 Y104.543 E45.66153
G1 X162.104 Y106.713 E45.77719
