;Generated by Cura LulzBot Edition GCodeWriter Version: master
;FLAVOR:Marlin
;TIME:18275
;Filament used: 10.7012m
;Layer height: 0.25
;Generated with Cura_SteamEngine 3.2.32
M82 ;absolute extrusion mode
;This G-Code has been generated specifically for the LulzBot TAZ 5 with standard extruder
M75			 ; start GLCD timer
M140 S85    ; start bed heating up
G21                      ; set units to Millimetres
G90                      ; absolute positioning
M107                     ; disable fans
M82                      ; set extruder to absolute mode
G28 X0 Y0                ; home X and Y
G28 Z0                   ; home Z
G1 Z15.0 F175 ; move extruder up
M117 Heating...                     ; progress indicator message on LCD
M109 R240  ; wait for extruder to reach printing temp
M190 S85    ; wait for bed to reach printing temp
G92 E0                   ; set extruder position to 0
G1 F200 E0               ; prime the nozzle with filament
G92 E0                   ; re-set extruder position to 0
G1 F175       ; set travel speed
M203 X192 Y208 Z3        ; set limits on travel speed
M117 TAZ 5 Printing...   ; progress indicator message on LCD

M221 S100
;LAYER_COUNT:40
;LAYER:0
M107
G0 F2625 X44.199 Y70.143 Z0.424
;TYPE:SKIRT
G1 F900 X44.71 Y69.862 E0.01938
G1 X45.431 Y69.604 E0.04483
G1 X50.719 Y68.234 E0.22636
G1 X55.916 Y66.635 E0.40706
G1 X61.006 Y64.747 E0.58747
G1 X65.968 Y62.581 E0.76739
G1 X70.79 Y60.141 E0.94698
G1 X75.475 Y57.429 E1.12688
G1 X80.003 Y54.454 E1.30693
G1 X84.359 Y51.224 E1.48714
G1 X88.521 Y47.757 E1.66715
G1 X92.505 Y44.038 E1.84827
G1 X94.39 Y42.123 E1.93757
G1 X96.193 Y40.182 E2.0256
G1 X99.742 Y36.024 E2.20727
G1 X103.012 Y31.723 E2.38682
G1 X106.04 Y27.233 E2.56679
G1 X108.819 Y22.564 E2.74736
G1 X110.964 Y18.498 E2.90013
G1 X111.271 Y18.003 E2.91949
G1 X111.642 Y17.554 E2.93884
G1 X112.071 Y17.16 E2.9582
G1 X112.551 Y16.828 E2.97759
G1 X113.071 Y16.565 E2.99696
G1 X113.622 Y16.376 E3.01632
G1 X114.194 Y16.264 E3.03569
G1 X114.723 Y16.231 E3.0533
G1 X169.275 Y16.231 E4.86617
G1 X169.856 Y16.271 E4.88553
G1 X170.427 Y16.39 E4.90491
G1 X170.976 Y16.586 E4.92428
G1 X171.492 Y16.855 E4.94362
G1 X171.968 Y17.193 E4.96302
G1 X172.392 Y17.592 E4.98237
G1 X172.789 Y18.09 E5.00353
G1 X175.705 Y22.376 E5.1758
G1 X178.983 Y26.672 E5.35538
G1 X182.504 Y30.784 E5.53528
G1 X186.26 Y34.7 E5.7156
G1 X190.239 Y38.402 E5.89621
G1 X192.286 Y40.152 E5.98571
G1 X194.36 Y41.824 E6.07424
G1 X198.753 Y45.069 E6.25574
G1 X203.262 Y48.023 E6.43487
G1 X207.977 Y50.742 E6.61575
G1 X212.79 Y53.167 E6.79485
G1 X217.802 Y55.346 E6.97647
G1 X220.318 Y56.317 E7.06609
G1 X222.823 Y57.198 E7.15434
G1 X228.021 Y58.789 E7.33499
G1 X233.314 Y60.087 E7.51609
G1 X235.974 Y60.621 E7.60626
G1 X240.189 Y61.31 E7.74819
G1 X240.757 Y61.443 E7.76757
G1 X241.3 Y61.652 E7.78691
G1 X241.81 Y61.934 E7.80628
G1 X242.277 Y62.283 E7.82565
G1 X242.692 Y62.693 E7.84504
G1 X243.046 Y63.155 E7.86438
G1 X243.334 Y63.662 E7.88376
G1 X243.55 Y64.203 E7.90311
G1 X243.69 Y64.769 E7.92249
G1 X243.751 Y65.349 E7.94187
G1 X243.732 Y65.931 E7.96122
G1 X243.634 Y66.505 E7.98057
G1 X243.508 Y66.928 E7.99524
G1 X241.412 Y72.819 E8.20303
G1 X239.902 Y78.021 E8.38304
G1 X239.245 Y80.7 E8.47471
G1 X238.699 Y83.245 E8.56121
G1 X237.776 Y88.629 E8.74274
G1 X237.165 Y94.016 E8.92291
G1 X236.861 Y99.412 E9.10251
G1 X236.861 Y104.836 E9.28276
G1 X237.168 Y110.231 E9.46234
G1 X237.782 Y115.625 E9.64275
G1 X238.7 Y120.978 E9.82324
G1 X239.265 Y123.6 E9.91237
G1 X239.904 Y126.205 E10.00151
G1 X241.426 Y131.441 E10.18271
G1 X243.23 Y136.546 E10.36264
G1 X245.443 Y141.825 E10.55287
G1 X245.631 Y142.376 E10.57221
G1 X245.742 Y142.948 E10.59158
G1 X245.774 Y143.468 E10.60889
G1 X245.777 Y215.521 E13.00335
G1 X245.737 Y216.102 E13.02271
G1 X245.618 Y216.673 E13.04209
G1 X245.422 Y217.221 E13.06143
G1 X245.153 Y217.738 E13.0808
G1 X244.815 Y218.213 E13.10017
G1 X244.416 Y218.638 E13.11955
G1 X243.963 Y219.004 E13.1389
G1 X243.463 Y219.304 E13.15828
G1 X242.928 Y219.534 E13.17763
G1 X242.365 Y219.687 E13.19702
G1 X242.05 Y219.739 E13.20763
G1 X237.938 Y220.249 E13.34532
G1 X232.566 Y221.175 E13.52648
G1 X230.004 Y221.729 E13.61359
G1 X224.71 Y223.112 E13.79542
G1 X219.544 Y224.779 E13.97581
G1 X214.51 Y226.724 E14.15516
G1 X209.556 Y228.967 E14.33588
G1 X204.768 Y231.47 E14.51542
G1 X200.127 Y234.244 E14.6951
G1 X195.635 Y237.284 E14.87535
G1 X191.318 Y240.576 E15.05577
G1 X187.218 Y244.087 E15.23515
G1 X183.295 Y247.85 E15.4158
G1 X181.458 Y249.767 E15.50403
G1 X177.223 Y254.613 E15.7179
G1 X176.811 Y255.024 E15.73724
G1 X176.345 Y255.375 E15.75663
G1 X175.837 Y255.66 E15.77599
G1 X175.294 Y255.872 E15.79536
G1 X174.727 Y256.007 E15.81473
G1 X174.018 Y256.066 E15.83837
G1 X154.162 Y256.041 E16.49823
G1 X154.131 Y256.041 E16.49926
G1 X139.158 Y255.915 E16.99686
G1 X139.074 Y255.913 E16.99965
G1 X131.883 Y255.71 E17.23872
G1 X131.303 Y255.654 E17.25808
G1 X130.928 Y255.574 E17.27082
G1 X124.887 Y253.995 E17.47832
G1 X124.335 Y253.809 E17.49768
G1 X123.764 Y253.52 E17.51895
G1 X118.666 Y250.439 E17.7169
G1 X118.189 Y250.104 E17.73627
G1 X117.681 Y249.618 E17.75963
G1 X113.826 Y245.261 E17.95296
G1 X113.471 Y244.799 E17.97233
G1 X113.118 Y244.155 E17.99673
G1 X110.728 Y238.718 E18.1941
G1 X110.485 Y237.996 E18.21942
G1 X109.402 Y233.464 E18.37426
G1 X107.871 Y228.254 E18.55472
G1 X106.035 Y223.105 E18.73639
G1 X105.054 Y220.687 E18.8231
G1 X102.791 Y215.716 E19.00461
G1 X100.274 Y210.927 E19.1844
G1 X97.47 Y206.255 E19.36548
G1 X96.024 Y204.061 E19.4528
G1 X92.828 Y199.634 E19.63425
G1 X89.406 Y195.419 E19.81467
G1 X85.763 Y191.416 E19.99454
G1 X81.898 Y187.627 E20.17441
G1 X77.8 Y184.037 E20.35546
G1 X75.735 Y182.379 E20.44347
G1 X72.087 Y179.66 E20.59467
G1 X71.513 Y179.144 E20.62032
G1 X69.587 Y177.07 E20.71437
G1 X69.074 Y176.393 E20.7426
G1 X67.839 Y174.371 E20.82134
G1 X67.685 Y174.097 E20.83178
G1 X66.998 Y172.759 E20.88177
G1 X66.756 Y172.188 E20.90238
G1 X66.15 Y170.408 E20.96486
G1 X66 Y169.844 E20.98426
G1 X65.946 Y169.483 E20.99639
G1 X65.792 Y168.021 E21.04524
G1 X65.769 Y167.602 E21.05919
G1 X65.748 Y164.116 E21.17504
G1 X65.755 Y163.846 E21.18401
G1 X66.175 Y156.548 E21.42694
G1 X66.173 Y151.135 E21.60683
G1 X65.865 Y145.737 E21.7865
G1 X65.252 Y140.351 E21.96665
G1 X64.332 Y134.998 E22.14715
G1 X63.121 Y129.744 E22.32632
G1 X62.403 Y127.136 E22.41622
G1 X60.737 Y121.963 E22.59682
G1 X59.594 Y118.895 E22.70562
G1 X42.539 Y75.265 E24.26237
G1 X42.364 Y74.709 E24.28175
G1 X42.267 Y74.135 E24.30109
G1 X42.25 Y73.552 E24.32047
G1 X42.313 Y72.973 E24.33983
G1 X42.454 Y72.407 E24.35921
G1 X42.671 Y71.867 E24.37855
G1 X42.961 Y71.361 E24.39793
G1 X43.316 Y70.899 E24.4173
G1 X43.732 Y70.491 E24.43666
G1 X44.199 Y70.143 E24.45601
G0 F2625 X44.292 Y70.685
G1 F900 X44.757 Y70.396 E24.47421
G1 X45.259 Y70.178 E24.4924
G1 X45.556 Y70.088 E24.50271
G1 X50.86 Y68.714 E24.68479
G1 X56.079 Y67.108 E24.86625
G1 X61.185 Y65.214 E25.04723
G1 X66.177 Y63.035 E25.22824
G1 X71.036 Y60.577 E25.4092
G1 X75.743 Y57.852 E25.58995
G1 X80.291 Y54.863 E25.7708
G1 X84.671 Y51.615 E25.95201
G1 X88.847 Y48.137 E26.13262
G1 X92.848 Y44.402 E26.31451
G1 X94.742 Y42.478 E26.40423
G1 X96.576 Y40.504 E26.49377
G1 X100.133 Y36.337 E26.67584
G1 X103.414 Y32.02 E26.85604
G1 X106.469 Y27.491 E27.03758
G1 X109.248 Y22.822 E27.21815
G1 X111.406 Y18.731 E27.37186
G1 X111.696 Y18.267 E27.39004
G1 X112.051 Y17.85 E27.40824
G1 X112.462 Y17.489 E27.42642
G1 X112.922 Y17.192 E27.44461
G1 X113.42 Y16.965 E27.4628
G1 X113.946 Y16.812 E27.48101
G1 X114.723 Y16.731 E27.50697
G1 X169.275 Y16.731 E29.31984
G1 X169.821 Y16.771 E29.33803
G1 X170.355 Y16.89 E29.35621
G1 X170.866 Y17.085 E29.37439
G1 X171.344 Y17.353 E29.3926
G1 X171.777 Y17.688 E29.41079
G1 X172.157 Y18.082 E29.42898
G1 X172.375 Y18.371 E29.44101
G1 X175.289 Y22.654 E29.61317
G1 X178.601 Y26.995 E29.79462
G1 X182.133 Y31.12 E29.97509
G1 X185.911 Y35.058 E30.15644
G1 X189.902 Y38.772 E30.33761
G1 X191.963 Y40.534 E30.42772
G1 X194.064 Y42.227 E30.51739
G1 X198.45 Y45.468 E30.69862
G1 X203.016 Y48.459 E30.88002
G1 X207.727 Y51.175 E31.06073
G1 X212.59 Y53.625 E31.24168
G1 X217.617 Y55.811 E31.42385
G1 X220.14 Y56.785 E31.51373
G1 X222.654 Y57.67 E31.6023
G1 X227.898 Y59.274 E31.78454
G1 X233.217 Y60.578 E31.96653
G1 X235.845 Y61.106 E32.05561
G1 X240.109 Y61.803 E32.19919
G1 X240.641 Y61.931 E32.21738
G1 X241.149 Y62.134 E32.23556
G1 X241.622 Y62.409 E32.25374
G1 X242.05 Y62.751 E32.27195
G1 X242.424 Y63.151 E32.29014
G1 X242.735 Y63.601 E32.30832
G1 X242.978 Y64.091 E32.3265
G1 X243.146 Y64.612 E32.34469
G1 X243.237 Y65.152 E32.36289
G1 X243.249 Y65.699 E32.38107
G1 X243.181 Y66.242 E32.39926
G1 X243.037 Y66.761 E32.41716
G1 X240.937 Y72.665 E32.6254
G1 X239.415 Y77.907 E32.8068
G1 X238.768 Y80.542 E32.89696
G1 X238.202 Y83.181 E32.98666
G1 X237.281 Y88.556 E33.16788
G1 X236.667 Y93.967 E33.34885
G1 X236.361 Y99.401 E33.52972
G1 X236.361 Y104.847 E33.7107
G1 X236.67 Y110.282 E33.89161
G1 X237.286 Y115.693 E34.07259
G1 X238.21 Y121.079 E34.25419
G1 X238.778 Y123.712 E34.34371
G1 X239.418 Y126.326 E34.43314
G1 X240.948 Y131.589 E34.61528
G1 X242.763 Y136.727 E34.79637
G1 X244.982 Y142.018 E34.98703
G1 X245.157 Y142.537 E35.00524
G1 X245.253 Y143.076 E35.02343
G1 X245.274 Y143.468 E35.03648
G1 X245.277 Y215.521 E37.43094
G1 X245.237 Y216.067 E37.44913
G1 X245.118 Y216.601 E37.46731
G1 X244.923 Y217.112 E37.48549
G1 X244.655 Y217.59 E37.5037
G1 X244.32 Y218.023 E37.52189
G1 X243.926 Y218.403 E37.54009
G1 X243.481 Y218.721 E37.55826
G1 X242.995 Y218.972 E37.57644
G1 X242.477 Y219.149 E37.59463
G1 X241.989 Y219.242 E37.61114
G1 X237.874 Y219.752 E37.74894
G1 X232.469 Y220.684 E37.93121
G1 X229.887 Y221.242 E38.01899
G1 X224.576 Y222.63 E38.20141
G1 X219.385 Y224.305 E38.38268
G1 X214.304 Y226.268 E38.56369
G1 X209.341 Y228.515 E38.74474
G1 X204.532 Y231.03 E38.92509
G1 X199.855 Y233.825 E39.10615
G1 X195.328 Y236.889 E39.28781
G1 X191.014 Y240.178 E39.46809
G1 X186.882 Y243.716 E39.64886
G1 X182.941 Y247.496 E39.83034
G1 X181.095 Y249.423 E39.91902
G1 X176.847 Y254.284 E40.13355
G1 X176.457 Y254.668 E40.15174
G1 X176.016 Y254.992 E40.16992
G1 X175.533 Y255.249 E40.1881
G1 X175.017 Y255.432 E40.2063
G1 X174.48 Y255.538 E40.22449
G1 X174.018 Y255.566 E40.23987
G1 X154.162 Y255.541 E40.89972
G1 X154.135 Y255.541 E40.90062
G1 X139.162 Y255.415 E41.39822
G1 X139.088 Y255.414 E41.40068
G1 X131.897 Y255.211 E41.63975
G1 X131.353 Y255.155 E41.65792
G1 X131.055 Y255.09 E41.66806
G1 X125.014 Y253.511 E41.87556
G1 X124.496 Y253.334 E41.89375
G1 X124.022 Y253.092 E41.91143
G1 X118.924 Y250.011 E42.10939
G1 X118.478 Y249.695 E42.12755
G1 X118.055 Y249.287 E42.14708
G1 X114.2 Y244.93 E42.34041
G1 X113.869 Y244.495 E42.35858
G1 X113.576 Y243.954 E42.37902
G1 X111.186 Y238.517 E42.57639
G1 X110.972 Y237.88 E42.59872
G1 X109.887 Y233.342 E42.75378
G1 X108.348 Y228.103 E42.93524
G1 X106.505 Y222.935 E43.11758
G1 X105.512 Y220.486 E43.2054
G1 X103.238 Y215.493 E43.38772
G1 X100.71 Y210.681 E43.56836
G1 X97.9 Y206.001 E43.74977
G1 X96.42 Y203.754 E43.83918
G1 X93.228 Y199.333 E44.02039
G1 X89.785 Y195.092 E44.20193
G1 X86.13 Y191.076 E44.38238
G1 X82.243 Y187.264 E44.56331
G1 X78.113 Y183.647 E44.74575
G1 X76.039 Y181.981 E44.83415
G1 X72.386 Y179.259 E44.98555
G1 X71.879 Y178.804 E45.00819
G1 X69.953 Y176.73 E45.10224
G1 X69.501 Y176.133 E45.12713
G1 X68.266 Y174.111 E45.20587
G1 X68.13 Y173.869 E45.21509
G1 X67.443 Y172.531 E45.26507
G1 X67.229 Y172.027 E45.28327
G1 X66.623 Y170.247 E45.34576
G1 X66.485 Y169.717 E45.36396
G1 X66.444 Y169.431 E45.37356
G1 X66.29 Y167.969 E45.42241
G1 X66.269 Y167.599 E45.43473
G1 X66.248 Y164.113 E45.55058
G1 X66.254 Y163.875 E45.55849
G1 X66.675 Y156.56 E45.80198
G1 X66.673 Y151.123 E45.98267
G1 X66.363 Y145.687 E46.16361
G1 X65.747 Y140.28 E46.34446
G1 X64.824 Y134.905 E46.52569
G1 X63.605 Y129.62 E46.70593
G1 X62.882 Y126.993 E46.79648
G1 X61.205 Y121.786 E46.97827
G1 X60.084 Y118.776 E47.08501
G1 X43.004 Y75.083 E48.64402
G1 X42.843 Y74.56 E48.6622
G1 X42.759 Y74.019 E48.6804
G1 X42.755 Y73.472 E48.69857
G1 X42.831 Y72.93 E48.71676
G1 X42.985 Y72.405 E48.73494
G1 X43.213 Y71.907 E48.75315
G1 X43.512 Y71.449 E48.77132
G1 X43.874 Y71.038 E48.78952
G1 X44.292 Y70.685 E48.8077
G0 F2625 X44.851 Y70.916
G1 F900 X45.309 Y70.693 E48.82463
G1 X45.682 Y70.572 E48.83766
G1 X50.995 Y69.195 E49.02006
G1 X56.242 Y67.581 E49.20249
G1 X61.364 Y65.681 E49.38404
G1 X66.394 Y63.485 E49.56643
G1 X71.268 Y61.02 E49.74794
G1 X76.008 Y58.276 E49.92995
G1 X80.574 Y55.275 E50.11153
G1 X84.984 Y52.005 E50.29397
G1 X89.173 Y48.516 E50.47514
G1 X93.205 Y44.752 E50.65845
G1 X95.111 Y42.816 E50.74873
G1 X96.946 Y40.841 E50.83832
G1 X100.517 Y36.656 E51.02115
G1 X103.831 Y32.297 E51.20311
G1 X106.882 Y27.775 E51.3844
G1 X109.689 Y23.058 E51.56681
G1 X111.848 Y18.965 E51.72059
G1 X112.121 Y18.534 E51.73754
G1 X112.457 Y18.151 E51.75447
G1 X112.849 Y17.826 E51.7714
G1 X113.287 Y17.565 E51.78834
G1 X113.76 Y17.377 E51.80525
G1 X114.257 Y17.265 E51.82219
G1 X114.723 Y17.231 E51.83771
G1 X169.275 Y17.231 E53.65058
G1 X169.783 Y17.271 E53.66752
G1 X170.278 Y17.39 E53.68444
G1 X170.749 Y17.585 E53.70138
G1 X171.184 Y17.851 E53.71832
G1 X171.571 Y18.181 E53.73522
G1 X171.962 Y18.653 E53.75559
G1 X174.885 Y22.948 E53.92824
G1 X178.201 Y27.296 E54.10996
G1 X181.772 Y31.466 E54.29241
G1 X185.554 Y35.409 E54.47397
G1 X189.578 Y39.152 E54.6566
G1 X191.645 Y40.92 E54.74699
G1 X193.753 Y42.619 E54.83697
G1 X198.164 Y45.878 E55.01922
G1 X202.757 Y48.886 E55.20168
G1 X207.496 Y51.619 E55.38348
G1 X212.36 Y54.07 E55.56448
G1 X217.431 Y56.275 E55.74824
G1 X219.962 Y57.252 E55.8384
G1 X222.507 Y58.147 E55.92805
G1 X227.758 Y59.754 E56.11054
G1 X233.12 Y61.069 E56.29401
G1 X235.775 Y61.602 E56.384
G1 X240.028 Y62.297 E56.52721
G1 X240.523 Y62.418 E56.54415
G1 X240.993 Y62.615 E56.56108
G1 X241.426 Y62.883 E56.57801
G1 X241.812 Y63.216 E56.59495
G1 X242.141 Y63.605 E56.61188
G1 X242.406 Y64.04 E56.62881
G1 X242.599 Y64.512 E56.64575
G1 X242.716 Y65.007 E56.66266
G1 X242.754 Y65.516 E56.67962
G1 X242.712 Y66.023 E56.69652
G1 X242.566 Y66.593 E56.71608
G1 X240.461 Y72.51 E56.92478
G1 X238.929 Y77.785 E57.10733
G1 X238.282 Y80.423 E57.19759
G1 X237.711 Y83.086 E57.2881
G1 X236.786 Y88.487 E57.4702
G1 X236.169 Y93.918 E57.65184
G1 X235.861 Y99.391 E57.83401
G1 X235.861 Y104.858 E58.01569
G1 X236.172 Y110.33 E58.19783
G1 X236.791 Y115.765 E58.37961
G1 X237.718 Y121.171 E58.56188
G1 X238.285 Y123.798 E58.65119
G1 X238.939 Y126.469 E58.74258
G1 X240.474 Y131.748 E58.92528
G1 X242.293 Y136.898 E59.10678
G1 X244.521 Y142.211 E59.29824
G1 X244.681 Y142.695 E59.31518
G1 X244.763 Y143.198 E59.33212
G1 X244.774 Y143.468 E59.3411
G1 X244.777 Y215.521 E61.73556
G1 X244.737 Y216.029 E61.7525
G1 X244.618 Y216.524 E61.76941
G1 X244.423 Y216.995 E61.78636
G1 X244.158 Y217.43 E61.80328
G1 X243.827 Y217.817 E61.82021
G1 X243.44 Y218.149 E61.83715
G1 X243.006 Y218.415 E61.85407
G1 X242.535 Y218.611 E61.87102
G1 X241.927 Y218.746 E61.89172
G1 X237.813 Y219.256 E62.02948
G1 X232.372 Y220.194 E62.21296
G1 X229.754 Y220.76 E62.30197
G1 X224.433 Y222.15 E62.48473
G1 X219.224 Y223.831 E62.66663
G1 X214.111 Y225.807 E62.84879
G1 X209.127 Y228.064 E63.03061
G1 X204.28 Y230.598 E63.21237
G1 X199.579 Y233.407 E63.39436
G1 X195.054 Y236.47 E63.57595
G1 X190.702 Y239.788 E63.75781
G1 X186.536 Y243.355 E63.94007
G1 X182.587 Y247.143 E64.12192
G1 X180.721 Y249.091 E64.21156
G1 X176.47 Y253.955 E64.42624
G1 X176.106 Y254.311 E64.44316
G1 X175.69 Y254.606 E64.4601
G1 X175.234 Y254.832 E64.47702
G1 X174.748 Y254.984 E64.49394
G1 X174.019 Y255.066 E64.51832
G1 X154.163 Y255.041 E65.17817
G1 X154.14 Y255.041 E65.17894
G1 X139.167 Y254.915 E65.67654
G1 X139.102 Y254.914 E65.6787
G1 X131.911 Y254.711 E65.91776
G1 X131.181 Y254.606 E65.94227
G1 X125.14 Y253.027 E66.14977
G1 X124.659 Y252.86 E66.16669
G1 X124.281 Y252.664 E66.18084
G1 X119.183 Y249.583 E66.37879
G1 X118.769 Y249.287 E66.39571
G1 X118.43 Y248.956 E66.41145
G1 X114.575 Y244.599 E66.60478
G1 X114.268 Y244.192 E66.62172
G1 X114.034 Y243.753 E66.63826
