;Generated by Cura LulzBot Edition GCodeWriter Version: master
;FLAVOR:Marlin
;TIME:1515
;Filament used: 0.780924m
;Layer height: 0.25
;Generated with Cura_SteamEngine 3.2.32
M82 ;absolute extrusion mode
;This G-Code has been generated specifically for the LulzBot TAZ 5 with standard extruder
M75			 ; start GLCD timer
M140 S85    ; start bed heating up
G21                      ; set units to Millimetres
G90                      ; absolute positioning
M107                     ; disable fans
M82                      ; set extruder to absolute mode
G28 X0 Y0                ; home X and Y
G28 Z0                   ; home Z
G1 Z15.0 F175 ; move extruder up
M117 Heating...                     ; progress indicator message on LCD
M109 R240  ; wait for extruder to reach printing temp
M190 S85    ; wait for bed to reach printing temp
G92 E0                   ; set extruder position to 0
G1 F200 E0               ; prime the nozzle with filament
G92 E0                   ; re-set extruder position to 0
G1 F175       ; set travel speed
M203 X192 Y208 Z3        ; set limits on travel speed
M117 TAZ 5 Printing...   ; progress indicator message on LCD

M221 S100
;LAYER_COUNT:40
;LAYER:0
M107
G0 F2625 X144.844 Y102.923 Z0.424
;TYPE:SKIRT
G1 F900 X145.296 Y102.445 E0.02186
G1 X147.796 Y100.181 E0.13395
G1 X148.254 Y99.82 E0.15333
G1 X148.757 Y99.526 E0.17269
G1 X149.195 Y99.337 E0.18854
G1 X152.422 Y98.162 E0.30267
G1 X152.982 Y98.001 E0.32203
G1 X153.558 Y97.918 E0.34137
G1 X157.894 Y97.593 E0.48587
G1 X158.294 Y97.582 E0.49917
G1 X161.108 Y97.636 E0.5927
G1 X161.523 Y97.664 E0.60652
G1 X162.516 Y97.781 E0.63975
G1 X163.089 Y97.889 E0.65913
G1 X163.492 Y98.016 E0.67317
G1 X164.117 Y98.247 E0.69531
G1 X164.649 Y98.486 E0.71469
G1 X165.143 Y98.795 E0.73406
G1 X165.763 Y99.346 E0.76162
G1 X166.124 Y99.736 E0.77928
G1 X166.49 Y100.19 E0.79866
G1 X166.79 Y100.689 E0.81801
G1 X167.092 Y101.456 E0.8454
G1 X167.267 Y102.069 E0.86659
G1 X167.388 Y102.639 E0.88595
G1 X167.43 Y103.185 E0.90415
G1 X167.485 Y107.756 E1.05607
G1 X167.452 Y108.338 E1.07544
G1 X167.383 Y108.733 E1.08876
G1 X165.858 Y115.564 E1.32136
G1 X165.419 Y118.133 E1.40797
G1 X164.721 Y123.539 E1.58911
G1 X164.334 Y128.928 E1.76866
G1 X164.253 Y134.369 E1.9495
G1 X164.475 Y139.752 E2.12854
G1 X165.008 Y145.168 E2.30939
G1 X165.843 Y150.527 E2.48963
G1 X166.356 Y153.104 E2.57695
G1 X167.656 Y158.427 E2.75904
G1 X169.23 Y163.587 E2.93832
G1 X172.136 Y171.404 E3.21546
G1 X172.301 Y171.963 E3.23483
G1 X172.388 Y172.539 E3.25419
G1 X172.395 Y173.122 E3.27357
G1 X172.323 Y173.7 E3.29292
G1 X172.172 Y174.263 E3.31229
G1 X171.946 Y174.8 E3.33166
G1 X171.649 Y175.301 E3.35101
G1 X171.285 Y175.757 E3.3704
G1 X170.863 Y176.158 E3.38975
G1 X170.39 Y176.498 E3.4091
G1 X169.874 Y176.77 E3.42849
G1 X169.107 Y177.026 E3.45536
G1 X168.097 Y177.259 E3.48981
G1 X167.522 Y177.351 E3.50916
G1 X167.206 Y177.368 E3.51967
G1 X164.438 Y177.41 E3.61167
G1 X164.105 Y177.401 E3.62274
G1 X161.958 Y177.265 E3.69423
G1 X161.608 Y177.229 E3.70593
G1 X158.054 Y176.706 E3.8253
G1 X152.631 Y176.158 E4.00644
G1 X147.231 Y175.92 E4.18607
G1 X141.808 Y175.99 E4.3663
G1 X136.386 Y176.364 E4.54691
G1 X133.716 Y176.664 E4.6362
G1 X129.063 Y177.359 E4.79254
G1 X128.442 Y177.406 E4.81324
G1 X124.547 Y177.412 E4.94268
G1 X124.294 Y177.405 E4.95109
G1 X122.344 Y177.292 E5.016
G1 X121.494 Y177.155 E5.04461
G1 X120.752 Y176.957 E5.07013
G1 X120.201 Y176.769 E5.08948
G1 X119.68 Y176.507 E5.10886
G1 X119.201 Y176.176 E5.12821
G1 X118.771 Y175.782 E5.14759
G1 X118.399 Y175.334 E5.16694
G1 X118.091 Y174.839 E5.18631
G1 X117.855 Y174.306 E5.20568
G1 X117.693 Y173.746 E5.22506
G1 X117.61 Y173.169 E5.24443
G1 X117.606 Y172.587 E5.26377
G1 X117.682 Y172.009 E5.28314
G1 X117.832 Y171.461 E5.30203
G1 X118.89 Y168.404 E5.40953
G1 X118.928 Y168.297 E5.4133
G1 X131.763 Y134.19 E6.62434
G1 X131.774 Y134.162 E6.62534
G1 X140.622 Y111.143 E7.44488
G1 X140.653 Y111.064 E7.4477
G1 X142.124 Y107.455 E7.57721
G1 X142.421 Y106.864 E7.59919
G1 X144.51 Y103.4 E7.73362
G1 X144.844 Y102.923 E7.75297
G0 F2625 X145.254 Y103.212
G1 F900 X145.632 Y102.815 E7.77119
G1 X148.132 Y100.551 E7.88327
G1 X148.563 Y100.215 E7.90143
G1 X149.039 Y99.944 E7.91963
G1 X149.366 Y99.807 E7.93142
G1 X152.593 Y98.632 E8.04554
G1 X153.12 Y98.483 E8.06374
G1 X153.596 Y98.416 E8.07972
G1 X157.932 Y98.091 E8.22422
G1 X158.284 Y98.082 E8.23592
G1 X161.098 Y98.136 E8.32945
G1 X161.465 Y98.161 E8.34167
G1 X162.458 Y98.278 E8.3749
G1 X162.995 Y98.381 E8.39307
G1 X163.319 Y98.485 E8.40438
G1 X163.944 Y98.716 E8.42652
G1 X164.442 Y98.942 E8.4447
G1 X164.902 Y99.239 E8.46289
G1 X165.396 Y99.686 E8.48503
G1 X165.757 Y100.076 E8.50269
G1 X166.099 Y100.503 E8.52087
G1 X166.374 Y100.976 E8.53906
G1 X166.611 Y101.594 E8.56105
G1 X166.786 Y102.207 E8.58224
G1 X166.897 Y102.742 E8.6004
G1 X166.93 Y103.191 E8.61536
G1 X166.985 Y107.762 E8.76727
G1 X166.951 Y108.308 E8.78545
G1 X166.895 Y108.624 E8.79612
G1 X165.367 Y115.469 E9.02919
G1 X164.924 Y118.059 E9.11651
G1 X164.223 Y123.491 E9.29852
G1 X163.835 Y128.903 E9.47883
G1 X163.753 Y134.364 E9.66034
G1 X163.978 Y139.803 E9.84124
G1 X164.51 Y145.224 E10.02225
G1 X165.349 Y150.608 E10.20333
G1 X165.871 Y153.227 E10.29208
G1 X167.171 Y158.55 E10.47417
G1 X168.758 Y163.754 E10.65498
G1 X171.667 Y171.578 E10.93237
G1 X171.82 Y172.104 E10.95058
G1 X171.894 Y172.646 E10.96876
G1 X171.889 Y173.193 E10.98694
G1 X171.805 Y173.734 E11.00513
G1 X171.642 Y174.257 E11.02333
G1 X171.405 Y174.75 E11.04151
G1 X171.099 Y175.204 E11.05971
G1 X170.73 Y175.608 E11.07789
G1 X170.306 Y175.955 E11.0961
G1 X169.836 Y176.235 E11.11428
G1 X169.331 Y176.445 E11.13245
G1 X168.995 Y176.539 E11.14405
G1 X167.985 Y176.772 E11.17849
G1 X167.199 Y176.868 E11.20481
G1 X164.431 Y176.91 E11.2968
G1 X164.137 Y176.902 E11.30658
G1 X161.99 Y176.766 E11.37807
G1 X161.681 Y176.734 E11.38839
G1 X158.112 Y176.209 E11.50828
G1 X152.668 Y175.659 E11.69011
G1 X147.247 Y175.42 E11.87044
G1 X141.785 Y175.49 E12.05197
G1 X136.344 Y175.866 E12.23321
G1 X133.665 Y176.166 E12.3228
G1 X128.989 Y176.865 E12.47992
G1 X128.441 Y176.906 E12.49818
G1 X124.546 Y176.912 E12.62762
G1 X124.323 Y176.906 E12.63503
G1 X122.373 Y176.793 E12.69994
G1 X121.623 Y176.672 E12.72519
G1 X120.881 Y176.474 E12.75071
G1 X120.364 Y176.295 E12.76889
G1 X119.878 Y176.042 E12.7871
G1 X119.435 Y175.721 E12.80528
G1 X119.043 Y175.34 E12.82344
G1 X118.71 Y174.905 E12.84165
G1 X118.445 Y174.426 E12.85984
G1 X118.252 Y173.914 E12.87803
G1 X118.135 Y173.379 E12.89622
G1 X118.098 Y172.833 E12.91441
G1 X118.141 Y172.287 E12.93261
G1 X118.304 Y171.625 E12.95527
G1 X119.362 Y168.568 E13.06277
G1 X119.396 Y168.473 E13.06612
G1 X132.231 Y134.366 E14.27717
G1 X132.241 Y134.342 E14.27803
G1 X141.089 Y111.323 E15.09756
G1 X141.116 Y111.253 E15.10006
G1 X142.587 Y107.644 E15.22957
G1 X142.849 Y107.122 E15.24898
G1 X144.938 Y103.658 E15.38341
G1 X145.254 Y103.212 E15.40157
G0 F2625 X145.662 Y103.502
G1 F900 X145.967 Y103.186 E15.41617
G1 X148.467 Y100.922 E15.52825
G1 X148.871 Y100.611 E15.54519
G1 X149.537 Y100.277 E15.56995
G1 X152.764 Y99.102 E15.68408
G1 X153.255 Y98.966 E15.70101
G1 X153.633 Y98.915 E15.71369
G1 X157.969 Y98.59 E15.85819
G1 X158.274 Y98.582 E15.86832
G1 X161.088 Y98.636 E15.96186
G1 X161.406 Y98.657 E15.97245
G1 X162.399 Y98.774 E16.00568
G1 X162.899 Y98.873 E16.02261
G1 X163.146 Y98.954 E16.03125
G1 X163.771 Y99.185 E16.0534
G1 X164.233 Y99.398 E16.0703
G1 X164.657 Y99.681 E16.08724
G1 X165.029 Y100.025 E16.10408
G1 X165.39 Y100.415 E16.12174
G1 X165.706 Y100.815 E16.13868
G1 X165.955 Y101.26 E16.15563
G1 X166.13 Y101.731 E16.17232
G1 X166.305 Y102.344 E16.19351
G1 X166.406 Y102.843 E16.21043
G1 X166.43 Y103.197 E16.22222
G1 X166.485 Y107.768 E16.37413
G1 X166.407 Y108.515 E16.39909
G1 X164.876 Y115.377 E16.63274
G1 X164.43 Y117.981 E16.72053
G1 X163.727 Y123.427 E16.90302
G1 X163.335 Y128.895 E17.0852
G1 X163.252 Y134.378 E17.26743
G1 X163.478 Y139.838 E17.44903
G1 X164.013 Y145.279 E17.63072
G1 X164.86 Y150.712 E17.81345
G1 X165.38 Y153.323 E17.90192
G1 X166.687 Y158.677 E18.08507
G1 X168.287 Y163.921 E18.26727
G1 X171.198 Y171.752 E18.54491
G1 X171.338 Y172.242 E18.56184
G1 X171.399 Y172.748 E18.57878
G1 X171.381 Y173.257 E18.59571
G1 X171.283 Y173.757 E18.61264
G1 X171.108 Y174.236 E18.62958
G1 X170.86 Y174.681 E18.64651
G1 X170.546 Y175.083 E18.66347
G1 X170.173 Y175.43 E18.6804
G1 X169.751 Y175.714 E18.6973
G1 X169.289 Y175.93 E18.71425
G1 X168.883 Y176.052 E18.72834
G1 X167.873 Y176.285 E18.76278
G1 X167.191 Y176.368 E18.78561
G1 X164.423 Y176.41 E18.87761
G1 X164.169 Y176.403 E18.88605
G1 X162.022 Y176.267 E18.95755
G1 X161.754 Y176.239 E18.9665
G1 X158.19 Y175.714 E19.08622
G1 X152.706 Y175.161 E19.26939
G1 X147.245 Y174.92 E19.45104
G1 X141.761 Y174.99 E19.6333
G1 X136.301 Y175.367 E19.81518
G1 X133.591 Y175.671 E19.9058
G1 X128.915 Y176.37 E20.06292
G1 X128.44 Y176.406 E20.07875
G1 X124.545 Y176.412 E20.20819
G1 X124.352 Y176.407 E20.21461
G1 X122.402 Y176.294 E20.27952
G1 X121.752 Y176.189 E20.3014
G1 X121.01 Y175.991 E20.32692
G1 X120.53 Y175.822 E20.34383
G1 X120.082 Y175.579 E20.36077
G1 X119.677 Y175.269 E20.37772
G1 X119.326 Y174.9 E20.39464
G1 X119.036 Y174.481 E20.41158
G1 X118.816 Y174.021 E20.42852
G1 X118.67 Y173.533 E20.44545
G1 X118.603 Y173.028 E20.46238
G1 X118.615 Y172.519 E20.4793
G1 X118.777 Y171.788 E20.50418
G1 X119.835 Y168.731 E20.61168
G1 X119.864 Y168.649 E20.61457
G1 X132.699 Y134.542 E21.82562
G1 X132.707 Y134.521 E21.82636
G1 X141.555 Y111.502 E22.64589
G1 X141.579 Y111.441 E22.64807
G1 X143.05 Y107.832 E22.77759
G1 X143.277 Y107.381 E22.79437
G1 X145.366 Y103.917 E22.92879
G1 X145.662 Y103.502 E22.94573
G1 F600 E21.94573
G0 F2625 X144.98 Y109.879
G0 X146.294 Y110.455
G0 X143.871 Y129.082
G0 X143.921 Y129.168
;TYPE:WALL-INNER
G1 F600 E22.94573
G1 F900 X143.25 Y130.451 E22.99385
G1 X142.234 Y132.951 E23.08353
G1 X140.817 Y136.671 E23.21582
G1 X139.135 Y141.26 E23.37824
G1 X135.06 Y152.524 E23.77631
G1 X127.874 Y172.423 E24.47939
G1 X125.149 Y172.423 E24.56994
G1 X123.872 Y172.399 E24.61239
G1 X123.158 Y172.353 E24.63617
G1 X122.886 Y172.336 E24.64522
G1 X122.796 Y172.323 E24.64825
G1 X122.802 Y172.307
G1 X122.894 Y172.05 E24.65432
G1 X123.563 Y170.182 E24.72026
G1 X124.707 Y167.074 E24.83032
G1 X127.959 Y158.379 E25.13882
G1 X132.045 Y147.544 E25.52364
G1 X136.442 Y135.954 E25.93559
G1 X140.63 Y124.984 E26.3258
G1 X144.087 Y116.018 E26.64514
G1 X145.373 Y112.72 E26.76278
G1 X146.276 Y110.448 E26.84403
G1 X146.722 Y109.393 E26.88209
G1 X148.752 Y106.031 E27.0126
G1 X151.043 Y103.973 E27.11494
G1 X154.029 Y102.888 E27.22052
G1 X158.223 Y102.572 E27.36029
G1 X159.867 Y102.587 E27.41493
G1 X161.103 Y102.631 E27.45603
G1 X161.876 Y102.731 E27.48193
G1 X162.227 Y102.866 E27.49443
G1 X162.343 Y102.99 E27.50007
G1 X162.441 Y103.311 E27.51123
G1 X162.492 Y104.003 E27.53428
G1 X162.499 Y105.05 E27.56908
G1 X162.499 Y106.736 E27.62511
G1 X162.499 Y106.737 E27.62514
G1 X162.499 Y106.999 E27.63385
G1 X162.237 Y106.986 E27.63941
G1 X159.84 Y106.862 E27.71918
G1 X157.947 Y106.805 E27.78211
G1 X156.613 Y106.863 E27.82649
G1 X155.562 Y107.1 E27.86229
G1 X154.576 Y107.546 E27.89825
G1 X153.354 Y108.314 E27.94622
G1 X152.251 Y109.372 E27.99701
G1 X151.251 Y110.722 E28.05284
G1 X150.295 Y112.398 E28.11696
G1 X149.336 Y114.569 E28.19583
G1 X148.289 Y117.224 E28.29068
G1 X147.434 Y119.628 E28.37547
G1 X147.027 Y121.179 E28.42876
G1 X147.303 Y122.049 E28.45909
G1 X147.906 Y123.672 E28.51663
G1 X148.846 Y126.131 E28.60411
G1 X150.091 Y129.334 E28.71831
G1 X153.327 Y137.551 E29.01179
G1 X155.239 Y142.355 E29.18362
G1 X159.339 Y152.6 E29.55033
G1 X162.975 Y161.724 E29.87673
G1 X165.724 Y168.668 E30.12492
G1 X167.068 Y172.112 E30.24777
G1 X167.152 Y172.329 E30.2555
G1 X167.162 Y172.353 E30.25637
G1 X166.989 Y172.393 E30.2574
G1 X166.756 Y172.396 E30.26308
G1 X164.699 Y172.428 E30.33144
G1 X162.347 Y172.291 E30.40974
G1 X161.598 Y172.114 E30.43531
G1 X161.041 Y170.648 E30.48743
G1 X153.455 Y150.967 E31.18837
G1 X150.268 Y142.772 E31.48058
G1 X147.628 Y136.021 E31.72147
G1 X145.8 Y131.414 E31.88618
G1 X145.273 Y130.121 E31.93258
G1 X144.861 Y129.198 E31.96617
G1 X143.921 Y129.168 E31.99743
G0 F2625 X144.219 Y129.678
;TYPE:WALL-OUTER
G1 F900 X144.13 Y129.848 E32.0038
G1 X143.704 Y130.662 E32.03433
G1 X142.699 Y133.134 E32.12301
G1 X141.285 Y136.846 E32.25502
G1 X139.605 Y141.431 E32.41729
G1 X135.53 Y152.694 E32.81533
G1 X128.225 Y172.923 E33.53007
G1 X125.14 Y172.923 E33.63259
G1 X123.853 Y172.899 E33.67537
G1 X122.836 Y172.834 E33.70923
G1 X122.444 Y172.778 E33.72239
G1 X122.168 Y172.739 E33.73165
G1 X122.141 Y172.726 E33.73265
G1 X122.226 Y172.461 E33.73857
G1 X122.35 Y172.078 E33.75195
G1 X123.092 Y170.013 E33.82487
G1 X124.239 Y166.899 E33.93515
G1 X127.491 Y158.203 E34.24368
G1 X131.577 Y147.368 E34.6285
G1 X135.975 Y135.776 E35.04052
G1 X140.163 Y124.804 E35.4308
G1 X143.621 Y115.836 E35.75021
G1 X144.908 Y112.535 E35.86795
G1 X145.815 Y110.253 E35.94956
G1 X146.274 Y109.167 E35.98874
G1 X148.362 Y105.71 E36.12295
G1 X150.781 Y103.536 E36.23103
G1 X153.924 Y102.394 E36.34216
G1 X158.201 Y102.072 E36.4847
G1 X159.885 Y102.087 E36.54066
G1 X161.142 Y102.132 E36.58246
G1 X161.999 Y102.243 E36.61118
G1 X162.514 Y102.44 E36.6295
G1 X162.787 Y102.733 E36.64281
G1 X162.936 Y103.221 E36.65977
G1 X162.992 Y103.978 E36.68499
G1 X162.999 Y105.05 E36.72062
G1 X162.999 Y107.262 E36.79413
G1 X162.999 Y107.263 E36.79416
G1 X162.999 Y107.525 E36.80287
G1 X162.737 Y107.512 E36.80843
G1 X159.82 Y107.362 E36.9055
G1 X157.95 Y107.305 E36.96767
G1 X156.68 Y107.361 E37.00992
G1 X155.722 Y107.577 E37.04255
G1 X154.813 Y107.988 E37.07571
G1 X153.663 Y108.71 E37.12083
G1 X152.628 Y109.703 E37.1685
G1 X151.671 Y110.996 E37.22195
G1 X150.742 Y112.624 E37.28424
G1 X149.797 Y114.762 E37.36193
G1 X148.757 Y117.4 E37.45616
G1 X147.912 Y119.776 E37.53996
G1 X147.547 Y121.166 E37.58772
G1 X147.776 Y121.886 E37.61283
G1 X148.374 Y123.496 E37.6699
G1 X149.313 Y125.951 E37.75725
G1 X150.557 Y129.152 E37.87138
G1 X153.792 Y137.367 E38.16478
G1 X155.703 Y142.17 E38.33657
G1 X159.803 Y152.414 E38.70325
G1 X163.44 Y161.54 E39.02972
G1 X166.19 Y168.486 E39.27798
G1 X167.684 Y172.312 E39.41448
G1 X167.721 Y172.408 E39.4179
G1 X167.832 Y172.712 E39.42865
G1 X167.793 Y172.72
G1 X167.692 Y172.743 E39.43163
G1 X167.048 Y172.892 E39.45359
G1 X164.691 Y172.928 E39.53193
G1 X162.271 Y172.787 E39.61249
G1 X161.225 Y172.54 E39.6482
G1 X160.574 Y170.827 E39.7091
G1 X152.989 Y151.148 E40.40997
G1 X149.802 Y142.953 E40.70218
G1 X147.163 Y136.204 E40.94299
G1 X145.336 Y131.601 E41.10757
G1 X144.813 Y130.317 E41.15364
G1 X144.61 Y129.863 E41.17017
G1 X144.532 Y129.688 E41.17654
G1 X144.219 Y129.678 E41.18695
G0 F2625 X144.13 Y129.848
G0 X144.103 Y129.9
G0 X143.572 Y129.622
G0 X143.629 Y128.668
;TYPE:SKIN
G1 F900 X142.805 Y130.245 E41.24607
G1 X141.778 Y132.771 E41.33669
G1 X140.358 Y136.499 E41.46926
G1 X138.674 Y141.092 E41.63183
G1 X134.599 Y152.357 E42.02993
G1 X127.53 Y171.933 E42.7216
G1 X125.159 Y171.933 E42.80039
G1 X123.892 Y171.909 E42.8425
G1 X123.474 Y171.882 E42.85642
G1 X124.004 Y170.402 E42.90866
G1 X125.166 Y167.246 E43.02043
G1 X128.418 Y158.551 E43.32893
G1 X132.504 Y147.717 E43.71372
G1 X136.9 Y136.128 E44.12562
G1 X141.142 Y125.017 E44.52086
G1 X144.544 Y116.194 E44.8351
G1 X145.828 Y112.901 E44.95256
G1 X146.727 Y110.638 E45.03348
G1 X147.159 Y109.616 E45.07035
G1 X149.132 Y106.348 E45.19721
G1 X151.299 Y104.401 E45.29402
G1 X154.137 Y103.37 E45.39437
G1 X158.232 Y103.062 E45.53084
G1 X159.849 Y103.077 E45.58458
G1 X161.066 Y103.121 E45.62505
G1 X161.756 Y103.209 E45.64816
G1 X161.917 Y103.272 E45.65391
G1 X161.957 Y103.402 E45.65843
G1 X162.002 Y104.007 E45.67859
G1 X162.009 Y105.05 E45.71325
G1 X162.009 Y106.482 E45.76084
G1 X159.86 Y106.372 E45.83235
G1 X157.943 Y106.315 E45.89608
G1 X156.548 Y106.375 E45.94248
G1 X155.405 Y106.633 E45.98142
G1 X154.343 Y107.113 E46.02015
G1 X153.051 Y107.926 E46.07088
G1 X151.882 Y109.047 E46.1247
G1 X150.84 Y110.454 E46.18289
G1 X149.856 Y112.177 E46.24883
