;Generated by Cura LulzBot Edition GCodeWriter Version: master
;FLAVOR:Marlin
;TIME:902
;Filament used: 0.466261m
;Layer height: 0.25
;Generated with Cura_SteamEngine 3.2.32
M82 ;absolute extrusion mode
;This G-Code has been generated specifically for the LulzBot TAZ 5 with standard extruder
M75			 ; start GLCD timer
M140 S85    ; start bed heating up
G21                      ; set units to Millimetres
G90                      ; absolute positioning
M107                     ; disable fans
M82                      ; set extruder to absolute mode
G28 X0 Y0                ; home X and Y
G28 Z0                   ; home Z
G1 Z15.0 F175 ; move extruder up
M117 Heating...                     ; progress indicator message on LCD
M109 R240  ; wait for extruder to reach printing temp
M190 S85    ; wait for bed to reach printing temp
G92 E0                   ; set extruder position to 0
G1 F200 E0               ; prime the nozzle with filament
G92 E0                   ; re-set extruder position to 0
G1 F175       ; set travel speed
M203 X192 Y208 Z3        ; set limits on travel speed
M117 TAZ 5 Printing...   ; progress indicator message on LCD

M221 S100
;LAYER_COUNT:40
;LAYER:0
M107
G0 F2625 X131.636 Y124.674 Z0.424
;TYPE:SKIRT
G1 F900 X132.157 Y124.151 E0.02453
G1 X134.014 Y122.586 E0.10524
G1 X134.649 Y122.144 E0.13095
G1 X137.053 Y120.774 E0.2229
G1 X137.442 Y120.577 E0.23739
G1 X138.571 Y120.079 E0.2784
G1 X139.104 Y119.886 E0.29724
G1 X140.24 Y119.557 E0.33654
G1 X140.974 Y119.413 E0.3614
G1 X142.435 Y119.258 E0.41022
G1 X142.855 Y119.234 E0.4242
G1 X146.349 Y119.211 E0.54031
G1 X146.687 Y119.222 E0.55155
G1 X148.766 Y119.374 E0.62083
G1 X149.589 Y119.517 E0.64859
G1 X150.797 Y119.851 E0.69024
G1 X151.388 Y120.062 E0.71109
G1 X152.733 Y120.659 E0.75999
G1 X153.173 Y120.886 E0.77645
G1 X155.277 Y122.131 E0.85769
G1 X155.871 Y122.556 E0.88196
G1 X157.757 Y124.165 E0.96435
G1 X158.248 Y124.658 E0.98747
G1 X159.836 Y126.541 E1.06933
G1 X160.266 Y127.154 E1.09421
G1 X161.786 Y129.783 E1.19513
G1 X161.983 Y130.166 E1.20944
G1 X162.361 Y131.006 E1.24005
G1 X162.562 Y131.548 E1.25926
G1 X162.921 Y132.766 E1.30146
G1 X163.073 Y133.544 E1.32781
G1 X163.208 Y134.889 E1.37273
G1 X163.229 Y135.287 E1.38597
G1 X163.251 Y138.834 E1.50385
G1 X163.239 Y139.177 E1.51525
G1 X163.084 Y141.247 E1.58424
G1 X162.94 Y142.071 E1.61203
G1 X162.594 Y143.313 E1.65488
G1 X162.378 Y143.91 E1.67598
G1 X161.746 Y145.32 E1.72733
G1 X161.553 Y145.699 E1.74146
G1 X160.355 Y147.785 E1.8214
G1 X159.932 Y148.392 E1.84599
G1 X158.372 Y150.26 E1.92687
G1 X157.844 Y150.79 E1.95173
G1 X155.981 Y152.355 E2.03258
G1 X155.37 Y152.783 E2.05738
G1 X153.218 Y154.024 E2.13993
G1 X152.647 Y154.299 E2.16099
G1 X150.602 Y155.101 E2.23399
G1 X149.893 Y155.31 E2.25855
G1 X148.658 Y155.56 E2.30043
G1 X148.167 Y155.629 E2.31691
G1 X146.639 Y155.756 E2.36786
G1 X146.267 Y155.771 E2.38023
G1 X142.84 Y155.755 E2.49412
G1 X142.179 Y155.7 E2.51616
G1 X140.231 Y155.384 E2.58174
G1 X139.664 Y155.252 E2.60109
G1 X139.217 Y155.086 E2.61694
G1 X136.359 Y153.843 E2.72051
G1 X135.842 Y153.575 E2.73986
G1 X135.568 Y153.393 E2.75079
G1 X132.946 Y151.502 E2.85822
G1 X132.308 Y150.936 E2.88656
G1 X130.577 Y149.059 E2.97142
G1 X130.074 Y148.393 E2.99915
G1 X128.839 Y146.371 E3.07789
G1 X128.686 Y146.098 E3.08829
G1 X127.997 Y144.757 E3.13839
G1 X127.753 Y144.183 E3.15912
G1 X127.149 Y142.406 E3.22149
G1 X127 Y141.842 E3.24087
G1 X126.936 Y141.375 E3.25654
G1 X126.762 Y139.19 E3.32938
G1 X126.749 Y138.83 E3.34135
G1 X126.768 Y135.365 E3.4565
G1 X126.788 Y134.976 E3.46945
G1 X126.923 Y133.589 E3.51576
G1 X127.059 Y132.861 E3.54037
G1 X127.403 Y131.625 E3.58301
G1 X127.636 Y130.989 E3.60551
G1 X128.379 Y129.374 E3.66459
G1 X128.571 Y129.006 E3.67839
G1 X129.683 Y127.103 E3.75163
G1 X130.092 Y126.52 E3.7753
G1 X131.636 Y124.674 E3.85527
G0 F2625 X132.02 Y124.995
G1 F900 X132.479 Y124.534 E3.87689
G1 X134.336 Y122.969 E3.9576
G1 X134.896 Y122.578 E3.98029
G1 X137.3 Y121.208 E4.07225
G1 X137.644 Y121.035 E4.08504
G1 X138.773 Y120.537 E4.12605
G1 X139.243 Y120.366 E4.14267
G1 X140.379 Y120.037 E4.18197
G1 X141.026 Y119.91 E4.20388
G1 X142.487 Y119.755 E4.25271
G1 X142.858 Y119.734 E4.26506
G1 X146.352 Y119.711 E4.38117
G1 X146.65 Y119.721 E4.39108
G1 X148.729 Y119.873 E4.46035
G1 X149.455 Y119.999 E4.48484
G1 X150.663 Y120.333 E4.52649
G1 X151.185 Y120.519 E4.54491
G1 X152.53 Y121.116 E4.59381
G1 X152.919 Y121.317 E4.60836
G1 X155.023 Y122.562 E4.6896
G1 X155.547 Y122.936 E4.711
G1 X157.433 Y124.545 E4.79338
G1 X157.866 Y124.98 E4.81378
G1 X159.454 Y126.863 E4.89564
G1 X159.833 Y127.404 E4.91759
G1 X161.353 Y130.033 E5.01851
G1 X161.527 Y130.371 E5.03114
G1 X161.905 Y131.211 E5.06175
G1 X162.082 Y131.69 E5.07872
G1 X162.441 Y132.908 E5.12092
G1 X162.575 Y133.593 E5.14411
G1 X162.71 Y134.938 E5.18904
G1 X162.729 Y135.29 E5.20075
G1 X162.751 Y138.837 E5.31863
G1 X162.741 Y139.14 E5.3287
G1 X162.586 Y141.21 E5.39768
G1 X162.458 Y141.936 E5.42218
G1 X162.112 Y143.178 E5.46503
G1 X161.922 Y143.706 E5.48368
G1 X161.29 Y145.116 E5.53503
G1 X161.12 Y145.45 E5.54748
G1 X159.922 Y147.536 E5.62742
G1 X159.548 Y148.072 E5.64914
G1 X157.988 Y149.94 E5.73002
G1 X157.522 Y150.407 E5.75194
G1 X155.659 Y151.972 E5.8328
G1 X155.12 Y152.35 E5.85468
G1 X152.968 Y153.591 E5.93723
G1 X152.464 Y153.833 E5.95581
G1 X150.419 Y154.635 E6.02881
G1 X149.794 Y154.819 E6.05046
G1 X148.559 Y155.069 E6.09234
G1 X148.126 Y155.131 E6.10687
G1 X146.598 Y155.258 E6.15783
G1 X146.269 Y155.271 E6.16877
G1 X142.842 Y155.255 E6.28265
G1 X142.26 Y155.207 E6.30206
G1 X140.312 Y154.891 E6.36764
G1 X139.779 Y154.764 E6.38585
G1 X139.416 Y154.628 E6.39873
G1 X136.558 Y153.385 E6.5023
G1 X135.86 Y152.988 E6.52899
G1 X133.238 Y151.097 E6.63642
G1 X132.675 Y150.597 E6.66144
G1 X130.944 Y148.72 E6.7463
G1 X130.501 Y148.133 E6.77074
G1 X129.266 Y146.111 E6.84947
G1 X129.131 Y145.87 E6.85865
G1 X128.442 Y144.529 E6.90875
G1 X128.226 Y144.022 E6.92707
G1 X127.622 Y142.245 E6.98944
G1 X127.485 Y141.715 E7.00763
G1 X127.435 Y141.336 E7.02034
G1 X127.261 Y139.151 E7.09318
G1 X127.249 Y138.832 E7.10379
G1 X127.268 Y135.367 E7.21894
G1 X127.286 Y135.025 E7.23032
G1 X127.421 Y133.638 E7.27663
G1 X127.54 Y132.996 E7.29833
G1 X127.884 Y131.76 E7.34096
G1 X128.09 Y131.198 E7.36085
G1 X128.833 Y129.583 E7.41993
G1 X129.002 Y129.258 E7.4321
G1 X130.114 Y127.355 E7.50535
G1 X130.476 Y126.841 E7.52624
G1 X132.02 Y124.995 E7.60622
G0 F2625 X132.403 Y125.316
G1 F900 X132.802 Y124.916 E7.62499
G1 X134.659 Y123.351 E7.7057
G1 X135.144 Y123.012 E7.72536
G1 X137.548 Y121.642 E7.81731
G1 X137.845 Y121.492 E7.82837
G1 X138.974 Y120.994 E7.86938
G1 X139.382 Y120.846 E7.8838
G1 X140.518 Y120.517 E7.9231
G1 X141.079 Y120.407 E7.9421
G1 X142.54 Y120.252 E7.99093
G1 X142.862 Y120.234 E8.00164
G1 X146.356 Y120.211 E8.11776
G1 X146.614 Y120.22 E8.12634
G1 X148.693 Y120.372 E8.19561
G1 X149.322 Y120.481 E8.21683
G1 X150.53 Y120.815 E8.25848
G1 X150.983 Y120.976 E8.27445
G1 X152.328 Y121.573 E8.32336
G1 X152.664 Y121.747 E8.33593
G1 X154.768 Y122.992 E8.41717
G1 X155.222 Y123.317 E8.43573
G1 X157.108 Y124.926 E8.51811
G1 X157.483 Y125.303 E8.53578
G1 X159.071 Y127.186 E8.61764
G1 X159.401 Y127.654 E8.63667
G1 X160.921 Y130.283 E8.73759
G1 X161.071 Y130.576 E8.74853
G1 X161.449 Y131.416 E8.77914
G1 X161.602 Y131.831 E8.79384
G1 X161.961 Y133.049 E8.83604
G1 X162.078 Y133.643 E8.85616
G1 X162.213 Y134.988 E8.90108
G1 X162.229 Y135.293 E8.91123
G1 X162.251 Y138.84 E9.0291
G1 X162.242 Y139.103 E9.03785
G1 X162.087 Y141.173 E9.10683
G1 X161.977 Y141.802 E9.12805
G1 X161.631 Y143.044 E9.1709
G1 X161.466 Y143.501 E9.18704
G1 X160.834 Y144.911 E9.23839
G1 X160.686 Y145.201 E9.24921
G1 X159.488 Y147.287 E9.32915
G1 X159.165 Y147.751 E9.34794
G1 X157.605 Y149.619 E9.42882
G1 X157.2 Y150.024 E9.44785
G1 X155.337 Y151.589 E9.52871
G1 X154.871 Y151.916 E9.54763
G1 X152.719 Y153.157 E9.63018
G1 X152.282 Y153.368 E9.64631
G1 X150.237 Y154.17 E9.71931
G1 X149.695 Y154.329 E9.73808
G1 X148.46 Y154.579 E9.77995
G1 X148.084 Y154.633 E9.79258
G1 X146.556 Y154.76 E9.84353
G1 X146.272 Y154.771 E9.85297
G1 X142.845 Y154.755 E9.96686
G1 X142.34 Y154.713 E9.9837
G1 X140.392 Y154.397 E10.04928
G1 X139.897 Y154.276 E10.06622
G1 X139.616 Y154.169 E10.07621
G1 X136.758 Y152.926 E10.17978
G1 X136.153 Y152.582 E10.20291
G1 X133.531 Y150.691 E10.31034
G1 X133.043 Y150.258 E10.33202
G1 X131.312 Y148.381 E10.41687
G1 X130.927 Y147.872 E10.43808
G1 X129.692 Y145.85 E10.51682
G1 X129.575 Y145.641 E10.52478
G1 X128.886 Y144.3 E10.57488
G1 X128.7 Y143.861 E10.59073
G1 X128.096 Y142.084 E10.6531
G1 X127.97 Y141.59 E10.67004
G1 X127.933 Y141.296 E10.67989
G1 X127.759 Y139.111 E10.75273
G1 X127.749 Y138.835 E10.76191
G1 X127.768 Y135.37 E10.87706
G1 X127.783 Y135.073 E10.88694
G1 X127.918 Y133.686 E10.93325
G1 X128.022 Y133.13 E10.95205
G1 X128.366 Y131.894 E10.99468
G1 X128.544 Y131.407 E11.01191
G1 X129.287 Y129.792 E11.07099
G1 X129.434 Y129.51 E11.08156
G1 X130.546 Y127.607 E11.15481
G1 X130.859 Y127.162 E11.17289
G1 X132.403 Y125.316 E11.25286
G1 F600 E10.25286
G0 F2625 X136.287 Y125.347
G0 X137.209 Y126.445
G0 X147.044 Y124.32
G0 X147.049 Y124.221
;TYPE:WALL-INNER
G1 F600 E11.25286
G1 F900 X148.375 Y124.35 E11.29713
G1 X149.413 Y124.644 E11.33299
G1 X150.69 Y125.213 E11.37945
G1 X152.692 Y126.4 E11.45679
G1 X154.472 Y127.92 E11.53458
G1 X155.995 Y129.728 E11.61314
G1 X157.22 Y131.779 E11.69253
G1 X157.804 Y133.045 E11.73886
G1 X158.111 Y134.09 E11.77505
G1 X158.242 Y135.387 E11.81838
G1 X158.269 Y137.456 E11.88714
G1 X158.242 Y139.513 E11.9555
G1 X158.109 Y140.847 E12.00005
G1 X157.802 Y141.921 E12.03717
G1 X157.219 Y143.226 E12.08467
G1 X156.035 Y145.286 E12.16363
G1 X154.562 Y147.038 E12.2397
G1 X152.804 Y148.506 E12.31581
G1 X150.765 Y149.679 E12.39398
G1 X149.514 Y150.225 E12.43934
G1 X148.418 Y150.553 E12.47736
G1 X147.204 Y150.726 E12.51811
G1 X145.525 Y150.807 E12.57397
G1 X142.89 Y150.765 E12.66155
G1 X141.133 Y150.477 E12.72072
G1 X138.407 Y149.292 E12.8195
G1 X136.121 Y147.697 E12.91213
G1 X134.258 Y145.689 E13.00316
G1 X132.78 Y143.22 E13.09879
G1 X132.196 Y141.918 E13.14621
G1 X131.89 Y140.847 E13.18322
G1 X131.758 Y139.515 E13.2277
G1 X131.731 Y137.474 E13.29554
G1 X131.758 Y135.413 E13.36403
G1 X131.889 Y134.085 E13.40838
G1 X132.197 Y133.011 E13.44551
G1 X132.781 Y131.707 E13.49299
G1 X133.966 Y129.663 E13.57151
G1 X135.439 Y127.905 E13.64773
G1 X137.198 Y126.429 E13.72403
G1 X139.232 Y125.252 E13.80213
G1 X140.55 Y124.66 E13.85014
G1 X141.62 Y124.354 E13.88713
G1 X142.952 Y124.222 E13.93161
G1 X145.001 Y124.193 E13.99971
G1 X147.049 Y124.221 E14.06777
G0 F2625 X147.08 Y123.721
;TYPE:WALL-OUTER
G1 F900 X148.466 Y123.856 E14.11405
G1 X149.588 Y124.174 E14.15281
G1 X150.916 Y124.766 E14.20113
G1 X152.984 Y125.992 E14.28102
G1 X154.826 Y127.565 E14.36151
G1 X156.403 Y129.437 E14.44286
G1 X157.664 Y131.547 E14.52454
G1 X158.275 Y132.872 E14.57303
G1 X158.603 Y133.99 E14.61175
G1 X158.742 Y135.368 E14.65778
G1 X158.769 Y137.462 E14.72737
G1 X158.742 Y139.547 E14.79667
G1 X158.603 Y140.941 E14.84322
G1 X158.275 Y142.087 E14.88283
G1 X157.665 Y143.452 E14.93252
G1 X156.443 Y145.578 E15.01401
G1 X154.916 Y147.394 E15.09286
G1 X153.096 Y148.914 E15.17166
G1 X150.988 Y150.127 E15.25248
G1 X149.685 Y150.696 E15.29973
G1 X148.524 Y151.043 E15.34
G1 X147.257 Y151.224 E15.38253
G1 X145.525 Y151.307 E15.44016
G1 X142.849 Y151.264 E15.5291
G1 X140.988 Y150.96 E15.59176
G1 X138.163 Y149.732 E15.69413
G1 X135.789 Y148.075 E15.79034
G1 X133.856 Y145.992 E15.88477
G1 X132.336 Y143.452 E15.98314
G1 X131.724 Y142.087 E16.03286
G1 X131.396 Y140.941 E16.07247
G1 X131.258 Y139.547 E16.11902
G1 X131.231 Y137.468 E16.18812
G1 X131.258 Y135.381 E16.25748
G1 X131.396 Y133.991 E16.3039
G1 X131.724 Y132.845 E16.34351
G1 X132.339 Y131.471 E16.39354
G1 X133.552 Y129.378 E16.47393
G1 X135.084 Y127.55 E16.55319
G1 X136.911 Y126.017 E16.63244
G1 X139.004 Y124.807 E16.71279
G1 X140.381 Y124.188 E16.76296
G1 X141.526 Y123.86 E16.80254
G1 X142.92 Y123.722 E16.84909
G1 X145.001 Y123.693 E16.91825
G1 X147.08 Y123.721 E16.98735
G0 F2625 X147.328 Y123.745
G0 X147.269 Y124.342
G0 X147.02 Y124.711
;TYPE:SKIN
G1 F900 X148.283 Y124.834 E17.02952
G1 X149.25 Y125.107 E17.06291
G1 X150.466 Y125.649 E17.10715
G1 X152.404 Y126.798 E17.18202
G1 X154.122 Y128.266 E17.25712
G1 X155.595 Y130.014 E17.33309
G1 X156.785 Y132.006 E17.4102
G1 X157.346 Y133.221 E17.45467
G1 X157.627 Y134.181 E17.48791
G1 X157.752 Y135.42 E17.52929
G1 X157.779 Y137.45 E17.59676
G1 X157.752 Y139.48 E17.66423
G1 X157.625 Y140.758 E17.70691
G1 X157.34 Y141.755 E17.74137
G1 X156.786 Y142.996 E17.78653
G1 X155.629 Y145.008 E17.86366
G1 X154.215 Y146.689 E17.93666
G1 X152.526 Y148.1 E18.0098
G1 X150.539 Y149.243 E18.08597
G1 X149.351 Y149.762 E18.12906
G1 X148.307 Y150.074 E18.16527
G1 X147.165 Y150.237 E18.2036
G1 X145.509 Y150.317 E18.2587
G1 X142.936 Y150.275 E18.34422
G1 X141.271 Y150.003 E18.40028
G1 X138.647 Y148.862 E18.49537
G1 X136.443 Y147.325 E18.58466
G1 X134.653 Y145.395 E18.67214
G1 X133.213 Y142.99 E18.76529
G1 X132.658 Y141.752 E18.81038
G1 X132.374 Y140.758 E18.84473
G1 X132.248 Y139.482 E18.88734
G1 X132.221 Y137.48 E18.95388
G1 X132.248 Y135.444 E19.02155
G1 X132.373 Y134.175 E19.06392
G1 X132.659 Y133.177 E19.09842
G1 X133.217 Y131.93 E19.14382
G1 X134.366 Y129.949 E19.21993
G1 X135.787 Y128.253 E19.29346
G1 X137.484 Y126.829 E19.36708
G1 X139.455 Y125.688 E19.44276
G1 X140.717 Y125.122 E19.48872
G1 X141.709 Y124.838 E19.52301
G1 X142.985 Y124.712 E19.56562
G1 X145.002 Y124.683 E19.63266
G1 X147.02 Y124.711 E19.69973
G0 F2625 X154.396 Y128.94
G1 F900 X153.402 Y127.946 E19.74644
G1 X153.314 Y127.858
G0 F2625 X150.941 Y126.192
G1 F900 X156.175 Y131.427 E19.99245
G1 X156.263 Y131.515
G0 F2625 X156.954 Y132.912
G1 F900 X149.509 Y125.468 E20.34232
G1 X149.421 Y125.38
G0 F2625 X148.449 Y125.115
G1 F900 X157.341 Y134.006 E20.7602
G1 X157.429 Y134.094
G0 F2625 X157.467 Y134.839
G1 F900 X147.624 Y124.996 E21.22279
G1 X147.536 Y124.908
G0 F2625 X146.854 Y124.933
G1 F900 X157.529 Y135.608 E21.72448
G1 X157.617 Y135.696
G0 F2625 X157.538 Y136.325
G1 F900 X146.137 Y124.923 E22.26032
G1 X146.049 Y124.835
G0 F2625 X145.42 Y124.913
G1 F900 X157.548 Y137.042 E22.83032
G1 X157.636 Y137.13
G0 F2625 X157.549 Y137.75
G1 F900 X144.71 Y124.911 E23.43372
G1 X144.622 Y124.823
G0 F2625 X144.014 Y124.922
G1 F900 X157.54 Y138.448 E24.0694
G1 X157.628 Y138.536
G0 F2625 X157.53 Y139.145
G1 F900 X143.317 Y124.932 E24.73737
G1 X143.229 Y124.844
G0 F2625 X142.648 Y124.971
G1 F900 X157.492 Y139.814 E25.43498
G1 X157.58 Y139.902
G0 F2625 X157.428 Y140.458
G1 F900 X142.005 Y125.034 E26.15984
G1 X141.917 Y124.946
G0 F2625 X141.417 Y125.154
G1 F900 X157.309 Y141.045 E26.90669
G1 X157.397 Y141.133
G0 F2625 X157.152 Y141.596
G1 F900 X140.868 Y125.312 E27.67199
G1 X140.78 Y125.224
G0 F2625 X140.372 Y125.522
G1 F900 X156.943 Y142.093 E28.45078
G1 X157.031 Y142.181
G0 F2625 X156.724 Y142.582
G1 F900 X139.883 Y125.741 E29.24226
G1 X139.795 Y125.653
G0 F2625 X139.408 Y125.973
G1 F900 X156.491 Y143.056 E30.04511
G1 X156.579 Y143.144
G0 F2625 X156.233 Y143.505
G1 F900 X138.96 Y126.232 E30.85689
G1 X138.872 Y126.144
G0 F2625 X138.513 Y126.492
G1 F900 X155.975 Y143.954 E31.67756
G1 X156.063 Y144.042
G0 F2625 X155.716 Y144.403
G1 F900 X138.065 Y126.751 E32.50713
G1 X137.977 Y126.663
G0 F2625 X137.617 Y127.01
G1 F900 X155.458 Y144.852 E33.34563
G1 X155.546 Y144.94
G0 F2625 X155.139 Y145.24
G1 F900 X137.233 Y127.333 E34.18718
G1 X137.145 Y127.245
G0 F2625 X136.848 Y127.656
G1 F900 X154.816 Y145.624 E35.03162
G1 X154.904 Y145.712
G0 F2625 X154.493 Y146.008
G1 F900 X136.463 Y127.978 E35.87898
G1 X136.375 Y127.89
G0 F2625 X136.079 Y128.301
G1 F900 X154.17 Y146.392 E36.72921
G1 X154.258 Y146.48
G0 F2625 X153.807 Y146.735
G1 F900 X135.734 Y128.663 E37.57856
G1 X135.646 Y128.575
G0 F2625 X135.413 Y129.049
G1 F900 X153.421 Y147.057 E38.42489
G1 X153.509 Y147.145
G0 F2625 X153.036 Y147.379
G1 F900 X135.09 Y129.433 E39.2683
G1 X135.002 Y129.345
G0 F2625 X134.768 Y129.818
