;Generated by Cura LulzBot Edition GCodeWriter Version: master
;FLAVOR:Marlin
;TIME:1135
;Filament used: 0.575329m
;Layer height: 0.25
;Generated with Cura_SteamEngine 3.2.32
M82 ;absolute extrusion mode
;This G-Code has been generated specifically for the LulzBot TAZ 5 with standard extruder
M75			 ; start GLCD timer
M140 S85    ; start bed heating up
G21                      ; set units to Millimetres
G90                      ; absolute positioning
M107                     ; disable fans
M82                      ; set extruder to absolute mode
G28 X0 Y0                ; home X and Y
G28 Z0                   ; home Z
G1 Z15.0 F175 ; move extruder up
M117 Heating...                     ; progress indicator message on LCD
M109 R240  ; wait for extruder to reach printing temp
M190 S85    ; wait for bed to reach printing temp
G92 E0                   ; set extruder position to 0
G1 F200 E0               ; prime the nozzle with filament
G92 E0                   ; re-set extruder position to 0
G1 F175       ; set travel speed
M203 X192 Y208 Z3        ; set limits on travel speed
M117 TAZ 5 Printing...   ; progress indicator message on LCD

M221 S100
;LAYER_COUNT:40
;LAYER:0
M107
G0 F2625 X128.7 Y100.678 Z0.424
;TYPE:SKIRT
G1 F900 X129.099 Y100.254 E0.01935
G1 X129.553 Y99.888 E0.03873
G1 X130.052 Y99.588 E0.05808
G1 X130.588 Y99.358 E0.07746
G1 X131.15 Y99.204 E0.09682
G1 X131.978 Y99.121 E0.12448
G1 X135.943 Y99.112 E0.25624
G1 X136.132 Y99.116 E0.26253
G1 X141.248 Y99.332 E0.43269
G1 X141.992 Y99.429 E0.45763
G1 X145.122 Y100.125 E0.56418
G1 X145.68 Y100.291 E0.58353
G1 X146.417 Y100.649 E0.61076
G1 X148.553 Y101.956 E0.69398
G1 X149.028 Y102.293 E0.71333
G1 X149.453 Y102.693 E0.73273
G1 X149.788 Y103.103 E0.75032
G1 X151.27 Y105.168 E0.83479
G1 X151.576 Y105.664 E0.85416
G1 X151.81 Y106.192 E0.87335
G1 X152.381 Y107.76 E0.9288
G1 X152.516 Y108.205 E0.94426
G1 X152.67 Y108.835 E0.96581
G1 X152.758 Y109.311 E0.9819
G1 X153.079 Y111.852 E1.06701
G1 X153.099 Y112.038 E1.07323
G1 X153.744 Y119.907 E1.33561
G1 X154.529 Y125.254 E1.5152
G1 X155.623 Y130.577 E1.69579
G1 X156.259 Y133.131 E1.78326
G1 X157.81 Y138.378 E1.96509
G1 X159.64 Y143.489 E2.14549
G1 X161.917 Y148.847 E2.33896
G1 X162.108 Y149.397 E2.35831
G1 X162.222 Y149.969 E2.37769
G1 X162.256 Y150.506 E2.39557
G1 X162.26 Y156.15 E2.58314
G1 X162.22 Y156.731 E2.60249
G1 X162.102 Y157.302 E2.62187
G1 X161.906 Y157.851 E2.64124
G1 X161.535 Y158.528 E2.66689
G1 X160.157 Y160.573 E2.74884
G1 X157.302 Y165.214 E2.92992
G1 X154.722 Y169.99 E3.11031
G1 X153.045 Y173.472 E3.23875
G1 X152.757 Y173.979 E3.25812
G1 X152.402 Y174.441 E3.27749
G1 X151.987 Y174.85 E3.29685
G1 X151.52 Y175.199 E3.31622
G1 X151.01 Y175.481 E3.33559
G1 X150.466 Y175.69 E3.35496
G1 X149.899 Y175.823 E3.37431
G1 X149.216 Y175.878 E3.39708
G1 X142.546 Y175.878 E3.61874
G1 X141.965 Y175.838 E3.63809
G1 X141.394 Y175.719 E3.65748
G1 X140.845 Y175.523 E3.67685
G1 X140.329 Y175.254 E3.69619
G1 X139.853 Y174.916 E3.71559
G1 X139.429 Y174.517 E3.73493
G1 X139.063 Y174.063 E3.75431
G1 X138.893 Y173.8 E3.76472
G1 X135.815 Y168.623 E3.96487
G1 X132.787 Y164.148 E4.14443
G1 X128.619 Y158.734 E4.37149
G1 X128.296 Y158.248 E4.39088
G1 X128.043 Y157.724 E4.41022
G1 X127.863 Y157.169 E4.42961
G1 X127.761 Y156.596 E4.44895
G1 X127.737 Y156.139 E4.46416
G1 X127.739 Y150.52 E4.65089
G1 X127.82 Y149.697 E4.67837
G1 X128.276 Y147.396 E4.75633
G1 X129.123 Y141.992 E4.9381
G1 X129.657 Y136.611 E5.1178
G1 X129.886 Y131.211 E5.29742
G1 X129.81 Y125.771 E5.47822
G1 X129.428 Y120.39 E5.65749
G1 X128.737 Y114.995 E5.83824
G1 X127.808 Y109.932 E6.0093
G1 X127.738 Y109.165 E6.0349
G1 X127.738 Y103.371 E6.22744
G1 X127.778 Y102.79 E6.2468
G1 X127.897 Y102.219 E6.26618
G1 X128.093 Y101.67 E6.28555
G1 X128.362 Y101.154 E6.30489
G1 X128.7 Y100.678 E6.32429
G0 F2625 X129.195 Y100.869
G1 F900 X129.589 Y100.489 E6.34248
G1 X130.034 Y100.17 E6.36068
G1 X130.521 Y99.92 E6.37887
G1 X131.039 Y99.743 E6.39706
G1 X131.577 Y99.644 E6.41524
G1 X131.979 Y99.621 E6.42862
G1 X135.944 Y99.612 E6.56039
G1 X136.111 Y99.615 E6.56594
G1 X141.227 Y99.831 E6.7361
G1 X141.883 Y99.917 E6.75809
G1 X145.013 Y100.613 E6.86465
G1 X145.537 Y100.771 E6.88283
G1 X146.156 Y101.075 E6.90575
G1 X148.292 Y102.382 E6.98897
G1 X148.737 Y102.701 E7.00716
G1 X149.131 Y103.082 E7.02538
G1 X149.382 Y103.395 E7.03871
G1 X150.864 Y105.46 E7.12318
G1 X151.149 Y105.926 E7.14133
G1 X151.341 Y106.363 E7.15719
G1 X151.912 Y107.931 E7.21265
G1 X152.031 Y108.324 E7.2263
G1 X152.185 Y108.954 E7.24785
G1 X152.262 Y109.374 E7.26204
G1 X152.583 Y111.915 E7.34715
G1 X152.6 Y112.079 E7.35263
G1 X153.246 Y119.959 E7.61538
G1 X154.036 Y125.336 E7.79598
G1 X155.134 Y130.682 E7.97735
G1 X155.779 Y133.272 E8.06605
G1 X157.335 Y138.536 E8.24847
G1 X159.169 Y143.658 E8.42926
G1 X161.457 Y149.042 E8.62367
G1 X161.634 Y149.56 E8.64186
G1 X161.733 Y150.099 E8.66007
G1 X161.756 Y150.506 E8.67362
G1 X161.76 Y156.15 E8.86118
G1 X161.72 Y156.696 E8.87937
G1 X161.602 Y157.231 E8.89758
G1 X161.407 Y157.742 E8.91576
G1 X161.12 Y158.248 E8.93509
G1 X159.743 Y160.291 E9.01696
G1 X156.867 Y164.966 E9.19937
G1 X154.283 Y169.75 E9.38006
G1 X152.595 Y173.255 E9.50934
G1 X152.322 Y173.73 E9.52755
G1 X151.983 Y174.159 E9.54572
G1 X151.585 Y174.535 E9.56391
G1 X151.136 Y174.849 E9.58212
G1 X150.647 Y175.094 E9.6003
G1 X150.127 Y175.266 E9.6185
G1 X149.588 Y175.36 E9.63668
G1 X149.216 Y175.378 E9.64906
G1 X142.546 Y175.378 E9.87071
G1 X142 Y175.338 E9.88891
G1 X141.466 Y175.219 E9.90709
G1 X140.955 Y175.024 E9.92526
G1 X140.477 Y174.756 E9.94348
G1 X140.044 Y174.421 E9.96167
G1 X139.664 Y174.027 E9.97986
G1 X139.323 Y173.544 E9.99951
G1 X136.243 Y168.364 E10.19978
G1 X133.184 Y163.844 E10.38115
G1 X129.016 Y158.429 E10.60824
G1 X128.714 Y157.972 E10.62644
G1 X128.483 Y157.476 E10.64463
G1 X128.326 Y156.951 E10.66284
G1 X128.237 Y156.14 E10.68995
G1 X128.239 Y150.521 E10.87668
G1 X128.31 Y149.794 E10.90095
G1 X128.77 Y147.472 E10.97962
G1 X129.617 Y142.065 E11.1615
G1 X130.156 Y136.645 E11.3425
G1 X130.387 Y131.207 E11.52338
G1 X130.31 Y125.763 E11.70431
G1 X129.924 Y120.332 E11.88525
G1 X129.231 Y114.915 E12.06674
G1 X128.3 Y109.842 E12.23814
G1 X128.238 Y109.165 E12.26073
G1 X128.238 Y103.371 E12.45328
G1 X128.278 Y102.825 E12.47147
G1 X128.397 Y102.291 E12.48965
G1 X128.592 Y101.78 E12.50783
G1 X128.86 Y101.302 E12.52604
G1 X129.195 Y100.869 E12.54423
G0 F2625 X129.358 Y101.462
G1 F900 X129.688 Y101.075 E12.56113
G1 X130.075 Y100.743 E12.57808
G1 X130.51 Y100.477 E12.59502
G1 X130.98 Y100.281 E12.61194
G1 X131.475 Y100.162 E12.62886
G1 X131.981 Y100.121 E12.64573
G1 X135.946 Y100.112 E12.7775
G1 X136.09 Y100.115 E12.78228
G1 X141.206 Y100.331 E12.95245
G1 X141.774 Y100.405 E12.97149
G1 X144.904 Y101.101 E13.07804
G1 X145.392 Y101.251 E13.09501
G1 X145.895 Y101.502 E13.11369
G1 X148.031 Y102.809 E13.19691
G1 X148.444 Y103.108 E13.21385
G1 X148.804 Y103.468 E13.23077
G1 X148.975 Y103.686 E13.23998
G1 X150.457 Y105.751 E13.32445
G1 X150.721 Y106.187 E13.34138
G1 X150.871 Y106.534 E13.35395
G1 X151.442 Y108.102 E13.4094
G1 X151.545 Y108.442 E13.42121
G1 X151.699 Y109.072 E13.44276
G1 X151.766 Y109.437 E13.45509
G1 X152.087 Y111.978 E13.54021
G1 X152.102 Y112.12 E13.54495
G1 X152.75 Y120.026 E13.80857
G1 X153.54 Y125.405 E13.98924
G1 X154.649 Y130.806 E14.17247
G1 X155.295 Y133.397 E14.26121
G1 X156.857 Y138.682 E14.44435
G1 X158.709 Y143.855 E14.62694
G1 X160.997 Y149.238 E14.82132
G1 X161.159 Y149.721 E14.83825
G1 X161.243 Y150.223 E14.85516
G1 X161.256 Y150.507 E14.86461
G1 X161.26 Y156.151 E15.05217
G1 X161.22 Y156.659 E15.06911
G1 X161.102 Y157.154 E15.08602
G1 X160.907 Y157.625 E15.10296
G1 X160.705 Y157.969 E15.11622
G1 X159.322 Y160.022 E15.19848
G1 X156.437 Y164.711 E15.38143
G1 X153.831 Y169.536 E15.56367
G1 X152.144 Y173.038 E15.69285
G1 X151.888 Y173.479 E15.70979
G1 X151.566 Y173.873 E15.7267
G1 X151.186 Y174.213 E15.74365
G1 X150.758 Y174.489 E15.76057
G1 X150.291 Y174.695 E15.77754
G1 X149.799 Y174.825 E15.79445
G1 X149.216 Y174.878 E15.8139
G1 X142.546 Y174.878 E16.03556
G1 X142.038 Y174.838 E16.05249
G1 X141.543 Y174.719 E16.06941
G1 X141.072 Y174.524 E16.08635
G1 X140.637 Y174.258 E16.1033
G1 X140.25 Y173.928 E16.1202
G1 X139.918 Y173.541 E16.13714
G1 X139.752 Y173.289 E16.14717
G1 X136.653 Y168.077 E16.34868
G1 X133.595 Y163.558 E16.53001
G1 X129.412 Y158.124 E16.7579
G1 X129.134 Y157.697 E16.77483
G1 X128.925 Y157.232 E16.79177
G1 X128.793 Y156.74 E16.8087
G1 X128.737 Y156.14 E16.82873
G1 X128.739 Y150.521 E17.01546
G1 X128.801 Y149.891 E17.0365
G1 X129.261 Y147.568 E17.11519
G1 X130.115 Y142.122 E17.29838
G1 X130.655 Y136.682 E17.48006
G1 X130.887 Y131.221 E17.6617
G1 X130.809 Y125.739 E17.8439
G1 X130.423 Y120.287 E18.02553
G1 X129.727 Y114.853 E18.20759
G1 X128.791 Y109.752 E18.37993
G1 X128.738 Y109.165 E18.39952
G1 X128.738 Y103.371 E18.59207
G1 X128.778 Y102.863 E18.609
G1 X128.897 Y102.368 E18.62592
G1 X129.092 Y101.897 E18.64286
G1 X129.358 Y101.462 E18.6598
G1 F600 E17.6598
G0 F2625 X131.313 Y108.38
G0 X132.741 Y108.38
G0 X136.969 Y108.237
G0 X138.266 Y108.295
G0 X139.302 Y108.478
G0 X140.174 Y108.795
G0 X141.138 Y109.276
G0 X141.968 Y109.961
G0 X142.542 Y111.114
G0 X142.808 Y112.504
G0 X148.404 Y155.332
G0 X148.474 Y155.402
;TYPE:WALL-INNER
G1 F600 E18.6598
G1 F900 X148.474 Y170.888 E19.17443
G1 X143.287 Y170.888 E19.34681
G1 X143.287 Y155.402 E19.86144
G1 X132.728 Y155.402 E20.21234
G1 X132.728 Y151.271 E20.34962
G1 X143.074 Y151.271 E20.69344
G1 X143.075 Y151.271 E20.69347
G1 X143.325 Y151.271 E20.70178
G1 X143.325 Y151.021 E20.70715
G1 X143.324 Y151.02 E20.7072
G1 X143.179 Y124.416 E21.59132
G1 X143.125 Y119.168 E21.76573
G1 X143.024 Y115.408 E21.89072
G1 X142.832 Y112.836 E21.97643
G1 X142.505 Y111.126 E22.03429
G1 X141.937 Y109.985 E22.07665
G1 X141.117 Y109.309 E22.11196
G1 X140.159 Y108.831 E22.14754
G1 X139.292 Y108.516 E22.1782
G1 X138.262 Y108.334 E22.21296
G1 X136.969 Y108.276 E22.25597
G1 X135.267 Y108.313 E22.31254
G1 X132.985 Y108.386 E22.38842
G1 X132.728 Y108.394 E22.39696
G1 X132.728 Y108.137 E22.40244
G1 X132.728 Y108.136 E22.40247
G1 X132.728 Y104.112 E22.5362
G1 X136.646 Y104.112 E22.6664
G1 X140.979 Y104.314 E22.81055
G1 X143.919 Y104.968 E22.91064
G1 X145.821 Y106.135 E22.9848
G1 X147.159 Y107.993 E23.06088
G1 X147.509 Y108.813 E23.09051
G1 X147.805 Y109.933 E23.12901
G1 X148.04 Y111.504 E23.1818
G1 X148.217 Y113.702 E23.25508
G1 X148.343 Y116.713 E23.35523
G1 X148.42 Y120.678 E23.48702
G1 X148.461 Y125.768 E23.65617
G1 X148.474 Y132.152 E23.86833
G1 X148.476 Y151.271 E24.50369
G1 X157.272 Y151.271 E24.796
G1 X157.272 Y155.402 E24.93328
G1 X148.474 Y155.402 E25.22565
G0 F2625 X148.974 Y155.902
;TYPE:WALL-OUTER
G1 F900 X148.974 Y171.388 E25.74029
G1 X142.787 Y171.388 E25.94589
G1 X142.787 Y155.902 E26.46052
G1 X132.228 Y155.902 E26.81142
G1 X132.228 Y150.771 E26.98193
G1 X142.571 Y150.771 E27.32565
G1 X142.572 Y150.771 E27.32568
G1 X142.822 Y150.771 E27.33399
G1 X142.822 Y150.521 E27.33937
G1 X142.821 Y150.52 E27.33941
G1 X142.679 Y124.42 E28.20678
G1 X142.625 Y119.177 E28.38103
G1 X142.524 Y115.433 E28.50549
G1 X142.336 Y112.902 E28.58983
G1 X142.027 Y111.287 E28.64448
G1 X141.537 Y110.303 E28.68101
G1 X140.843 Y109.731 E28.71089
G1 X139.961 Y109.291 E28.74365
G1 X139.162 Y109.001 E28.7719
G1 X138.207 Y108.832 E28.80413
G1 X136.963 Y108.776 E28.84551
G1 X135.28 Y108.813 E28.90145
G1 X132.485 Y108.902 E28.99438
G1 X132.228 Y108.91 E29.00293
G1 X132.228 Y108.653 E29.0084
G1 X132.228 Y108.652 E29.00844
G1 X132.228 Y103.612 E29.17592
G1 X136.648 Y103.612 E29.32281
G1 X141.048 Y103.817 E29.46919
G1 X144.108 Y104.498 E29.57337
G1 X146.169 Y105.762 E29.65371
G1 X147.597 Y107.745 E29.73492
G1 X147.982 Y108.646 E29.76748
G1 X148.295 Y109.833 E29.80828
G1 X148.537 Y111.448 E29.86255
G1 X148.717 Y113.681 E29.93699
G1 X148.843 Y116.703 E30.03751
G1 X148.92 Y120.674 E30.1695
G1 X148.961 Y125.767 E30.33875
G1 X148.974 Y132.151 E30.55091
G1 X148.975 Y150.771 E31.16969
G1 X157.772 Y150.771 E31.46203
G1 X157.772 Y155.902 E31.63254
G1 X148.974 Y155.902 E31.92492
G0 F2625 X148.974 Y156.152
G0 X148.374 Y156.152
G0 X147.984 Y154.912
;TYPE:SKIN
G1 F900 X147.984 Y170.398 E32.43955
G1 X143.777 Y170.398 E32.57935
G1 X143.777 Y154.912 E33.09398
G1 X133.218 Y154.912 E33.44488
G1 X133.218 Y151.761 E33.54959
G1 X143.817 Y151.761 E33.90182
G1 X143.669 Y124.412 E34.81069
G1 X143.615 Y119.159 E34.98527
G1 X143.514 Y115.383 E35.1108
G1 X143.318 Y112.771 E35.19785
G1 X142.974 Y110.968 E35.25884
G1 X142.329 Y109.673 E35.30692
G1 X141.386 Y108.895 E35.34755
G1 X140.353 Y108.38 E35.38591
G1 X139.419 Y108.041 E35.41893
G1 X138.315 Y107.846 E35.45618
G1 X136.975 Y107.786 E35.50076
G1 X135.254 Y107.823 E35.55796
G1 X133.218 Y107.888 E35.62566
G1 X133.218 Y104.602 E35.73486
G1 X136.623 Y104.602 E35.84801
G1 X140.919 Y104.802 E35.99093
G1 X143.729 Y105.428 E36.0866
G1 X145.481 Y106.503 E36.15491
G1 X146.729 Y108.235 E36.22586
G1 X147.044 Y108.972 E36.25249
G1 X147.326 Y110.039 E36.28917
G1 X147.554 Y111.559 E36.34024
G1 X147.727 Y113.722 E36.41236
G1 X147.853 Y116.723 E36.51217
G1 X147.93 Y120.682 E36.64376
G1 X147.971 Y125.769 E36.81282
G1 X147.984 Y132.153 E37.02497
G1 X147.987 Y151.761 E37.67659
G1 X156.782 Y151.761 E37.96886
G1 X156.782 Y154.912 E38.07357
G1 X147.984 Y154.912 E38.36595
G0 F2625 X144.716 Y170.172
G1 F900 X144.002 Y169.458 E38.39951
G1 X143.914 Y169.37
G0 F2625 X144.002 Y168.751
G1 F900 X145.423 Y170.172 E38.46629
G1 X145.511 Y170.26
G0 F2625 X146.13 Y170.172
G1 F900 X144.002 Y168.043 E38.56632
G1 X143.914 Y167.955
G0 F2625 X144.002 Y167.336
G1 F900 X146.837 Y170.172 E38.69958
G1 X146.925 Y170.26
G0 F2625 X147.544 Y170.172
G1 F900 X144.002 Y166.629 E38.86607
G1 X143.914 Y166.541
G0 F2625 X144.002 Y165.922
G1 F900 X147.759 Y169.679 E39.04264
G1 X147.847 Y169.767
G0 F2625 X147.759 Y168.972
G1 F900 X144.002 Y165.215 E39.21921
G1 X143.914 Y165.127
G0 F2625 X144.002 Y164.508
G1 F900 X147.759 Y168.265 E39.39577
G1 X147.847 Y168.353
G0 F2625 X147.759 Y167.558
G1 F900 X144.002 Y163.801 E39.57234
G1 X143.914 Y163.713
G0 F2625 X144.002 Y163.094
G1 F900 X147.759 Y166.851 E39.74891
G1 X147.847 Y166.939
G0 F2625 X147.759 Y166.143
G1 F900 X144.002 Y162.387 E39.92545
G1 X143.914 Y162.299
G0 F2625 X144.002 Y161.679
G1 F900 X147.759 Y165.436 E40.10202
G1 X147.847 Y165.524
G0 F2625 X147.759 Y164.729
G1 F900 X144.002 Y160.972 E40.27859
G1 X143.914 Y160.884
G0 F2625 X144.002 Y160.265
G1 F900 X147.759 Y164.022 E40.45516
G1 X147.847 Y164.11
G0 F2625 X147.759 Y163.315
G1 F900 X144.002 Y159.558 E40.63173
G1 X143.914 Y159.47
G0 F2625 X144.002 Y158.851
G1 F900 X147.759 Y162.608 E40.8083
G1 X147.847 Y162.696
G0 F2625 X147.759 Y161.901
G1 F900 X144.002 Y158.144 E40.98486
G1 X143.914 Y158.056
G0 F2625 X144.002 Y157.437
G1 F900 X147.759 Y161.194 E41.16143
G1 X147.847 Y161.282
G0 F2625 X147.759 Y160.487
G1 F900 X144.002 Y156.73 E41.338
G1 X143.914 Y156.642
G0 F2625 X144.002 Y156.023
G1 F900 X147.759 Y159.779 E41.51455
G1 X147.847 Y159.867
G0 F2625 X147.759 Y159.072
G1 F900 X144.002 Y155.316 E41.69109
G1 X143.914 Y155.228
G0 F2625 X143.372 Y154.685
G1 F900 X140.671 Y151.985 E41.81801
G1 X140.583 Y151.897
G0 F2625 X141.378 Y151.985
G1 F900 X147.759 Y158.365 E42.11787
G1 X147.847 Y158.453
G0 F2625 X147.759 Y157.658
G1 F900 X142.086 Y151.985 E42.38449
G1 X141.998 Y151.897
G0 F2625 X142.793 Y151.985
G1 F900 X147.759 Y156.951 E42.61787
G1 X147.847 Y157.039
G0 F2625 X147.759 Y156.244
G1 F900 X143.5 Y151.985 E42.81803
G1 X143.412 Y151.897
G0 F2625 X144.041 Y151.82
G1 F900 X147.759 Y155.537 E42.99275
G1 X147.847 Y155.625
G0 F2625 X147.759 Y154.83
G1 F900 X144.038 Y151.109 E43.16762
G1 X143.95 Y151.021
G0 F2625 X144.034 Y150.398
G1 F900 X148.322 Y154.685 E43.36912
G1 X148.41 Y154.773
G0 F2625 X149.029 Y154.685
G1 F900 X144.03 Y149.687 E43.60404
G1 X143.942 Y149.599
G0 F2625 X144.026 Y148.976
G1 F900 X149.736 Y154.685 E43.87237
G1 X149.824 Y154.773
G0 F2625 X150.443 Y154.685
G1 F900 X144.022 Y148.265 E44.17411
G1 X143.934 Y148.177
G0 F2625 X144.018 Y147.554
G1 F900 X147.762 Y151.298 E44.35007
