;Generated by Cura LulzBot Edition GCodeWriter Version: 3.2.32
;FLAVOR:Marlin
;TIME:2727
;Filament used: 2.59353m
;Layer height: 0.38
;Generated with Cura_SteamEngine 3.2.32
M82 ;absolute extrusion mode
;This G-Code has been generated specifically for the LulzBot TAZ 5 with standard extruder
M75			 ; start GLCD timer
M140 S85    ; start bed heating up
G21                      ; set units to Millimetres
G90                      ; absolute positioning
M107                     ; disable fans
M82                      ; set extruder to absolute mode
G28 X0 Y0                ; home X and Y
G28 Z0                   ; home Z
G1 Z15.0 F175 ; move extruder up
M117 Heating...                     ; progress indicator message on LCD
M109 R240  ; wait for extruder to reach printing temp
M190 S85    ; wait for bed to reach printing temp
G92 E0                   ; set extruder position to 0
G1 F200 E0               ; prime the nozzle with filament
G92 E0                   ; re-set extruder position to 0
G1 F175       ; set travel speed
M203 X192 Y208 Z3        ; set limits on travel speed
M117 TAZ 5 Printing...   ; progress indicator message on LCD

M221 S100
;LAYER_COUNT:27
;LAYER:0
M107
G0 F2625 X103.534 Y98.532 Z0.424
;TYPE:SKIRT
G1 F900 X103.989 Y98.167 E0.01938
G1 X104.489 Y97.868 E0.03874
G1 X105.025 Y97.64 E0.0581
G1 X105.587 Y97.488 E0.07745
G1 X106.374 Y97.406 E0.10374
G1 X121.952 Y97.253 E0.62146
G1 X122.315 Y97.265 E0.63353
G1 X124.347 Y97.419 E0.70125
G1 X129.798 Y97.6 E0.8825
G1 X135.248 Y97.472 E1.06366
G1 X139.176 Y97.228 E1.19445
G1 X139.443 Y97.22 E1.20332
G1 X151.244 Y97.23 E1.59549
G1 X151.452 Y97.235 E1.60241
G1 X158.457 Y97.585 E1.83549
G1 X163.88 Y97.515 E2.01572
G1 X168.414 Y97.234 E2.16668
G1 X168.728 Y97.226 E2.17712
G1 X183.753 Y97.406 E2.67647
G1 X184.334 Y97.453 E2.69584
G1 X184.903 Y97.579 E2.71521
G1 X185.449 Y97.782 E2.73456
G1 X185.963 Y98.057 E2.75394
G1 X186.434 Y98.4 E2.7733
G1 X186.853 Y98.805 E2.79267
G1 X187.214 Y99.262 E2.81202
G1 X187.508 Y99.765 E2.83138
G1 X187.731 Y100.304 E2.85077
G1 X187.878 Y100.868 E2.87013
G1 X187.952 Y101.656 E2.89644
G1 X187.952 Y173.341 E5.27867
G1 X187.912 Y173.922 E5.29802
G1 X187.793 Y174.493 E5.31741
G1 X187.597 Y175.042 E5.33678
G1 X187.328 Y175.558 E5.35612
G1 X186.99 Y176.034 E5.37552
G1 X186.591 Y176.458 E5.39487
G1 X186.137 Y176.824 E5.41425
G1 X185.638 Y177.124 E5.4336
G1 X185.102 Y177.354 E5.45298
G1 X184.54 Y177.508 E5.47234
G1 X183.736 Y177.591 E5.4992
G1 X161.37 Y177.77 E6.24249
G1 X160.745 Y177.729 E6.26331
G1 X156.658 Y177.155 E6.40046
G1 X151.233 Y176.649 E6.58153
G1 X145.831 Y176.452 E6.76116
G1 X140.41 Y176.563 E6.94135
G1 X135.002 Y176.979 E7.1216
G1 X128.935 Y177.746 E7.32483
G1 X128.395 Y177.78 E7.34281
G1 X111.9 Y177.751 E7.89097
G1 X111.763 Y177.749 E7.89552
G1 X107.575 Y177.607 E8.03478
G1 X107.249 Y177.583 E8.04564
G1 X106.431 Y177.492 E8.07299
G1 X105.858 Y177.388 E8.09235
G1 X105.532 Y177.291 E8.10365
G1 X105.056 Y177.129 E8.12036
G1 X104.518 Y176.904 E8.13974
G1 X104.017 Y176.608 E8.15908
G1 X103.56 Y176.245 E8.17847
G1 X103.158 Y175.824 E8.19781
G1 X102.817 Y175.351 E8.21719
G1 X102.543 Y174.837 E8.23655
G1 X102.343 Y174.289 E8.25594
G1 X102.22 Y173.72 E8.27528
G1 X102.177 Y173.229 E8.29166
G1 X102.091 Y170.258 E8.39043
G1 X102.089 Y170.151 E8.39399
G1 X102.039 Y157.059 E8.82907
G1 X102.039 Y157.033 E8.82993
G1 X102.166 Y101.646 E10.67056
G1 X102.207 Y101.065 E10.68991
G1 X102.328 Y100.495 E10.70928
G1 X102.525 Y99.946 E10.72866
G1 X102.795 Y99.43 E10.74801
G1 X103.134 Y98.956 E10.76738
G1 X103.534 Y98.532 E10.78675
G0 F2625 X104.023 Y98.768
G1 F900 X104.469 Y98.451 E10.80493
G1 X104.956 Y98.202 E10.82311
G1 X105.475 Y98.026 E10.84132
G1 X106.013 Y97.928 E10.85949
G1 X106.379 Y97.906 E10.87168
G1 X121.957 Y97.753 E11.38939
G1 X122.277 Y97.764 E11.40003
G1 X124.316 Y97.918 E11.46799
G1 X129.793 Y98.1 E11.6501
G1 X135.265 Y97.972 E11.83199
G1 X139.207 Y97.727 E11.96325
G1 X139.442 Y97.72 E11.97106
G1 X151.243 Y97.73 E12.36323
G1 X151.427 Y97.735 E12.36935
G1 X158.438 Y98.086 E12.60263
G1 X163.897 Y98.015 E12.78406
G1 X168.445 Y97.733 E12.93549
G1 X168.722 Y97.726 E12.94469
G1 X183.747 Y97.906 E13.44404
G1 X184.292 Y97.953 E13.46222
G1 X184.825 Y98.078 E13.48041
G1 X185.334 Y98.28 E13.49861
G1 X185.808 Y98.553 E13.51679
G1 X186.237 Y98.893 E13.53498
G1 X186.613 Y99.291 E13.55318
G1 X186.926 Y99.74 E13.57136
G1 X187.17 Y100.23 E13.58956
G1 X187.341 Y100.75 E13.60775
G1 X187.434 Y101.289 E13.62592
G1 X187.452 Y101.656 E13.63813
G1 X187.452 Y173.341 E16.02037
G1 X187.412 Y173.887 E16.03856
G1 X187.293 Y174.421 E16.05674
G1 X187.098 Y174.932 E16.07492
G1 X186.83 Y175.41 E16.09313
G1 X186.495 Y175.843 E16.11132
G1 X186.101 Y176.223 E16.12951
G1 X185.656 Y176.542 E16.14771
G1 X185.169 Y176.792 E16.1659
G1 X184.651 Y176.969 E16.18409
G1 X184.113 Y177.068 E16.20227
G1 X183.732 Y177.091 E16.21496
G1 X161.366 Y177.27 E16.95825
G1 X160.814 Y177.234 E16.97663
G1 X156.707 Y176.657 E17.11445
G1 X151.281 Y176.151 E17.29555
G1 X145.821 Y175.952 E17.47712
G1 X140.398 Y176.063 E17.65737
G1 X134.94 Y176.483 E17.83929
G1 X128.872 Y177.25 E18.04255
G1 X128.395 Y177.28 E18.05843
G1 X111.9 Y177.251 E18.60659
G1 X111.78 Y177.249 E18.61058
G1 X107.592 Y177.107 E18.74984
G1 X107.304 Y177.086 E18.75943
G1 X106.486 Y176.995 E18.78678
G1 X105.693 Y176.818 E18.81379
G1 X105.217 Y176.656 E18.8305
G1 X104.713 Y176.442 E18.84869
G1 X104.245 Y176.158 E18.86688
G1 X103.824 Y175.808 E18.88508
G1 X103.459 Y175.4 E18.90327
G1 X103.156 Y174.944 E18.92146
G1 X102.924 Y174.449 E18.93963
G1 X102.765 Y173.925 E18.95783
G1 X102.677 Y173.215 E18.9816
G1 X102.591 Y170.244 E19.08038
G1 X102.589 Y170.149 E19.08354
G1 X102.539 Y157.057 E19.51861
G1 X102.539 Y157.034 E19.51938
G1 X102.666 Y101.647 E21.36
G1 X102.707 Y101.102 E21.37816
G1 X102.827 Y100.568 E21.39635
G1 X103.024 Y100.057 E21.41455
G1 X103.293 Y99.58 E21.43275
G1 X103.628 Y99.148 E21.45092
G1 X104.023 Y98.768 E21.46913
G0 F2625 X104.121 Y99.354
G1 F900 X104.509 Y99.024 E21.48606
G1 X104.944 Y98.758 E21.503
G1 X105.415 Y98.564 E21.51993
G1 X105.911 Y98.446 E21.53687
G1 X106.384 Y98.406 E21.55265
G1 X121.962 Y98.253 E22.07036
G1 X122.239 Y98.262 E22.07957
G1 X124.308 Y98.419 E22.14853
G1 X129.788 Y98.601 E22.33074
G1 X135.281 Y98.472 E22.51333
G1 X139.238 Y98.226 E22.64508
G1 X139.442 Y98.22 E22.65187
G1 X151.243 Y98.23 E23.04404
G1 X151.402 Y98.234 E23.04932
G1 X158.436 Y98.586 E23.28337
G1 X163.914 Y98.515 E23.46543
G1 X168.476 Y98.232 E23.61733
G1 X168.716 Y98.226 E23.6253
G1 X183.741 Y98.406 E24.12465
G1 X184.248 Y98.452 E24.14157
G1 X184.742 Y98.577 E24.1585
G1 X185.211 Y98.777 E24.17545
G1 X185.642 Y99.049 E24.19238
G1 X186.026 Y99.384 E24.20932
G1 X186.352 Y99.775 E24.22623
G1 X186.614 Y100.212 E24.24317
G1 X186.804 Y100.685 E24.26011
G1 X186.917 Y101.182 E24.27704
G1 X186.952 Y101.656 E24.29284
G1 X186.952 Y173.341 E26.67507
G1 X186.912 Y173.849 E26.69201
G1 X186.793 Y174.344 E26.70893
G1 X186.598 Y174.815 E26.72587
G1 X186.332 Y175.25 E26.74281
G1 X186.002 Y175.637 E26.75971
G1 X185.615 Y175.969 E26.77666
G1 X185.18 Y176.235 E26.7936
G1 X184.71 Y176.431 E26.81053
G1 X184.215 Y176.55 E26.82744
G1 X183.728 Y176.591 E26.84368
G1 X161.362 Y176.77 E27.58698
G1 X160.884 Y176.738 E27.6029
G1 X156.782 Y176.162 E27.74055
G1 X151.309 Y175.652 E27.92322
G1 X145.83 Y175.452 E28.10542
G1 X140.366 Y175.563 E28.28703
G1 X134.903 Y175.984 E28.46912
G1 X128.81 Y176.754 E28.67321
G1 X128.396 Y176.78 E28.687
G1 X111.901 Y176.751 E29.23516
G1 X111.797 Y176.749 E29.23862
G1 X107.609 Y176.607 E29.37787
G1 X107.36 Y176.589 E29.38617
G1 X106.542 Y176.498 E29.41352
G1 X105.854 Y176.345 E29.43694
G1 X105.378 Y176.183 E29.45365
G1 X104.91 Y175.981 E29.47059
G1 X104.479 Y175.709 E29.48753
G1 X104.096 Y175.373 E29.50446
G1 X103.771 Y174.981 E29.52138
G1 X103.51 Y174.543 E29.53832
G1 X103.321 Y174.07 E29.55525
G1 X103.209 Y173.573 E29.57218
G1 X103.176 Y173.2 E29.58463
G1 X103.09 Y170.229 E29.6834
G1 X103.089 Y170.147 E29.68612
G1 X103.039 Y157.055 E30.1212
G1 X103.039 Y157.036 E30.12183
G1 X103.166 Y101.649 E31.96246
G1 X103.207 Y101.141 E31.97939
G1 X103.327 Y100.646 E31.99632
G1 X103.523 Y100.175 E32.01327
G1 X103.79 Y99.741 E32.03021
G1 X104.121 Y99.354 E32.04713
G1 F600 E31.04713
G0 F2625 X107.148 Y100.971
G0 X107.168 Y102.4
G0 X121.019 Y151.558
G0 X122.35 Y151.825
G0 X122.299 Y151.74
;TYPE:WALL-INNER
G1 F600 E32.04713
G1 F900 X131.041 Y126.411 E32.93759
G1 X139.437 Y102.22 E33.78854
G1 X150.717 Y102.22 E34.1634
G1 X167.822 Y151.252 E35.88914
G1 X169.069 Y151.045 E35.93114
G1 X169.176 Y125.96 E36.76477
G1 X169.245 Y102.478 E37.54513
G1 X169.245 Y102.227 E37.55347
G1 X169.496 Y102.229 E37.55886
G1 X176.112 Y102.289 E37.77873
G1 X182.962 Y102.386 E38.00639
G1 X182.962 Y172.612 E40.34014
G1 X172.512 Y172.711 E40.68743
G1 X161.862 Y172.777 E41.04136
G1 X153.848 Y149.256 E41.86713
G1 X150.667 Y139.872 E42.19641
G1 X146.991 Y129.128 E42.57377
G1 X145.667 Y125.335 E42.70728
G1 X145.268 Y124.282 E42.7447
G1 X144.276 Y124.243 E42.77769
G1 X143.851 Y125.144 E42.8108
G1 X143.341 Y126.538 E42.86013
G1 X142.577 Y128.742 E42.93765
G1 X141.581 Y131.678 E43.04068
G1 X140.387 Y135.255 E43.166
G1 X139.029 Y139.374 E43.31013
G1 X137.539 Y143.937 E43.46964
G1 X135.949 Y148.848 E43.64119
G1 X128.282 Y172.78 E44.47631
G1 X117.707 Y172.78 E44.82774
G1 X112.338 Y172.759 E45.00616
G1 X108.897 Y172.69 E45.12054
G1 X107.133 Y172.561 E45.17931
G1 X107.12 Y172.264 E45.18919
G1 X107.089 Y170.124 E45.26032
G1 X107.066 Y166.769 E45.37181
G1 X107.039 Y157.042 E45.69506
G1 X107.051 Y137.152 E46.35605
G1 X107.154 Y102.386 E47.51139
G1 X114.007 Y102.289 E47.73916
G1 X120.623 Y102.229 E47.95903
G1 X120.874 Y102.227 E47.96737
G1 X120.874 Y102.478 E47.97275
G1 X120.943 Y126.168 E48.76002
G1 X121.049 Y151.533 E49.60296
G1 X122.299 Y151.74 E49.64506
G0 F2625 X122.35 Y151.825
G0 X144.256 Y124.209
G0 X145.291 Y124.25
G0 X175.781 Y163.399
G0 X169.17 Y150.624
G0 X168.571 Y150.621
;TYPE:WALL-OUTER
G1 F900 X168.571 Y150.391 E49.65271
G1 X168.676 Y125.958 E50.46467
G1 X168.746 Y101.973 E51.26175
G1 X168.746 Y101.722 E51.27009
G1 X168.997 Y101.724 E51.27547
G1 X176.119 Y101.789 E51.51216
G1 X183.462 Y101.893 E51.75621
G1 X183.462 Y173.107 E54.12279
G1 X172.517 Y173.211 E54.48653
G1 X161.505 Y173.279 E54.85249
G1 X153.375 Y149.417 E55.69023
G1 X150.194 Y140.033 E56.01951
G1 X146.518 Y129.291 E56.39681
G1 X145.197 Y125.506 E56.53003
G1 X144.988 Y124.955 E56.54962
G1 X144.918 Y124.769 E56.55622
G1 X144.587 Y124.756 E56.56723
G1 X144.503 Y124.936 E56.5728
G1 X144.313 Y125.337 E56.58755
G1 X143.812 Y126.706 E56.63599
G1 X143.05 Y128.904 E56.7133
G1 X142.055 Y131.837 E56.81623
G1 X140.862 Y135.412 E56.94147
G1 X139.504 Y139.53 E57.08557
G1 X138.014 Y144.092 E57.24505
G1 X136.425 Y149.001 E57.41652
G1 X128.647 Y173.28 E58.26376
G1 X117.705 Y173.28 E58.62738
G1 X112.328 Y173.259 E58.80607
G1 X108.872 Y173.19 E58.92094
G1 X107.055 Y173.062 E58.98147
G1 X106.648 Y172.927 E58.99572
G1 X106.62 Y172.286 E59.01705
G1 X106.589 Y170.131 E59.08867
G1 X106.566 Y166.772 E59.2003
G1 X106.539 Y157.042 E59.52365
G1 X106.551 Y137.151 E60.18466
G1 X106.655 Y101.893 E61.35636
G1 X114 Y101.789 E61.60048
G1 X121.122 Y101.724 E61.83716
G1 X121.373 Y101.722 E61.8455
G1 X121.373 Y101.973 E61.85089
G1 X121.443 Y126.167 E62.65491
G1 X121.548 Y150.877 E63.47608
G1 X121.548 Y151.109 E63.48379
G1 X121.964 Y151.178 E63.4978
G1 X122.039 Y150.959 E63.50489
G1 X130.568 Y126.248 E64.37362
G1 X139.081 Y101.72 E65.23644
G1 X151.072 Y101.72 E65.63492
G1 X168.08 Y150.473 E67.35084
G1 X168.155 Y150.69 E67.35787
G1 X168.571 Y150.621 E67.37189
G0 F2625 X168.571 Y150.391
G0 X168.571 Y150.371
G0 X169.171 Y150.374
G0 X169.557 Y151.461
;TYPE:SKIN
G1 F900 X169.666 Y125.962 E68.21928
G1 X169.733 Y102.721 E68.99163
G1 X176.105 Y102.779 E69.20339
G1 X182.472 Y102.87 E69.415
G1 X182.472 Y172.126 E71.71651
G1 X172.508 Y172.221 E72.04765
G1 X162.212 Y172.285 E72.38981
G1 X154.312 Y149.098 E73.20386
G1 X151.131 Y139.714 E73.53314
G1 X147.454 Y128.968 E73.91058
G1 X146.128 Y125.167 E74.04436
G1 X145.611 Y123.805 E74.09277
G1 X143.971 Y123.741 E74.14731
G1 X143.398 Y124.955 E74.19192
G1 X142.879 Y126.373 E74.2421
G1 X142.114 Y128.583 E74.31982
G1 X141.117 Y131.521 E74.42293
G1 X139.922 Y135.1 E74.54832
G1 X138.564 Y139.221 E74.69251
G1 X137.073 Y143.784 E74.85204
G1 X135.483 Y148.697 E75.02364
G1 X127.925 Y172.29 E75.84694
G1 X117.707 Y172.29 E76.1865
G1 X112.348 Y172.269 E76.36459
G1 X108.907 Y172.2 E76.47897
G1 X107.608 Y172.105 E76.52225
G1 X107.579 Y170.117 E76.58832
G1 X107.556 Y166.765 E76.69972
G1 X107.529 Y157.041 E77.02287
G1 X107.541 Y137.153 E77.68378
G1 X107.642 Y102.87 E78.82308
G1 X114.014 Y102.779 E79.03486
G1 X120.386 Y102.721 E79.24662
G1 X120.453 Y126.17 E80.02588
G1 X120.561 Y151.949 E80.88257
G1 X122.627 Y152.291 E80.95217
G1 X131.504 Y126.571 E81.85637
G1 X139.786 Y102.71 E82.69572
G1 X150.369 Y102.71 E83.04742
G1 X167.495 Y151.803 E84.7753
G1 X169.557 Y151.461 E84.84476
G0 F2625 X182.246 Y103.757
G1 F900 X181.57 Y103.082 E84.8765
G0 F2625 X180.853 Y103.072
G1 F900 X182.246 Y104.464 E84.94195
G1 X182.334 Y104.552
G0 F2625 X182.246 Y105.171
G1 F900 X180.136 Y103.061 E85.04111
G1 X180.048 Y102.973
G0 F2625 X179.419 Y103.051
G1 F900 X182.246 Y105.878 E85.17397
G1 X182.334 Y105.966
G0 F2625 X182.246 Y106.585
G1 F900 X178.702 Y103.041 E85.34053
G1 X178.614 Y102.953
G0 F2625 X177.984 Y103.031
G1 F900 X182.246 Y107.292 E85.54081
G1 X182.334 Y107.38
G0 F2625 X182.246 Y107.999
G1 F900 X177.267 Y103.021 E85.77478
G1 X177.179 Y102.933
G0 F2625 X176.549 Y103.01
G1 F900 X182.246 Y108.707 E86.04253
G1 X182.334 Y108.795
G0 F2625 X182.246 Y109.414
G1 F900 X175.834 Y103.002 E86.34387
G1 X175.746 Y102.914
G0 F2625 X175.12 Y102.995
G1 F900 X182.246 Y110.121 E86.67877
G1 X182.334 Y110.209
G0 F2625 X182.246 Y110.828
G1 F900 X174.406 Y102.988 E87.04723
G1 X174.318 Y102.9
G0 F2625 X173.693 Y102.982
G1 F900 X182.246 Y111.535 E87.4492
G1 X182.334 Y111.623
G0 F2625 X182.246 Y112.242
G1 F900 X172.979 Y102.975 E87.88472
G1 X172.891 Y102.887
G0 F2625 X172.266 Y102.969
G1 F900 X182.246 Y112.949 E88.35375
G1 X182.334 Y113.037
G0 F2625 X182.246 Y113.656
G1 F900 X171.551 Y102.962 E88.85636
G1 X171.463 Y102.874
G0 F2625 X170.838 Y102.956
G1 F900 X182.246 Y114.363 E89.39248
G1 X182.334 Y114.451
G0 F2625 X182.246 Y115.071
G1 F900 X170.124 Y102.949 E89.96218
G1 X170.036 Y102.861
G0 F2625 X169.953 Y103.485
G1 F900 X182.246 Y115.778 E90.53992
G1 X182.334 Y115.866
G0 F2625 X182.246 Y116.485
G1 F900 X169.951 Y104.19 E91.11775
G1 X169.863 Y104.102
G0 F2625 X169.95 Y104.896
G1 F900 X182.246 Y117.192 E91.69562
G1 X182.334 Y117.28
G0 F2625 X182.246 Y117.899
G1 F900 X169.948 Y105.601 E92.27359
G1 X169.86 Y105.513
G0 F2625 X169.946 Y106.306
G1 F900 X182.246 Y118.606 E92.85166
G1 X182.334 Y118.694
G0 F2625 X182.246 Y119.313
G1 F900 X169.943 Y107.011 E93.42984
G1 X169.855 Y106.923
G0 F2625 X169.941 Y107.716
G1 F900 X182.246 Y120.02 E94.00812
G1 X182.334 Y120.108
G0 F2625 X182.246 Y120.727
G1 F900 X169.939 Y108.421 E94.58649
G1 X169.851 Y108.333
G0 F2625 X169.938 Y109.127
G1 F900 X182.246 Y121.434 E95.1649
G1 X182.334 Y121.522
G0 F2625 X182.246 Y122.142
G1 F900 X169.936 Y109.832 E95.74344
G1 X169.848 Y109.744
G0 F2625 X169.934 Y110.537
G1 F900 X182.246 Y122.849 E96.32207
G1 X182.334 Y122.937
G0 F2625 X182.246 Y123.556
G1 F900 X169.931 Y111.242 E96.90081
G1 X169.843 Y111.154
G0 F2625 X169.929 Y111.947
G1 F900 X182.246 Y124.263 E97.47965
G1 X182.334 Y124.351
G0 F2625 X182.246 Y124.97
G1 F900 X169.927 Y112.652 E98.05859
G1 X169.839 Y112.564
G0 F2625 X169.925 Y113.356
G1 F900 X182.246 Y125.677 E98.63764
G1 X182.334 Y125.765
G0 F2625 X182.246 Y126.384
G1 F900 X169.924 Y114.062 E99.21674
G1 X169.836 Y113.974
G0 F2625 X169.922 Y114.767
G1 F900 X182.246 Y127.091 E99.79593
G1 X182.334 Y127.179
G0 F2625 X182.246 Y127.798
G1 F900 X169.919 Y115.472 E100.37524
G1 X169.831 Y115.384
G0 F2625 X169.917 Y116.177
G1 F900 X182.246 Y128.506 E100.95467
G1 X182.334 Y128.594
G0 F2625 X182.246 Y129.213
G1 F900 X169.915 Y116.882 E101.53419
G1 X169.827 Y116.794
