;Generated by Cura LulzBot Edition GCodeWriter Version: master
;FLAVOR:Marlin
;TIME:927
;Filament used: 0.412731m
;Layer height: 0.25
;Generated with Cura_SteamEngine 3.2.32
M82 ;absolute extrusion mode
;This G-Code has been generated specifically for the LulzBot TAZ 5 with standard extruder
M75			 ; start GLCD timer
M140 S85    ; start bed heating up
G21                      ; set units to Millimetres
G90                      ; absolute positioning
M107                     ; disable fans
M82                      ; set extruder to absolute mode
G28 X0 Y0                ; home X and Y
G28 Z0                   ; home Z
G1 Z15.0 F175 ; move extruder up
M117 Heating...                     ; progress indicator message on LCD
M109 R240  ; wait for extruder to reach printing temp
M190 S85    ; wait for bed to reach printing temp
G92 E0                   ; set extruder position to 0
G1 F200 E0               ; prime the nozzle with filament
G92 E0                   ; re-set extruder position to 0
G1 F175       ; set travel speed
M203 X192 Y208 Z3        ; set limits on travel speed
M117 TAZ 5 Printing...   ; progress indicator message on LCD

M221 S100
;LAYER_COUNT:40
;LAYER:0
M107
G0 F2625 X138.379 Y98.785 Z0.424
;TYPE:SKIRT
G1 F900 X138.78 Y98.362 E0.01937
G1 X139.235 Y97.997 E0.03875
G1 X139.735 Y97.699 E0.0581
G1 X140.272 Y97.471 E0.07749
G1 X140.834 Y97.32 E0.09682
G1 X141.652 Y97.239 E0.12414
G1 X148.293 Y97.23 E0.34483
G1 X148.875 Y97.269 E0.36422
G1 X149.445 Y97.388 E0.38357
G1 X149.994 Y97.583 E0.40293
G1 X150.512 Y97.851 E0.42231
G1 X150.987 Y98.188 E0.44167
G1 X151.412 Y98.587 E0.46104
G1 X151.779 Y99.04 E0.48041
G1 X152.08 Y99.539 E0.49978
G1 X152.31 Y100.074 E0.51913
G1 X152.464 Y100.636 E0.5385
G1 X152.549 Y101.464 E0.56616
G1 X152.74 Y152.887 E2.27506
G1 X152.74 Y152.958 E2.27742
G1 X152.654 Y159.637 E2.49939
G1 X152.757 Y163.84 E2.63911
G1 X152.757 Y164.034 E2.64555
G1 X152.558 Y173.479 E2.9595
G1 X152.506 Y174.059 E2.97885
G1 X152.375 Y174.627 E2.99822
G1 X152.167 Y175.171 E3.01758
G1 X151.887 Y175.682 E3.03694
G1 X151.54 Y176.15 E3.0563
G1 X151.132 Y176.566 E3.07567
G1 X150.671 Y176.923 E3.09504
G1 X150.165 Y177.212 E3.11441
G1 X149.624 Y177.43 E3.13379
G1 X149.059 Y177.572 E3.15315
G1 X148.485 Y177.635 E3.17234
G1 X145.833 Y177.745 E3.26055
G1 X145.654 Y177.749 E3.2665
G1 X142.63 Y177.747 E3.36699
G1 X142.037 Y177.705 E3.38675
G1 X141.134 Y177.577 E3.41706
G1 X140.564 Y177.456 E3.43642
G1 X140.015 Y177.258 E3.45582
G1 X139.5 Y176.987 E3.47515
G1 X139.026 Y176.648 E3.49452
G1 X138.603 Y176.247 E3.51389
G1 X138.238 Y175.792 E3.53327
G1 X137.94 Y175.292 E3.55262
G1 X137.712 Y174.755 E3.57201
G1 X137.561 Y174.192 E3.59138
G1 X137.495 Y173.724 E3.60708
G1 X137.279 Y171.146 E3.69306
G1 X137.264 Y170.808 E3.7043
G1 X137.233 Y163.076 E3.96125
G1 X137.235 Y162.93 E3.9661
G1 X137.332 Y159.725 E4.07266
G1 X137.227 Y153.384 E4.28341
G1 X137.226 Y153.299 E4.28624
G1 X137.408 Y101.474 E6.0085
G1 X137.45 Y100.893 E6.02785
G1 X137.571 Y100.323 E6.04722
G1 X137.769 Y99.775 E6.06658
G1 X138.04 Y99.259 E6.08595
G1 X138.379 Y98.785 E6.10532
G0 F2625 X138.874 Y98.977
G1 F900 X139.269 Y98.599 E6.12349
G1 X139.715 Y98.282 E6.14167
G1 X140.203 Y98.033 E6.15988
G1 X140.721 Y97.858 E6.17805
G1 X141.26 Y97.76 E6.19625
G1 X141.653 Y97.739 E6.20933
G1 X148.294 Y97.73 E6.43002
G1 X148.84 Y97.769 E6.44821
G1 X149.374 Y97.887 E6.46639
G1 X149.886 Y98.082 E6.4846
G1 X150.364 Y98.349 E6.50279
G1 X150.797 Y98.683 E6.52096
G1 X151.178 Y99.077 E6.53918
G1 X151.497 Y99.521 E6.55735
G1 X151.748 Y100.008 E6.57555
G1 X151.926 Y100.526 E6.59375
G1 X152.026 Y101.064 E6.61194
G1 X152.049 Y101.466 E6.62532
G1 X152.24 Y152.889 E8.33422
G1 X152.24 Y152.951 E8.33628
G1 X152.154 Y159.652 E8.55899
G1 X152.257 Y163.852 E8.6986
G1 X152.257 Y164.023 E8.70429
G1 X152.058 Y173.468 E9.01823
G1 X152.007 Y174.013 E9.03642
G1 X151.877 Y174.545 E9.05462
G1 X151.67 Y175.052 E9.07282
G1 X151.392 Y175.523 E9.091
G1 X151.049 Y175.949 E9.10917
G1 X150.647 Y176.321 E9.12737
G1 X150.195 Y176.63 E9.14557
G1 X149.703 Y176.87 E9.16376
G1 X149.182 Y177.036 E9.18193
G1 X148.464 Y177.136 E9.20602
G1 X145.812 Y177.246 E9.29423
G1 X145.655 Y177.249 E9.29945
G1 X142.631 Y177.247 E9.39994
G1 X142.107 Y177.21 E9.4174
G1 X141.204 Y177.082 E9.44771
G1 X140.669 Y176.966 E9.4659
G1 X140.157 Y176.773 E9.48408
G1 X139.678 Y176.508 E9.50227
G1 X139.243 Y176.175 E9.52048
G1 X138.861 Y175.783 E9.53867
G1 X138.54 Y175.34 E9.55685
G1 X138.287 Y174.855 E9.57503
G1 X138.107 Y174.338 E9.59322
G1 X137.993 Y173.682 E9.61535
G1 X137.777 Y171.104 E9.70132
G1 X137.764 Y170.806 E9.71123
G1 X137.733 Y163.074 E9.96818
G1 X137.735 Y162.945 E9.97247
G1 X137.832 Y159.735 E10.0792
G1 X137.727 Y153.376 E10.29055
G1 X137.726 Y153.301 E10.29304
G1 X137.908 Y101.476 E12.0153
G1 X137.95 Y100.93 E12.0335
G1 X138.071 Y100.396 E12.05169
G1 X138.268 Y99.886 E12.06986
G1 X138.538 Y99.409 E12.08807
G1 X138.874 Y98.977 E12.10626
G0 F2625 X139.034 Y99.571
G1 F900 X139.366 Y99.185 E12.12318
G1 X139.755 Y98.855 E12.14013
G1 X140.19 Y98.59 E12.15706
G1 X140.661 Y98.396 E12.17399
G1 X141.157 Y98.278 E12.19093
G1 X141.654 Y98.239 E12.2075
G1 X148.295 Y98.23 E12.42819
G1 X148.803 Y98.269 E12.44512
G1 X149.298 Y98.387 E12.46204
G1 X149.769 Y98.582 E12.47898
G1 X150.204 Y98.847 E12.4959
G1 X150.592 Y99.177 E12.51283
G1 X150.924 Y99.564 E12.52977
G1 X151.191 Y99.998 E12.54671
G1 X151.387 Y100.468 E12.56363
G1 X151.508 Y100.963 E12.58057
G1 X151.549 Y101.468 E12.5974
G1 X151.74 Y152.891 E14.3063
G1 X151.74 Y152.945 E14.3081
G1 X151.654 Y159.659 E14.53123
G1 X151.757 Y163.864 E14.67102
G1 X151.757 Y164.012 E14.67594
G1 X151.558 Y173.457 E14.98988
G1 X151.508 Y173.964 E15.00681
G1 X151.378 Y174.457 E15.02376
G1 X151.174 Y174.924 E15.04069
G1 X150.899 Y175.353 E15.05762
G1 X150.56 Y175.733 E15.07455
G1 X150.166 Y176.056 E15.09148
G1 X149.726 Y176.314 E15.10843
G1 X149.252 Y176.499 E15.12534
G1 X148.754 Y176.608 E15.14228
G1 X148.444 Y176.636 E15.15262
G1 X145.792 Y176.746 E15.24083
G1 X145.655 Y176.749 E15.24538
G1 X142.631 Y176.747 E15.34588
G1 X142.177 Y176.715 E15.361
G1 X141.274 Y176.587 E15.39131
G1 X140.777 Y176.476 E15.40823
G1 X140.303 Y176.289 E15.42517
G1 X139.864 Y176.03 E15.44211
G1 X139.471 Y175.706 E15.45903
G1 X139.134 Y175.324 E15.47596
G1 X138.86 Y174.894 E15.49291
G1 X138.657 Y174.427 E15.50983
G1 X138.529 Y173.933 E15.52679
G1 X138.491 Y173.64 E15.5366
G1 X138.275 Y171.062 E15.62258
G1 X138.264 Y170.804 E15.63116
G1 X138.233 Y163.072 E15.88811
G1 X138.234 Y162.96 E15.89183
G1 X138.332 Y159.742 E15.99882
G1 X138.226 Y153.368 E16.21067
G1 X138.226 Y153.303 E16.21283
G1 X138.408 Y101.478 E17.93509
G1 X138.45 Y100.97 E17.95203
G1 X138.57 Y100.475 E17.96896
G1 X138.767 Y100.005 E17.98589
G1 X139.034 Y99.571 E18.00283
G1 F600 E17.00283
G0 F2625 X140.98 Y102.228
G0 X142.41 Y102.234
G0 X147.572 Y127.548
G0 X147.672 Y127.548
;TYPE:WALL-INNER
G1 F600 E18.00283
G1 F900 X147.74 Y152.583 E18.83479
G1 X147.74 Y152.833 E18.8431
G1 X147.49 Y152.833 E18.84847
G1 X142.476 Y152.833 E19.0151
G1 X142.226 Y152.833 E19.02341
G1 X142.226 Y152.583 E19.02878
G1 X142.296 Y126.767 E19.8867
G1 X142.396 Y102.22 E20.70246
G1 X147.571 Y102.22 E20.87443
G1 X147.672 Y127.548 E21.71614
G0 F2625 X148.172 Y127.546
;TYPE:WALL-OUTER
G1 F900 X148.241 Y153.083 E22.56479
G1 X148.241 Y153.333 E22.57309
G1 X147.991 Y153.333 E22.57847
G1 X141.975 Y153.333 E22.77839
G1 X141.725 Y153.333 E22.7867
G1 X141.725 Y153.083 E22.79208
G1 X141.796 Y126.766 E23.66664
G1 X141.898 Y101.72 E24.49898
G1 X148.069 Y101.72 E24.70405
G1 X148.172 Y127.546 E25.56231
G0 F2625 X148.172 Y127.796
G0 X147.572 Y127.797
G0 X147.182 Y127.55
;TYPE:SKIN
G1 F900 X147.248 Y152.343 E26.38623
G1 X142.718 Y152.343 E26.53677
G1 X142.786 Y126.769 E27.38665
G1 X142.884 Y102.71 E28.18619
G1 X147.083 Y102.71 E28.32573
G1 X147.182 Y127.55 E29.15122
G0 F2625 X146.776 Y102.935
G0 X146.817 Y102.976
G1 F900 X146.465 Y103.331 E29.17179
G1 X145.981 Y102.847
G0 F2625 X145.362 Y102.935
G1 F900 X146.864 Y104.438 E29.2424
G1 X146.952 Y104.526
G0 F2625 X146.867 Y105.148
G1 F900 X144.654 Y102.935 E29.3464
G1 X144.566 Y102.847
G0 F2625 X143.947 Y102.935
G1 F900 X146.87 Y105.858 E29.48378
G1 X146.958 Y105.946
G0 F2625 X146.873 Y106.568
G1 F900 X143.24 Y102.935 E29.65452
G1 X143.152 Y102.847
G0 F2625 X143.104 Y103.506
G1 F900 X146.875 Y107.277 E29.83174
G1 X146.963 Y107.365
G0 F2625 X146.878 Y107.987
G1 F900 X143.101 Y104.21 E30.00925
G1 X143.013 Y104.122
G0 F2625 X143.098 Y104.914
G1 F900 X146.881 Y108.697 E30.18704
G1 X146.969 Y108.785
G0 F2625 X146.884 Y109.407
G1 F900 X143.095 Y105.619 E30.36509
G1 X143.007 Y105.531
G0 F2625 X143.092 Y106.323
G1 F900 X146.887 Y110.117 E30.54342
G1 X146.975 Y110.205
G0 F2625 X146.89 Y110.827
G1 F900 X143.09 Y107.027 E30.72201
G1 X143.002 Y106.939
G0 F2625 X143.087 Y107.731
G1 F900 X146.892 Y111.537 E30.90086
G1 X146.98 Y111.625
G0 F2625 X146.895 Y112.247
G1 F900 X143.084 Y108.436 E31.07996
G1 X142.996 Y108.348
G0 F2625 X143.081 Y109.14
G1 F900 X146.898 Y112.957 E31.25935
G1 X146.986 Y113.045
G0 F2625 X146.901 Y113.667
G1 F900 X143.078 Y109.844 E31.43902
G1 X142.99 Y109.756
G0 F2625 X143.075 Y110.549
G1 F900 X146.904 Y114.377 E31.61895
G1 X146.992 Y114.465
G0 F2625 X146.907 Y115.087
G1 F900 X143.073 Y111.253 E31.79914
G1 X142.985 Y111.165
G0 F2625 X143.07 Y111.957
G1 F900 X146.909 Y115.797 E31.97958
G1 X146.997 Y115.885
G0 F2625 X146.912 Y116.507
G1 F900 X143.067 Y112.661 E32.16031
G1 X142.979 Y112.573
G0 F2625 X143.064 Y113.366
G1 F900 X146.915 Y117.217 E32.34129
G1 X147.003 Y117.305
G0 F2625 X146.918 Y117.927
G1 F900 X143.061 Y114.069 E32.52259
G1 X142.973 Y113.981
G0 F2625 X143.058 Y114.774
G1 F900 X146.921 Y118.636 E32.70411
G1 X147.009 Y118.724
G0 F2625 X146.924 Y119.346
G1 F900 X143.055 Y115.478 E32.88592
G1 X142.967 Y115.39
G0 F2625 X143.052 Y116.182
G1 F900 X146.926 Y120.056 E33.06799
G1 X147.014 Y120.144
G0 F2625 X146.929 Y120.766
G1 F900 X143.049 Y116.886 E33.25034
G1 X142.961 Y116.798
G0 F2625 X143.046 Y117.591
G1 F900 X146.932 Y121.476 E33.43294
G1 X147.02 Y121.564
G0 F2625 X146.935 Y122.186
G1 F900 X143.044 Y118.295 E33.61581
G1 X142.956 Y118.207
G0 F2625 X143.041 Y118.999
G1 F900 X146.938 Y122.896 E33.79896
G1 X147.026 Y122.984
G0 F2625 X146.941 Y123.606
G1 F900 X143.038 Y119.703 E33.98239
G1 X142.95 Y119.615
G0 F2625 X143.035 Y120.408
G1 F900 X146.943 Y124.316 E34.16605
G1 X147.031 Y124.404
G0 F2625 X146.946 Y125.026
G1 F900 X143.032 Y121.112 E34.35
G1 X142.944 Y121.024
G0 F2625 X143.03 Y121.816
G1 F900 X146.949 Y125.736 E34.5342
G1 X147.037 Y125.824
G0 F2625 X146.952 Y126.446
G1 F900 X143.027 Y122.521 E34.71867
G1 X142.939 Y122.433
G0 F2625 X143.024 Y123.225
G1 F900 X146.955 Y127.156 E34.90341
G1 X147.043 Y127.244
G0 F2625 X146.958 Y127.866
G1 F900 X143.021 Y123.929 E35.08844
G1 X142.933 Y123.841
G0 F2625 X143.018 Y124.633
G1 F900 X146.959 Y128.574 E35.27366
G1 X147.047 Y128.662
G0 F2625 X146.961 Y129.283
G1 F900 X143.015 Y125.338 E35.45908
G1 X142.927 Y125.25
G0 F2625 X143.013 Y126.042
G1 F900 X146.963 Y129.993 E35.64475
G1 X147.051 Y130.081
G0 F2625 X146.965 Y130.701
G1 F900 X143.01 Y126.746 E35.83062
G1 X142.922 Y126.658
G0 F2625 X143.008 Y127.451
G1 F900 X146.967 Y131.41 E36.01668
G1 X147.055 Y131.498
G0 F2625 X146.969 Y132.12
G1 F900 X143.005 Y128.156 E36.20298
G1 X142.917 Y128.068
G0 F2625 X143.004 Y128.862
G1 F900 X146.97 Y132.828 E36.38937
G1 X147.058 Y132.916
G0 F2625 X146.972 Y133.537
G1 F900 X143.002 Y129.567 E36.57595
G1 X142.914 Y129.479
G0 F2625 X143.001 Y130.273
G1 F900 X146.974 Y134.247 E36.76269
G1 X147.062 Y134.335
G0 F2625 X146.976 Y134.955
G1 F900 X142.998 Y130.978 E36.94962
G1 X142.91 Y130.89
G0 F2625 X142.996 Y131.683
G1 F900 X146.978 Y135.664 E37.13674
G1 X147.066 Y135.752
G0 F2625 X146.98 Y136.374
G1 F900 X142.995 Y132.388 E37.32405
G1 X142.907 Y132.3
G0 F2625 X142.993 Y133.093
G1 F900 X146.982 Y137.082 E37.51152
G1 X147.07 Y137.17
G0 F2625 X146.984 Y137.791
G1 F900 X142.991 Y133.799 E37.69915
G1 X142.903 Y133.711
G0 F2625 X142.989 Y134.504
G1 F900 X146.986 Y138.501 E37.887
G1 X147.074 Y138.589
G0 F2625 X146.987 Y139.209
G1 F900 X142.988 Y135.21 E38.07494
G1 X142.9 Y135.122
G0 F2625 X142.986 Y135.915
G1 F900 X146.989 Y139.918 E38.26307
G1 X147.077 Y140.006
G0 F2625 X146.991 Y140.627
G1 F900 X142.984 Y136.62 E38.45139
G1 X142.896 Y136.532
G0 F2625 X142.982 Y137.325
G1 F900 X146.993 Y141.336 E38.6399
G1 X147.081 Y141.424
G0 F2625 X146.995 Y142.045
G1 F900 X142.98 Y138.03 E38.82859
G1 X142.892 Y137.942
G0 F2625 X142.979 Y138.736
G1 F900 X146.996 Y142.754 E39.0174
G1 X147.084 Y142.842
G0 F2625 X146.999 Y143.463
G1 F900 X142.976 Y139.441 E39.20645
G1 X142.888 Y139.353
G0 F2625 X142.974 Y140.146
G1 F900 X147.001 Y144.172 E39.39568
G1 X147.089 Y144.26
G0 F2625 X147.002 Y144.881
G1 F900 X142.973 Y140.852 E39.58503
G1 X142.885 Y140.764
G0 F2625 X142.971 Y141.557
G1 F900 X147.004 Y145.59 E39.77457
G1 X147.092 Y145.678
G0 F2625 X147.006 Y146.299
G1 F900 X142.969 Y142.262 E39.9643
G1 X142.881 Y142.174
G0 F2625 X142.967 Y142.967
G1 F900 X147.008 Y147.008 E40.15421
G1 X147.096 Y147.096
G0 F2625 X147.01 Y147.717
G1 F900 X142.965 Y143.672 E40.34432
G1 X142.877 Y143.584
G0 F2625 X142.964 Y144.378
G1 F900 X147.012 Y148.426 E40.53456
G1 X147.1 Y148.514
G0 F2625 X147.013 Y149.135
G1 F900 X142.962 Y145.083 E40.72497
G1 X142.874 Y144.995
G0 F2625 X142.96 Y145.789
G1 F900 X147.015 Y149.844 E40.91554
G1 X147.103 Y149.932
G0 F2625 X147.018 Y150.553
G1 F900 X142.958 Y146.494 E41.10633
G1 X142.87 Y146.406
G0 F2625 X142.957 Y147.199
G1 F900 X147.019 Y151.262 E41.29725
G1 X147.107 Y151.35
G0 F2625 X147.021 Y151.971
G1 F900 X142.955 Y147.904 E41.48837
G1 X142.867 Y147.816
G0 F2625 X142.952 Y148.609
G1 F900 X146.46 Y152.117 E41.65323
G1 X146.548 Y152.205
G0 F2625 X145.753 Y152.117
G1 F900 X142.951 Y149.315 E41.78492
G1 X142.863 Y149.227
G0 F2625 X142.949 Y150.02
G1 F900 X145.045 Y152.117 E41.88345
G1 X145.133 Y152.205
G0 F2625 X144.338 Y152.117
G1 F900 X142.947 Y150.726 E41.94882
G1 X142.859 Y150.638
G0 F2625 X142.945 Y151.431
G1 F900 X143.631 Y152.117 E41.98106
G1 F600 E40.98106
G0 F2625 X147.657 Y152.813
G0 X147.657 Y154.248
G0 X147.657 Y162.394
G0 X147.657 Y163.829
G0 X147.657 Y164.06
G0 X147.756 Y164.063
;TYPE:WALL-INNER
G1 F600 E41.98106
G1 F900 X147.583 Y172.685 E42.26765
G1 X145.133 Y172.766 E42.34911
G1 X143.901 Y172.78 E42.39005
G1 X142.856 Y172.763 E42.42479
G1 X142.364 Y172.731 E42.44117
G1 X142.291 Y171.671 E42.47648
G1 X142.241 Y170.033 E42.53094
G1 X142.225 Y168.135 E42.59402
G1 X142.224 Y164.059 E42.72947
G1 X142.224 Y163.809 E42.73778
G1 X142.474 Y163.809 E42.74315
G1 X147.506 Y163.809 E42.91038
G1 X147.507 Y163.809 E42.91041
G1 X147.761 Y163.809 E42.91885
G1 X147.756 Y164.063 E42.92428
G0 F2625 X148.266 Y163.563
;TYPE:WALL-OUTER
G1 F900 X148.073 Y173.169 E43.24358
G1 X145.15 Y173.266 E43.34077
G1 X143.899 Y173.28 E43.38234
G1 X142.837 Y173.263 E43.41764
G1 X142.111 Y173.216 E43.44182
G1 X141.934 Y173.172 E43.44788
G1 X141.87 Y172.845 E43.45895
G1 X141.792 Y171.705 E43.49692
G1 X141.741 Y170.048 E43.55201
G1 X141.725 Y168.135 E43.61559
G1 X141.724 Y163.559 E43.76766
G1 X141.724 Y163.309 E43.77597
G1 X141.974 Y163.309 E43.78134
G1 X148.016 Y163.309 E43.98213
G1 X148.017 Y163.309 E43.98216
G1 X148.271 Y163.309 E43.9906
G1 X148.266 Y163.563 E43.99604
G0 F2625 X148.261 Y163.812
G0 X147.69 Y163.879
G0 X147.261 Y164.299
;TYPE:SKIN
G1 F900 X147.103 Y172.211 E44.25902
G1 X145.117 Y172.276 E44.32506
G1 X143.903 Y172.29 E44.3654
G1 X142.823 Y172.271 E44.4013
G1 X142.781 Y171.656 E44.42178
G1 X142.731 Y170.018 E44.47624
G1 X142.715 Y168.135 E44.53882
G1 X142.714 Y164.299 E44.6663
G1 X147.261 Y164.299 E44.8174
G0 F2625 X146.936 Y164.614
G1 F900 X146.576 Y164.961 E44.8423
G1 X147.103 Y165.488
G0 F2625 X147.001 Y166.093
G1 F900 X145.431 Y164.523 E44.91608
G1 X145.343 Y164.435
G0 F2625 X144.724 Y164.523
G1 F900 X146.987 Y166.786 E45.02244
G1 X147.075 Y166.874
G0 F2625 X146.973 Y167.479
G1 F900 X144.017 Y164.523 E45.16136
G1 X143.929 Y164.435
G0 F2625 X143.31 Y164.523
G1 F900 X146.959 Y168.172 E45.33285
G1 X147.047 Y168.26
