;Generated by Cura LulzBot Edition GCodeWriter Version: 3.2.32
;FLAVOR:Marlin
;TIME:2028
;Filament used: 1.9163m
;Layer height: 0.38
;Generated with Cura_SteamEngine 3.2.32
M82 ;absolute extrusion mode
;This G-Code has been generated specifically for the LulzBot TAZ 5 with standard extruder
M75			 ; start GLCD timer
M140 S85    ; start bed heating up
G21                      ; set units to Millimetres
G90                      ; absolute positioning
M107                     ; disable fans
M82                      ; set extruder to absolute mode
G28 X0 Y0                ; home X and Y
G28 Z0                   ; home Z
G1 Z15.0 F175 ; move extruder up
M117 Heating...                     ; progress indicator message on LCD
M109 R240  ; wait for extruder to reach printing temp
M190 S85    ; wait for bed to reach printing temp
G92 E0                   ; set extruder position to 0
G1 F200 E0               ; prime the nozzle with filament
G92 E0                   ; re-set extruder position to 0
G1 F175       ; set travel speed
M203 X192 Y208 Z3        ; set limits on travel speed
M117 TAZ 5 Printing...   ; progress indicator message on LCD

M221 S100
;LAYER_COUNT:27
;LAYER:0
M107
G0 F2625 X110.797 Y98.723 Z0.424
;TYPE:SKIRT
G1 F900 X111.21 Y98.313 E0.01934
G1 X111.677 Y97.963 E0.03873
G1 X112.186 Y97.681 E0.05807
G1 X112.967 Y97.404 E0.08561
G1 X113.67 Y97.23 E0.10968
G1 X114.468 Y97.112 E0.13648
G1 X116.354 Y97.013 E0.19925
G1 X116.573 Y97.007 E0.20653
G1 X122.398 Y97.001 E0.4001
G1 X122.465 Y97.001 E0.40233
G1 X130.084 Y97.114 E0.65555
G1 X130.566 Y97.149 E0.67161
G1 X133.715 Y97.556 E0.77713
G1 X139.142 Y98.014 E0.95812
G1 X144.546 Y98.163 E1.13777
G1 X149.964 Y98.005 E1.3179
G1 X155.371 Y97.541 E1.49825
G1 X159.61 Y96.972 E1.64038
G1 X160.176 Y96.934 E1.65923
G1 X176.026 Y96.935 E2.18596
G1 X176.608 Y96.975 E2.20535
G1 X177.178 Y97.094 E2.2247
G1 X177.727 Y97.29 E2.24407
G1 X178.244 Y97.559 E2.26344
G1 X178.719 Y97.897 E2.28281
G1 X179.143 Y98.296 E2.30216
G1 X179.509 Y98.75 E2.32154
G1 X179.81 Y99.249 E2.3409
G1 X180.039 Y99.785 E2.36027
G1 X180.193 Y100.347 E2.37964
G1 X180.276 Y101.185 E2.40762
G1 X180.276 Y173.816 E4.8213
G1 X180.236 Y174.397 E4.84065
G1 X180.117 Y174.968 E4.86003
G1 X179.921 Y175.517 E4.8794
G1 X179.652 Y176.033 E4.89874
G1 X179.314 Y176.509 E4.91814
G1 X178.915 Y176.933 E4.93749
G1 X178.461 Y177.299 E4.95687
G1 X177.962 Y177.599 E4.97622
G1 X177.426 Y177.829 E4.9956
G1 X176.864 Y177.983 E5.01497
G1 X176.021 Y178.066 E5.04312
G1 X156.162 Y178.041 E5.70307
G1 X156.131 Y178.041 E5.7041
G1 X141.158 Y177.915 E6.2017
G1 X141.074 Y177.913 E6.2045
G1 X133.883 Y177.71 E6.44356
G1 X133.303 Y177.654 E6.46293
G1 X132.928 Y177.574 E6.47567
G1 X126.887 Y175.995 E6.68317
G1 X126.335 Y175.809 E6.70252
G1 X125.764 Y175.52 E6.72379
G1 X120.666 Y172.439 E6.92174
G1 X120.189 Y172.104 E6.94112
G1 X119.681 Y171.618 E6.96448
G1 X115.826 Y167.261 E7.15781
G1 X115.471 Y166.799 E7.17717
G1 X115.118 Y166.155 E7.20158
G1 X112.732 Y160.725 E7.39868
G1 X112.535 Y160.176 E7.41806
G1 X112.429 Y159.703 E7.43417
G1 X112.132 Y157.892 E7.49516
G1 X112.095 Y157.601 E7.50491
G1 X111.954 Y156.099 E7.55504
G1 X111.936 Y155.798 E7.56506
G1 X111.869 Y152.826 E7.66385
G1 X111.873 Y152.515 E7.67419
G1 X112.015 Y149.707 E7.76762
G1 X112.05 Y149.342 E7.77981
G1 X113.022 Y142.293 E8.01628
G1 X113.444 Y136.898 E8.19611
G1 X113.561 Y131.475 E8.37637
G1 X113.371 Y126.077 E8.55587
G1 X112.712 Y118.95 E8.79372
G1 X112.084 Y113.505 E8.97587
G1 X111.153 Y108.123 E9.15738
G1 X110.592 Y105.542 E9.24515
G1 X109.859 Y102.537 E9.34794
G1 X109.76 Y101.963 E9.3673
G1 X109.741 Y101.38 E9.38669
G1 X109.801 Y100.801 E9.40603
G1 X109.94 Y100.235 E9.4254
G1 X110.155 Y99.693 E9.44478
G1 X110.443 Y99.186 E9.46415
G1 X110.797 Y98.723 E9.48352
G0 F2625 X111.331 Y98.884
G1 F900 X111.745 Y98.525 E9.50173
G1 X112.206 Y98.231 E9.5199
G1 X112.705 Y98.006 E9.53809
G1 X113.087 Y97.89 E9.55136
G1 X113.79 Y97.716 E9.57543
G1 X114.494 Y97.611 E9.59908
G1 X116.38 Y97.512 E9.66184
G1 X116.573 Y97.507 E9.66826
G1 X122.398 Y97.501 E9.86183
G1 X122.458 Y97.501 E9.86383
G1 X130.077 Y97.614 E10.11705
G1 X130.502 Y97.645 E10.13121
G1 X133.654 Y98.052 E10.23683
G1 X139.105 Y98.512 E10.41862
G1 X144.564 Y98.662 E10.6001
G1 X149.987 Y98.505 E10.78039
G1 X155.419 Y98.039 E10.96157
G1 X159.677 Y97.467 E11.10435
G1 X160.176 Y97.434 E11.12097
G1 X176.026 Y97.435 E11.64769
G1 X176.572 Y97.475 E11.66589
G1 X177.106 Y97.594 E11.68407
G1 X177.618 Y97.79 E11.70229
G1 X178.095 Y98.057 E11.72045
G1 X178.528 Y98.392 E11.73864
G1 X178.908 Y98.786 E11.75684
G1 X179.227 Y99.231 E11.77503
G1 X179.477 Y99.718 E11.79322
G1 X179.654 Y100.236 E11.81141
G1 X179.753 Y100.774 E11.82959
G1 X179.776 Y101.185 E11.84327
G1 X179.776 Y173.816 E14.25695
G1 X179.736 Y174.362 E14.27514
G1 X179.617 Y174.896 E14.29332
G1 X179.422 Y175.407 E14.3115
G1 X179.154 Y175.885 E14.32971
G1 X178.819 Y176.318 E14.3479
G1 X178.425 Y176.698 E14.36609
G1 X177.98 Y177.017 E14.38429
G1 X177.493 Y177.267 E14.40248
G1 X176.975 Y177.444 E14.42067
G1 X176.437 Y177.543 E14.43885
G1 X176.021 Y177.566 E14.45269
G1 X156.162 Y177.541 E15.11265
G1 X156.135 Y177.541 E15.11355
G1 X141.162 Y177.415 E15.61115
G1 X141.088 Y177.414 E15.61361
G1 X133.897 Y177.211 E15.85267
G1 X133.353 Y177.155 E15.87085
G1 X133.055 Y177.09 E15.88098
G1 X127.014 Y175.511 E16.08848
G1 X126.496 Y175.334 E16.10667
G1 X126.022 Y175.092 E16.12436
G1 X120.924 Y172.011 E16.32231
G1 X120.478 Y171.695 E16.34048
G1 X120.055 Y171.287 E16.36001
G1 X116.2 Y166.93 E16.55334
G1 X115.869 Y166.495 E16.5715
G1 X115.576 Y165.954 E16.59195
G1 X113.19 Y160.524 E16.78905
G1 X113.007 Y160.008 E16.80724
G1 X112.922 Y159.622 E16.82038
G1 X112.625 Y157.811 E16.88137
G1 X112.592 Y157.554 E16.88998
G1 X112.451 Y156.052 E16.94011
G1 X112.436 Y155.787 E16.94893
G1 X112.369 Y152.815 E17.04772
G1 X112.373 Y152.541 E17.05683
G1 X112.515 Y149.733 E17.15026
G1 X112.545 Y149.41 E17.16104
G1 X113.518 Y142.349 E17.39791
G1 X113.943 Y136.912 E17.57914
G1 X114.061 Y131.486 E17.7595
G1 X113.87 Y126.032 E17.94086
G1 X113.209 Y118.892 E18.17915
G1 X112.58 Y113.433 E18.36177
G1 X111.647 Y108.048 E18.54339
G1 X111.073 Y105.402 E18.63336
G1 X110.345 Y102.419 E18.7354
G1 X110.254 Y101.879 E18.7536
G1 X110.243 Y101.332 E18.77178
G1 X110.312 Y100.789 E18.78997
G1 X110.459 Y100.261 E18.80819
G1 X110.681 Y99.761 E18.82637
G1 X110.974 Y99.299 E18.84455
G1 X111.331 Y98.884 E18.86274
G0 F2625 X111.507 Y99.43
G1 F900 X111.866 Y99.069 E18.87966
G1 X112.277 Y98.767 E18.89661
G1 X112.729 Y98.534 E18.91351
G1 X113.207 Y98.375 E18.93025
G1 X113.91 Y98.201 E18.95432
G1 X114.521 Y98.11 E18.97484
G1 X116.407 Y98.011 E19.03761
G1 X116.574 Y98.007 E19.04316
G1 X122.399 Y98.001 E19.23673
G1 X122.45 Y98.001 E19.23843
G1 X130.069 Y98.114 E19.49165
G1 X130.438 Y98.141 E19.50395
G1 X133.593 Y98.549 E19.60967
G1 X139.084 Y99.012 E19.79279
G1 X144.548 Y99.162 E19.97444
G1 X150.027 Y99.003 E20.15659
G1 X155.487 Y98.535 E20.33871
G1 X159.744 Y97.963 E20.48145
G1 X160.176 Y97.934 E20.49583
G1 X176.026 Y97.935 E21.02256
G1 X176.534 Y97.975 E21.03949
G1 X177.03 Y98.094 E21.05645
G1 X177.5 Y98.289 E21.07336
G1 X177.935 Y98.555 E21.0903
G1 X178.323 Y98.885 E21.10723
G1 X178.654 Y99.273 E21.12418
G1 X178.92 Y99.707 E21.14109
G1 X179.116 Y100.177 E21.15801
G1 X179.235 Y100.673 E21.17497
G1 X179.276 Y101.185 E21.19203
G1 X179.276 Y173.816 E23.60571
G1 X179.236 Y174.324 E23.62264
G1 X179.117 Y174.819 E23.63956
G1 X178.922 Y175.29 E23.6565
G1 X178.656 Y175.725 E23.67344
G1 X178.326 Y176.112 E23.69035
G1 X177.939 Y176.444 E23.70729
G1 X177.504 Y176.71 E23.72424
G1 X177.034 Y176.906 E23.74116
G1 X176.539 Y177.025 E23.75808
G1 X176.022 Y177.066 E23.77531
G1 X156.163 Y177.041 E24.43527
G1 X156.14 Y177.041 E24.43603
G1 X141.167 Y176.915 E24.93363
G1 X141.102 Y176.914 E24.93579
G1 X133.911 Y176.711 E25.17486
G1 X133.181 Y176.606 E25.19937
G1 X127.14 Y175.027 E25.40686
G1 X126.659 Y174.86 E25.42379
G1 X126.281 Y174.664 E25.43794
G1 X121.183 Y171.583 E25.63589
G1 X120.769 Y171.287 E25.6528
G1 X120.43 Y170.956 E25.66855
G1 X116.575 Y166.599 E25.86188
G1 X116.268 Y166.192 E25.87882
G1 X116.034 Y165.752 E25.89538
G1 X113.648 Y160.322 E26.09248
G1 X113.48 Y159.841 E26.10941
G1 X113.416 Y159.541 E26.11961
G1 X113.119 Y157.73 E26.18059
G1 X113.09 Y157.508 E26.18803
G1 X112.949 Y156.006 E26.23817
G1 X112.936 Y155.775 E26.24586
G1 X112.869 Y152.803 E26.34465
G1 X112.872 Y152.566 E26.35252
G1 X113.014 Y149.758 E26.44596
G1 X113.04 Y149.478 E26.4553
G1 X114.017 Y142.388 E26.69314
G1 X114.443 Y136.944 E26.87461
G1 X114.561 Y131.479 E27.05627
G1 X114.369 Y126.003 E27.23836
G1 X113.711 Y118.884 E27.47595
G1 X113.072 Y113.346 E27.6612
G1 X112.138 Y107.95 E27.84319
G1 X111.56 Y105.289 E27.93368
G1 X110.831 Y102.3 E28.03593
G1 X110.749 Y101.797 E28.05286
G1 X110.747 Y101.288 E28.06978
G1 X110.825 Y100.784 E28.08673
G1 X110.98 Y100.299 E28.10365
G1 X111.21 Y99.844 E28.12059
G1 X111.507 Y99.43 E28.13752
G1 F600 E27.13752
G0 F2625 X115.833 Y100.607
G0 X115.934 Y102.037
G0 X134.379 Y126.236
G0 X135.365 Y127.377
G0 X136.595 Y128.306
G0 X138.793 Y129.399
G0 X139.479 Y129.623
G0 X140.295 Y129.785
G0 X142.715 Y129.977
G0 X160.985 Y130.255
G0 X160.915 Y130.184
;TYPE:WALL-INNER
G1 F600 E28.13752
G1 F900 X160.915 Y129.933 E28.14586
G1 X160.915 Y129.932 E28.1459
G1 X160.915 Y101.925 E29.07662
G1 X175.285 Y101.925 E29.55417
G1 X175.285 Y172.824 E31.91028
G1 X175.285 Y173.074 E31.91859
G1 X175.035 Y173.074 E31.92396
G1 X156.217 Y173.041 E32.54933
G1 X148.323 Y172.996 E32.81166
G1 X141.509 Y172.921 E33.03812
G1 X136.512 Y172.827 E33.20421
G1 X134.109 Y172.725 E33.28414
G1 X128.238 Y171.189 E33.48581
G1 X123.34 Y168.225 E33.67606
G1 X119.633 Y164.038 E33.8619
G1 X117.336 Y158.8 E34.05197
G1 X116.965 Y156.444 E34.13123
G1 X116.844 Y153.322 E34.23506
G1 X116.977 Y150.178 E34.33964
G1 X117.341 Y147.739 E34.42159
G1 X118.547 Y144.443 E34.53822
G1 X120.336 Y141.532 E34.65177
G1 X122.628 Y139.106 E34.76268
G1 X125.393 Y137.224 E34.87383
G1 X127.831 Y135.921 E34.96569
G1 X127.762 Y134.952 E34.99798
G1 X125.742 Y134.208 E35.06952
G1 X124.138 Y133.291 E35.13092
G1 X122.449 Y131.842 E35.20487
G1 X120.924 Y130.086 E35.28216
G1 X119.823 Y128.277 E35.35253
G1 X118.956 Y126.1 E35.43041
G1 X118.318 Y123.508 E35.51911
G1 X117.82 Y119.976 E35.63765
G1 X117.391 Y115.04 E35.8023
G1 X116.979 Y110.472 E35.95472
G1 X116.506 Y107.036 E36.06998
G1 X115.919 Y104.487 E36.15691
G1 X115.186 Y102.648 E36.2227
G1 X115.082 Y102.413 E36.23124
G1 X114.939 Y102.089 E36.24301
G1 X115.293 Y102.064 E36.24997
G1 X115.934 Y102.018 E36.27133
G1 X118.405 Y101.977 E36.35346
G1 X122.149 Y101.998 E36.47788
G1 X129.473 Y102.096 E36.72129
G1 X129.75 Y102.901 E36.74958
G1 X130.14 Y104.485 E36.80379
G1 X130.531 Y106.806 E36.88201
G1 X130.933 Y110.034 E36.99011
G1 X131.381 Y114.476 E37.13848
G1 X131.778 Y118.301 E37.26627
G1 X132.199 Y120.964 E37.35587
G1 X132.762 Y122.97 E37.42511
G1 X133.575 Y124.796 E37.49153
G1 X134.411 Y126.213 E37.54621
G1 X135.392 Y127.348 E37.59606
G1 X136.616 Y128.273 E37.64705
G1 X138.152 Y129.079 E37.70469
G1 X138.807 Y129.362 E37.7284
G1 X139.489 Y129.585 E37.75225
G1 X140.301 Y129.746 E37.77976
G1 X141.334 Y129.858 E37.81429
G1 X142.716 Y129.938 E37.86029
G1 X144.572 Y129.99 E37.92199
G1 X147.028 Y130.031 E38.00362
G1 X160.663 Y130.182 E38.45677
G1 X160.664 Y130.183 E38.45682
G1 X160.915 Y130.184 E38.46221
G0 F2625 X160.985 Y130.255
G0 X160.985 Y161.952
G0 X160.915 Y161.882
G1 F900 X160.915 Y161.632 E38.47052
G1 X160.915 Y140.278 E39.18015
G1 X150.816 Y140.278 E39.51576
G1 X144.874 Y140.334 E39.71323
G1 X140.896 Y140.549 E39.84562
G1 X138.211 Y140.999 E39.9361
G1 X136.176 Y141.772 E40.00844
G1 X134.135 Y143.247 E40.09212
G1 X132.653 Y145.291 E40.17603
G1 X131.77 Y147.836 E40.26555
G1 X131.491 Y150.717 E40.36174
G1 X131.486 Y150.889 E40.36745
G1 X131.59 Y153.146 E40.44254
G1 X131.943 Y155.105 E40.50869
G1 X132.589 Y156.786 E40.56853
G1 X133.547 Y158.243 E40.62648
G1 X134.531 Y159.297 E40.6744
G1 X135.641 Y160.143 E40.72078
G1 X136.989 Y160.78 E40.77033
G1 X138.652 Y161.231 E40.82759
G1 X140.735 Y161.529 E40.89751
G1 X143.359 Y161.713 E40.98493
G1 X146.653 Y161.81 E41.09444
G1 X150.743 Y161.844 E41.23037
G1 X160.665 Y161.882 E41.5601
G1 X160.915 Y161.882 E41.56547
G0 F2625 X160.415 Y161.38
;TYPE:WALL-OUTER
G1 F900 X160.415 Y161.13 E41.57378
G1 X160.415 Y140.778 E42.25012
G1 X150.818 Y140.778 E42.56904
G1 X144.89 Y140.834 E42.76605
G1 X140.951 Y141.047 E42.89714
G1 X138.342 Y141.484 E42.98505
G1 X136.415 Y142.216 E43.05356
G1 X134.493 Y143.605 E43.13236
G1 X133.101 Y145.525 E43.21117
G1 X132.262 Y147.944 E43.29626
G1 X131.99 Y150.749 E43.38991
G1 X131.986 Y150.885 E43.39443
G1 X132.088 Y153.09 E43.46779
G1 X132.427 Y154.97 E43.53127
G1 X133.036 Y156.556 E43.58773
G1 X133.941 Y157.933 E43.64249
G1 X134.868 Y158.925 E43.68761
G1 X135.902 Y159.713 E43.73081
G1 X137.163 Y160.309 E43.77716
G1 X138.753 Y160.74 E43.83191
G1 X140.788 Y161.031 E43.90022
G1 X143.384 Y161.214 E43.98671
G1 X146.662 Y161.31 E44.09569
G1 X150.746 Y161.344 E44.23141
G1 X160.165 Y161.38 E44.54443
G1 X160.415 Y161.38 E44.5498
G0 F2625 X160.415 Y161.13
G0 X161.015 Y161.13
G0 X161.015 Y129.678
G0 X160.415 Y129.678
G1 F900 X160.415 Y129.427 E44.55814
G1 X160.415 Y129.426 E44.55818
G1 X160.415 Y101.425 E45.4887
G1 X175.785 Y101.425 E45.99948
G1 X175.785 Y173.325 E48.38886
G1 X175.785 Y173.575 E48.39717
G1 X175.535 Y173.575 E48.40254
G1 X156.214 Y173.541 E49.04462
G1 X148.317 Y173.496 E49.30706
G1 X141.5 Y173.421 E49.53361
G1 X136.491 Y173.327 E49.7001
G1 X134.034 Y173.223 E49.78183
G1 X128.041 Y171.655 E49.98769
G1 X123.018 Y168.615 E50.1828
G1 X119.206 Y164.309 E50.37392
G1 X116.852 Y158.942 E50.56867
G1 X116.466 Y156.491 E50.65113
G1 X116.343 Y153.322 E50.75652
G1 X116.478 Y150.13 E50.86269
G1 X116.853 Y147.615 E50.9472
G1 X118.094 Y144.226 E51.06713
G1 X119.935 Y141.229 E51.18402
G1 X122.303 Y138.723 E51.2986
G1 X125.139 Y136.793 E51.4126
G1 X127.136 Y135.725 E51.48785
G1 X127.309 Y135.633 E51.49437
G1 X127.286 Y135.31 E51.50513
G1 X127.102 Y135.242 E51.51165
G1 X125.53 Y134.663 E51.56732
G1 X123.848 Y133.701 E51.63171
G1 X122.093 Y132.196 E51.70854
G1 X120.521 Y130.385 E51.78823
G1 X119.372 Y128.498 E51.86165
G1 X118.481 Y126.259 E51.94174
G1 X117.826 Y123.6 E52.03274
G1 X117.323 Y120.034 E52.15242
G1 X116.893 Y115.084 E52.31754
G1 X116.482 Y110.529 E52.46952
G1 X116.014 Y107.126 E52.58368
G1 X115.44 Y104.637 E52.66856
G1 X114.725 Y102.842 E52.73277
G1 X114.383 Y102.068 E52.76089
G1 X114.36 Y102.016 E52.76278
G1 X114.27 Y101.692 E52.77396
G1 X114.494 Y101.619 E52.78179
G1 X114.55 Y101.615 E52.78365
G1 X115.908 Y101.518 E52.8289
G1 X118.4 Y101.477 E52.91172
G1 X122.156 Y101.498 E53.03654
G1 X129.832 Y101.601 E53.29165
G1 X130.228 Y102.752 E53.3321
G1 X130.631 Y104.388 E53.3881
G1 X131.024 Y106.723 E53.46678
G1 X131.43 Y109.984 E53.57599
G1 X131.878 Y114.425 E53.72432
G1 X132.274 Y118.236 E53.85165
G1 X132.688 Y120.857 E53.93983
G1 X133.234 Y122.8 E54.0069
G1 X134.02 Y124.567 E54.07117
G1 X134.819 Y125.92 E54.12339
G1 X135.736 Y126.981 E54.16999
G1 X136.885 Y127.849 E54.21785
G1 X138.368 Y128.628 E54.27352
G1 X138.984 Y128.894 E54.29581
G1 X139.616 Y129.1 E54.3179
G1 X140.377 Y129.251 E54.34369
G1 X141.375 Y129.36 E54.37705
G1 X142.737 Y129.438 E54.42239
G1 X144.583 Y129.49 E54.48376
G1 X147.035 Y129.531 E54.56525
G1 X160.163 Y129.676 E55.00155
G1 X160.164 Y129.677 E55.0016
G1 X160.415 Y129.678 E55.00699
G0 F2625 X160.415 Y129.428
G0 X161.015 Y129.428
G0 X161.405 Y130.68
;TYPE:SKIN
G1 F900 X161.405 Y102.415 E55.94629
G1 X174.795 Y102.415 E56.39127
G1 X174.795 Y172.584 E58.72312
G1 X156.217 Y172.551 E59.34051
G1 X148.329 Y172.506 E59.60264
G1 X141.519 Y172.431 E59.82897
G1 X136.533 Y172.337 E59.99469
G1 X134.18 Y172.237 E60.07296
G1 X128.429 Y170.732 E60.27051
G1 X123.659 Y167.846 E60.45578
G1 X120.051 Y163.77 E60.63668
G1 X117.81 Y158.661 E60.82208
G1 X117.454 Y156.4 E60.89814
G1 X117.334 Y153.322 E61.00051
G1 X117.467 Y150.214 E61.10388
G1 X117.817 Y147.862 E61.18291
G1 X118.99 Y144.658 E61.29629
