;Generated by Cura LulzBot Edition GCodeWriter Version: master
;FLAVOR:Marlin
;TIME:1926
;Filament used: 0.973951m
;Layer height: 0.25
;Generated with Cura_SteamEngine 3.2.32
M82 ;absolute extrusion mode
;This G-Code has been generated specifically for the LulzBot TAZ 5 with standard extruder
M75			 ; start GLCD timer
M140 S85    ; start bed heating up
G21                      ; set units to Millimetres
G90                      ; absolute positioning
M107                     ; disable fans
M82                      ; set extruder to absolute mode
G28 X0 Y0                ; home X and Y
G28 Z0                   ; home Z
G1 Z15.0 F175 ; move extruder up
M117 Heating...                     ; progress indicator message on LCD
M109 R240  ; wait for extruder to reach printing temp
M190 S85    ; wait for bed to reach printing temp
G92 E0                   ; set extruder position to 0
G1 F200 E0               ; prime the nozzle with filament
G92 E0                   ; re-set extruder position to 0
G1 F175       ; set travel speed
M203 X192 Y208 Z3        ; set limits on travel speed
M117 TAZ 5 Printing...   ; progress indicator message on LCD

M221 S100
;LAYER_COUNT:40
;LAYER:0
M107
G0 F2625 X125.028 Y113.172 Z0.424
;TYPE:SKIRT
G1 F900 X125.603 Y112.595 E0.02707
G1 X128.612 Y110.106 E0.15684
G1 X129.262 Y109.663 E0.18298
G1 X132.226 Y108.022 E0.29557
G1 X132.943 Y107.707 E0.3216
G1 X136.275 Y106.598 E0.4383
G1 X136.944 Y106.435 E0.46118
G1 X140.951 Y105.792 E0.59604
G1 X141.504 Y105.74 E0.6145
G1 X145.621 Y105.624 E0.75137
G1 X146.021 Y105.631 E0.76467
G1 X147.764 Y105.746 E0.82272
G1 X148.038 Y105.773 E0.83187
G1 X151.37 Y106.211 E0.94355
G1 X152.087 Y106.369 E0.96795
G1 X156.083 Y107.621 E1.10711
G1 X156.853 Y107.949 E1.13492
G1 X160.339 Y109.857 E1.26698
G1 X161.048 Y110.344 E1.29557
G1 X164.096 Y112.93 E1.4284
G1 X164.684 Y113.54 E1.45656
G1 X167.19 Y116.719 E1.59108
G1 X167.617 Y117.379 E1.61721
G1 X169.774 Y121.5 E1.77178
G1 X170.04 Y122.123 E1.79429
G1 X171.465 Y126.385 E1.94363
G1 X171.578 Y126.79 E1.95761
G1 X171.992 Y128.609 E2.0196
G1 X172.06 Y128.988 E2.0324
G1 X172.315 Y130.894 E2.0963
G1 X172.352 Y131.361 E2.11187
G1 X172.475 Y136.748 E2.29094
G1 X172.474 Y136.963 E2.29808
G1 X172.311 Y142.811 E2.4925
G1 X172.279 Y143.232 E2.50653
G1 X171.852 Y146.569 E2.61833
G1 X171.713 Y147.231 E2.64081
G1 X170.749 Y150.502 E2.75413
G1 X170.557 Y151.024 E2.77262
G1 X169.221 Y154.036 E2.88211
G1 X169.107 Y154.273 E2.89085
G1 X168.462 Y155.514 E2.93733
G1 X168.343 Y155.729 E2.9455
G1 X166.912 Y158.132 E3.03844
G1 X166.536 Y158.665 E3.06012
G1 X164.157 Y161.543 E3.18421
G1 X163.671 Y162.041 E3.20733
G1 X161.251 Y164.147 E3.31394
G1 X160.71 Y164.547 E3.3363
G1 X158.422 Y165.974 E3.42591
G1 X158.131 Y166.14 E3.43704
G1 X157.006 Y166.724 E3.47917
G1 X156.644 Y166.891 E3.49242
G1 X153.999 Y167.963 E3.58726
G1 X153.381 Y168.16 E3.60882
G1 X150.005 Y168.958 E3.7241
G1 X149.373 Y169.058 E3.74536
G1 X145.543 Y169.371 E3.87306
G1 X144.958 Y169.378 E3.89251
G1 X141.165 Y169.164 E4.01876
G1 X140.496 Y169.073 E4.04119
G1 X136.479 Y168.195 E4.17784
G1 X135.673 Y167.932 E4.20601
G1 X132.025 Y166.324 E4.3385
G1 X131.27 Y165.894 E4.36737
G1 X128.005 Y163.564 E4.50067
G1 X127.374 Y163.012 E4.52853
G1 X124.623 Y160.078 E4.66219
G1 X124.142 Y159.46 E4.68821
G1 X121.878 Y155.919 E4.82788
G1 X121.546 Y155.288 E4.85158
G1 X119.838 Y151.257 E4.99707
G1 X119.633 Y150.65 E5.01836
G1 X118.438 Y145.968 E5.17894
G1 X118.332 Y145.387 E5.19856
G1 X117.777 Y140.396 E5.36545
G1 X117.756 Y140.142 E5.37392
G1 X117.539 Y135.879 E5.51577
G1 X117.537 Y135.5 E5.52836
G1 X117.691 Y131.473 E5.66229
G1 X117.71 Y128.599 E5.7578
G1 X117.754 Y128.017 E5.77719
G1 X117.85 Y127.546 E5.79317
G1 X118.328 Y125.727 E5.85567
G1 X118.402 Y125.476 E5.86436
G1 X119.403 Y122.44 E5.9706
G1 X119.596 Y121.956 E5.98791
G1 X121.04 Y118.899 E6.10027
G1 X121.287 Y118.449 E6.11733
G1 X123.095 Y115.578 E6.23008
G1 X123.407 Y115.145 E6.24781
G1 X125.028 Y113.172 E6.33267
G0 F2625 X125.415 Y113.489
G1 F900 X125.922 Y112.98 E6.35655
G1 X128.931 Y110.491 E6.48632
G1 X129.505 Y110.1 E6.5094
G1 X132.469 Y108.459 E6.62199
G1 X133.101 Y108.182 E6.64492
G1 X136.433 Y107.073 E6.76162
G1 X137.023 Y106.928 E6.78181
G1 X141.03 Y106.285 E6.91667
G1 X141.518 Y106.239 E6.93296
G1 X145.635 Y106.123 E7.06983
G1 X145.988 Y106.13 E7.08157
G1 X147.731 Y106.245 E7.13962
G1 X147.973 Y106.269 E7.1477
G1 X151.305 Y106.707 E7.25938
G1 X151.937 Y106.847 E7.28089
G1 X155.933 Y108.099 E7.42005
G1 X156.612 Y108.387 E7.44456
G1 X160.098 Y110.295 E7.57663
G1 X160.724 Y110.726 E7.60188
G1 X163.772 Y113.312 E7.73472
G1 X164.291 Y113.849 E7.75954
G1 X166.797 Y117.028 E7.89406
G1 X167.174 Y117.611 E7.91713
G1 X169.331 Y121.732 E8.0717
G1 X169.565 Y122.282 E8.09157
G1 X170.99 Y126.544 E8.24091
G1 X171.09 Y126.901 E8.25323
G1 X171.504 Y128.72 E8.31522
G1 X171.565 Y129.055 E8.32654
G1 X171.82 Y130.961 E8.39045
G1 X171.852 Y131.372 E8.40414
G1 X171.975 Y136.759 E8.58321
G1 X171.975 Y136.949 E8.58953
G1 X171.812 Y142.797 E8.78394
G1 X171.783 Y143.169 E8.79634
G1 X171.356 Y146.506 E8.90814
G1 X171.233 Y147.09 E8.92797
G1 X170.269 Y150.361 E9.0413
G1 X170.1 Y150.821 E9.05758
G1 X168.764 Y153.833 E9.16708
G1 X168.663 Y154.042 E9.1748
G1 X168.018 Y155.283 E9.22128
G1 X167.913 Y155.473 E9.22849
G1 X166.482 Y157.876 E9.32143
G1 X166.15 Y158.346 E9.34056
G1 X163.771 Y161.224 E9.46464
G1 X163.343 Y161.664 E9.48504
G1 X160.923 Y163.77 E9.59165
G1 X160.445 Y164.123 E9.6114
G1 X158.157 Y165.55 E9.70101
G1 X157.901 Y165.696 E9.7108
G1 X156.776 Y166.28 E9.75293
G1 X156.457 Y166.427 E9.7646
G1 X153.812 Y167.499 E9.85944
G1 X153.266 Y167.673 E9.87849
G1 X149.89 Y168.471 E9.99377
G1 X149.332 Y168.56 E10.01255
G1 X145.502 Y168.873 E10.14025
G1 X144.986 Y168.879 E10.1574
G1 X141.193 Y168.665 E10.28365
G1 X140.603 Y168.585 E10.30344
G1 X136.586 Y167.707 E10.44008
G1 X135.874 Y167.474 E10.46498
G1 X132.226 Y165.866 E10.59746
G1 X131.561 Y165.487 E10.6229
G1 X128.296 Y163.157 E10.7562
G1 X127.738 Y162.67 E10.78081
G1 X124.987 Y159.736 E10.91447
G1 X124.564 Y159.191 E10.93739
G1 X122.3 Y155.65 E11.07706
G1 X122.006 Y155.093 E11.09799
G1 X120.298 Y151.062 E11.24348
G1 X120.117 Y150.526 E11.26228
G1 X118.922 Y145.844 E11.42286
G1 X118.829 Y145.331 E11.44019
G1 X118.274 Y140.34 E11.60707
G1 X118.256 Y140.117 E11.61451
G1 X118.039 Y135.854 E11.75636
G1 X118.037 Y135.519 E11.76749
G1 X118.191 Y131.495 E11.90131
G1 X118.21 Y128.602 E11.99746
G1 X118.254 Y128.056 E12.01566
G1 X118.333 Y127.673 E12.02865
G1 X118.811 Y125.854 E12.09116
G1 X118.877 Y125.633 E12.09882
G1 X119.878 Y122.597 E12.20506
G1 X120.048 Y122.169 E12.22036
G1 X121.492 Y119.112 E12.33271
G1 X121.71 Y118.716 E12.34774
G1 X123.518 Y115.845 E12.46049
G1 X123.794 Y115.462 E12.47618
G1 X125.415 Y113.489 E12.56103
G0 F2625 X125.801 Y113.807
G1 F900 X126.241 Y113.366 E12.58174
G1 X129.25 Y110.877 E12.71151
G1 X129.747 Y110.538 E12.7315
G1 X132.711 Y108.897 E12.84409
G1 X133.259 Y108.656 E12.86398
G1 X136.591 Y107.547 E12.98068
G1 X137.102 Y107.422 E12.99817
G1 X141.109 Y106.779 E13.13303
G1 X141.532 Y106.739 E13.14715
G1 X145.649 Y106.623 E13.28402
G1 X145.955 Y106.629 E13.29419
G1 X147.698 Y106.744 E13.35224
G1 X147.908 Y106.765 E13.35925
G1 X151.24 Y107.203 E13.47094
G1 X151.788 Y107.324 E13.48959
G1 X155.784 Y108.576 E13.62875
G1 X156.372 Y108.826 E13.64998
G1 X159.858 Y110.734 E13.78204
G1 X160.401 Y111.107 E13.80393
G1 X163.449 Y113.693 E13.93677
G1 X163.898 Y114.159 E13.95827
G1 X166.404 Y117.338 E14.0928
G1 X166.731 Y117.843 E14.11279
G1 X168.888 Y121.964 E14.26736
G1 X169.091 Y122.44 E14.28456
G1 X170.516 Y126.702 E14.4339
G1 X170.603 Y127.012 E14.4446
G1 X171.017 Y128.831 E14.5066
G1 X171.069 Y129.121 E14.51639
G1 X171.324 Y131.027 E14.58029
G1 X171.352 Y131.384 E14.59219
G1 X171.475 Y136.771 E14.77126
G1 X171.475 Y136.936 E14.77674
G1 X171.312 Y142.784 E14.97116
G1 X171.287 Y143.106 E14.98189
G1 X170.86 Y146.443 E15.09369
G1 X170.753 Y146.949 E15.11088
G1 X169.789 Y150.22 E15.2242
G1 X169.643 Y150.619 E15.23832
G1 X168.307 Y153.631 E15.34782
G1 X168.22 Y153.812 E15.3545
G1 X167.575 Y155.053 E15.40098
G1 X167.483 Y155.217 E15.40722
G1 X166.052 Y157.62 E15.50017
G1 X165.765 Y158.028 E15.51675
G1 X163.386 Y160.906 E15.64083
G1 X163.015 Y161.287 E15.6585
G1 X160.595 Y163.393 E15.76511
G1 X160.181 Y163.699 E15.78222
G1 X157.893 Y165.126 E15.87183
G1 X157.67 Y165.253 E15.88036
G1 X156.545 Y165.837 E15.92249
G1 X156.269 Y165.964 E15.93258
G1 X153.624 Y167.036 E16.02743
G1 X153.151 Y167.187 E16.04393
G1 X149.775 Y167.985 E16.15921
G1 X149.292 Y168.061 E16.17546
G1 X145.462 Y168.374 E16.30316
G1 X145.014 Y168.38 E16.31805
G1 X141.221 Y168.166 E16.4443
G1 X140.71 Y168.096 E16.46144
G1 X136.693 Y167.218 E16.59808
G1 X136.076 Y167.017 E16.61965
G1 X132.428 Y165.409 E16.75213
G1 X131.851 Y165.08 E16.77421
G1 X128.586 Y162.75 E16.9075
G1 X128.103 Y162.328 E16.92882
G1 X125.352 Y159.394 E17.06248
G1 X124.985 Y158.922 E17.08235
G1 X122.721 Y155.381 E17.22202
G1 X122.467 Y154.898 E17.24015
G1 X120.759 Y150.867 E17.38564
G1 X120.602 Y150.403 E17.40192
G1 X119.407 Y145.721 E17.5625
G1 X119.326 Y145.276 E17.57753
G1 X118.771 Y140.285 E17.74441
G1 X118.755 Y140.091 E17.75088
G1 X118.538 Y135.828 E17.89273
G1 X118.536 Y135.538 E17.90237
G1 X118.691 Y131.486 E18.03712
G1 X118.71 Y128.605 E18.13287
G1 X118.753 Y128.097 E18.14981
G1 X118.817 Y127.8 E18.15991
G1 X119.295 Y125.981 E18.22241
G1 X119.351 Y125.789 E18.22905
G1 X120.352 Y122.753 E18.33529
G1 X120.5 Y122.383 E18.34853
G1 X121.944 Y119.326 E18.46088
G1 X122.133 Y118.982 E18.47393
G1 X123.941 Y116.111 E18.58668
G1 X124.18 Y115.78 E18.60025
G1 X125.801 Y113.807 E18.68511
G1 F600 E17.68511
G0 F2625 X126.024 Y117.609
G0 X127.137 Y118.514
G0 X139.414 Y115.402
G0 X140.745 Y115.135
G0 X142.436 Y115.006
G0 X147.359 Y114.998
G0 X149.066 Y115.138
G0 X150.454 Y115.515
G0 X152.014 Y116.208
G0 X156.342 Y119.314
G0 X159.71 Y123.905
G0 X160.766 Y126.338
G0 X161.657 Y129.114
G0 X162.285 Y131.865
G0 X162.527 Y134.169
G0 X162.516 Y136.469
G0 X127.761 Y140.515
G0 X127.831 Y140.585
;TYPE:WALL-INNER
G1 F600 E18.68511
G1 F900 X127.831 Y140.835 E18.69341
G1 X127.831 Y142.372 E18.74449
G1 X128.083 Y144.311 E18.80947
G1 X128.723 Y146.778 E18.89417
G1 X129.596 Y149.297 E18.98276
G1 X130.584 Y151.432 E19.06094
G1 X134.429 Y156.277 E19.26649
G1 X139.596 Y159.309 E19.46558
G1 X140.807 Y159.696 E19.50783
G1 X142.026 Y159.918 E19.54901
G1 X143.48 Y160.001 E19.5974
G1 X145.357 Y159.971 E19.65979
G1 X147.335 Y159.891 E19.72558
G1 X148.819 Y159.703 E19.77529
G1 X150.132 Y159.324 E19.8207
G1 X151.615 Y158.683 E19.87439
G1 X154.937 Y156.532 E20.00591
G1 X157.799 Y153.507 E20.1443
G1 X160.088 Y149.761 E20.29019
G1 X161.711 Y145.448 E20.44333
G1 X162.016 Y144.333 E20.48174
G1 X162.259 Y143.333 E20.51594
G1 X162.42 Y142.532 E20.54309
G1 X162.506 Y141.887 E20.56472
G1 X162.263 Y141.227 E20.58809
G1 X161.565 Y140.896 E20.61376
G1 X160.692 Y140.761 E20.64312
G1 X159.34 Y140.679 E20.68813
G1 X157.282 Y140.629 E20.75654
G1 X154.345 Y140.602 E20.85415
G1 X150.359 Y140.59 E20.98661
G1 X128.081 Y140.585 E21.72695
G1 X127.831 Y140.585 E21.73233
G0 F2625 X127.761 Y140.515
G0 X162.558 Y136.511
G0 X162.488 Y136.441
G1 F900 X162.488 Y134.171 E21.80777
G1 X162.246 Y131.871 E21.88462
G1 X161.619 Y129.124 E21.97826
G1 X160.729 Y126.352 E22.07501
G1 X159.676 Y123.924 E22.16296
G1 X156.314 Y119.342 E22.35182
G1 X151.994 Y116.242 E22.52852
G1 X151.138 Y115.845 E22.55988
G1 X150.44 Y115.552 E22.58503
G1 X149.766 Y115.33 E22.60861
G1 X149.06 Y115.177 E22.63262
G1 X148.278 Y115.086 E22.65878
G1 X147.358 Y115.037 E22.6894
G1 X146.227 Y115.018 E22.72699
G1 X144.802 Y115.013 E22.77435
G1 X142.437 Y115.045 E22.85295
G1 X140.75 Y115.174 E22.90917
G1 X139.424 Y115.44 E22.95412
G1 X138.15 Y115.887 E22.99898
G1 X135.046 Y117.593 E23.11669
G1 X132.337 Y120.011 E23.23736
G1 X130.178 Y122.964 E23.35893
G1 X128.725 Y126.257 E23.47854
G1 X128.208 Y127.887 E23.53537
G1 X123.246 Y127.887 E23.70026
G1 X123.245 Y127.887 E23.7003
G1 X122.922 Y127.887 E23.71103
G1 X123.004 Y127.574 E23.71753
G1 X123.199 Y126.838 E23.74283
G1 X124.148 Y123.988 E23.84266
G1 X125.506 Y121.117 E23.9482
G1 X127.121 Y118.503 E24.05031
G1 X128.836 Y116.397 E24.14057
G1 X131.507 Y114.136 E24.25686
G1 X134.436 Y112.475 E24.36876
G1 X137.784 Y111.354 E24.48609
G1 X141.703 Y110.726 E24.61799
G1 X146.414 Y110.605 E24.7746
G1 X150.696 Y111.156 E24.91807
G1 X154.519 Y112.36 E25.05127
G1 X157.899 Y114.211 E25.17933
G1 X160.817 Y116.691 E25.30659
G1 X163.272 Y119.81 E25.4385
G1 X165.248 Y123.557 E25.57928
G1 X166.728 Y127.955 E25.73348
G1 X167.136 Y129.773 E25.7954
G1 X167.368 Y131.553 E25.85506
G1 X167.471 Y133.93 E25.93412
G1 X167.477 Y137.437 E26.05067
G1 X167.358 Y142.291 E26.21202
G1 X166.91 Y145.875 E26.33205
G1 X165.972 Y149.056 E26.44226
G1 X164.389 Y152.594 E26.57107
G1 X162.601 Y155.616 E26.68776
G1 X160.467 Y158.207 E26.79931
G1 X158.007 Y160.355 E26.90784
G1 X155.236 Y162.064 E27.01603
G1 X152.178 Y163.317 E27.12585
G1 X148.856 Y164.1 E27.23927
G1 X145.297 Y164.394 E27.35795
G1 X141.514 Y164.188 E27.48385
G1 X137.608 Y163.335 E27.61672
G1 X134.089 Y161.779 E27.74458
G1 X130.981 Y159.562 E27.87145
G1 X128.315 Y156.722 E28.0009
G1 X126.115 Y153.282 E28.1366
G1 X124.429 Y149.302 E28.28024
G1 X123.287 Y144.792 E28.43484
G1 X122.731 Y139.787 E28.60219
G1 X122.575 Y136.702 E28.70484
G1 X122.562 Y136.441 E28.71353
G1 X122.823 Y136.441 E28.71906
G1 X122.824 Y136.441 E28.71909
G1 X162.488 Y136.441 E30.03721
G0 F2625 X161.988 Y135.941
;TYPE:WALL-OUTER
G1 F900 X161.988 Y134.197 E30.09516
G1 X161.752 Y131.953 E30.17015
G1 X161.136 Y129.256 E30.26208
G1 X160.26 Y126.528 E30.3573
G1 X159.24 Y124.174 E30.44256
G1 X155.958 Y119.702 E30.6269
G1 X151.741 Y116.676 E30.79938
G1 X150.936 Y116.302 E30.82888
G1 X150.265 Y116.021 E30.85306
G1 X149.634 Y115.813 E30.87513
G1 X148.978 Y115.671 E30.89744
G1 X148.236 Y115.584 E30.92227
G1 X147.341 Y115.537 E30.95205
G1 X146.222 Y115.518 E30.98924
G1 X144.805 Y115.513 E31.03633
G1 X142.459 Y115.545 E31.1143
G1 X140.818 Y115.67 E31.16899
G1 X139.557 Y115.923 E31.21173
G1 X138.355 Y116.345 E31.25407
G1 X135.337 Y118.004 E31.36852
G1 X132.709 Y120.349 E31.48556
G1 X130.614 Y123.215 E31.60354
G1 X129.193 Y126.434 E31.72047
G1 X128.574 Y128.387 E31.78856
G1 X122.598 Y128.387 E31.98715
G1 X122.597 Y128.387 E31.98719
G1 X122.274 Y128.387 E31.99792
G1 X122.356 Y128.074 E32.00442
G1 X122.721 Y126.692 E32.05192
G1 X123.685 Y123.798 E32.15329
G1 X125.065 Y120.88 E32.26056
G1 X126.715 Y118.209 E32.36489
G1 X128.477 Y116.046 E32.4576
G1 X131.219 Y113.724 E32.57701
G1 X134.23 Y112.017 E32.69203
G1 X137.666 Y110.866 E32.81245
G1 X141.656 Y110.227 E32.94674
G1 X146.439 Y110.104 E33.10574
G1 X150.803 Y110.666 E33.25196
G1 X154.717 Y111.898 E33.38832
G1 X158.183 Y113.796 E33.51964
G1 X161.178 Y116.342 E33.65028
G1 X163.692 Y119.535 E33.78533
G1 X165.71 Y123.361 E33.92908
G1 X167.211 Y127.823 E34.08552
G1 X167.629 Y129.684 E34.14891
G1 X167.867 Y131.514 E34.21023
G1 X167.971 Y133.908 E34.28987
G1 X167.977 Y137.449 E34.40754
G1 X167.857 Y142.325 E34.56963
G1 X167.401 Y145.98 E34.69203
G1 X166.444 Y149.224 E34.80443
G1 X164.832 Y152.827 E34.9356
G1 X163.011 Y155.905 E35.05445
G1 X160.826 Y158.558 E35.16867
G1 X158.306 Y160.758 E35.27984
G1 X155.462 Y162.512 E35.39088
G1 X152.332 Y163.795 E35.50329
G1 X148.939 Y164.595 E35.61914
G1 X145.304 Y164.895 E35.74035
G1 X141.448 Y164.685 E35.86868
G1 X137.452 Y163.812 E36.00461
G1 X133.84 Y162.215 E36.13585
G1 X130.649 Y159.939 E36.26611
G1 X127.921 Y157.033 E36.39856
G1 X125.671 Y153.516 E36.53731
G1 X123.952 Y149.457 E36.6838
G1 X122.794 Y144.884 E36.84056
G1 X122.234 Y139.842 E37.00915
G1 X122.049 Y136.203 E37.13024
G1 X122.036 Y135.941 E37.13895
G1 X122.298 Y135.941 E37.14451
G1 X122.299 Y135.941 E37.14455
G1 X161.988 Y135.941 E38.46349
G0 F2625 X161.988 Y135.691
G0 X162.588 Y135.691
G0 X162.516 Y136.469
G0 X128.332 Y140.486
G0 X128.331 Y141.085
G1 F900 X128.331 Y141.335 E38.4718
G1 X128.331 Y142.34 E38.5052
G1 X128.575 Y144.216 E38.56806
G1 X129.202 Y146.633 E38.65104
