;Generated by Cura LulzBot Edition GCodeWriter Version: master
;FLAVOR:Marlin
;TIME:2120
;Filament used: 1.0881m
;Layer height: 0.25
;Generated with Cura_SteamEngine 3.2.32
M82 ;absolute extrusion mode
;This G-Code has been generated specifically for the LulzBot TAZ 5 with standard extruder
M75			 ; start GLCD timer
M140 S85    ; start bed heating up
G21                      ; set units to Millimetres
G90                      ; absolute positioning
M107                     ; disable fans
M82                      ; set extruder to absolute mode
G28 X0 Y0                ; home X and Y
G28 Z0                   ; home Z
G1 Z15.0 F175 ; move extruder up
M117 Heating...                     ; progress indicator message on LCD
M109 R240  ; wait for extruder to reach printing temp
M190 S85    ; wait for bed to reach printing temp
G92 E0                   ; set extruder position to 0
G1 F200 E0               ; prime the nozzle with filament
G92 E0                   ; re-set extruder position to 0
G1 F175       ; set travel speed
M203 X192 Y208 Z3        ; set limits on travel speed
M117 TAZ 5 Printing...   ; progress indicator message on LCD

M221 S100
;LAYER_COUNT:40
;LAYER:0
M107
G0 F2625 X117.699 Y99.712 Z0.424
;TYPE:SKIRT
G1 F900 X118.098 Y99.288 E0.01935
G1 X118.552 Y98.922 E0.03873
G1 X119.051 Y98.622 E0.05808
G1 X119.587 Y98.392 E0.07746
G1 X120.149 Y98.238 E0.09682
G1 X120.98 Y98.155 E0.12458
G1 X126.482 Y98.146 E0.30742
G1 X131.938 Y97.992 E0.48881
G1 X137.348 Y97.532 E0.66924
G1 X143.31 Y96.703 E0.86928
G1 X143.594 Y96.674 E0.87876
G1 X145.004 Y96.574 E0.92574
G1 X145.336 Y96.563 E0.93678
G1 X147.417 Y96.578 E1.00593
G1 X148.246 Y96.666 E1.03364
G1 X155.03 Y98.067 E1.26384
G1 X155.591 Y98.224 E1.2832
G1 X156.214 Y98.503 E1.30588
G1 X161.787 Y101.561 E1.51714
G1 X162.278 Y101.876 E1.53652
G1 X162.852 Y102.389 E1.56211
G1 X167.224 Y107.08 E1.7752
G1 X167.591 Y107.533 E1.79458
G1 X167.927 Y108.099 E1.81645
G1 X171.03 Y114.395 E2.04971
G1 X171.251 Y114.934 E2.06907
G1 X171.363 Y115.334 E2.08288
G1 X172.944 Y122.304 E2.32039
G1 X173.047 Y123.121 E2.34775
G1 X173.259 Y130.437 E2.59098
G1 X173.213 Y131.198 E2.61632
G1 X172.113 Y138.441 E2.85977
G1 X171.894 Y139.285 E2.88875
G1 X169.496 Y145.731 E3.11731
G1 X169.256 Y146.262 E3.13667
G1 X169.071 Y146.573 E3.1487
G1 X167.352 Y149.205 E3.25317
G1 X166.992 Y149.68 E3.27297
G1 X165.123 Y151.815 E3.36727
G1 X164.904 Y152.047 E3.37787
G1 X163.685 Y153.245 E3.43467
G1 X163.503 Y153.414 E3.44292
G1 X161.606 Y155.072 E3.52665
G1 X161.076 Y155.467 E3.54862
G1 X158.583 Y157.039 E3.64656
G1 X158.231 Y157.238 E3.66
G1 X155.204 Y158.765 E3.77266
G1 X150.463 Y161.423 E3.95329
G1 X145.892 Y164.337 E4.13343
G1 X141.507 Y167.495 E4.31301
G1 X137.281 Y170.917 E4.49372
G1 X133.264 Y174.565 E4.67404
G1 X130.619 Y177.194 E4.79798
G1 X130.179 Y177.576 E4.81734
G1 X129.69 Y177.893 E4.83671
G1 X129.163 Y178.141 E4.85606
G1 X128.607 Y178.315 E4.87542
G1 X128.032 Y178.41 E4.89479
G1 X127.623 Y178.43 E4.9084
G1 X120.987 Y178.43 E5.12893
G1 X120.406 Y178.39 E5.14828
G1 X119.835 Y178.271 E5.16766
G1 X119.286 Y178.075 E5.18704
G1 X118.77 Y177.806 E5.20637
G1 X118.294 Y177.468 E5.22577
G1 X117.87 Y177.069 E5.24512
G1 X117.504 Y176.615 E5.2645
G1 X117.204 Y176.116 E5.28385
G1 X116.974 Y175.58 E5.30323
G1 X116.82 Y175.018 E5.3226
G1 X116.737 Y174.18 E5.35058
G1 X116.737 Y102.405 E7.73581
G1 X116.777 Y101.824 E7.75516
G1 X116.896 Y101.253 E7.77455
G1 X117.092 Y100.704 E7.79392
G1 X117.361 Y100.188 E7.81326
G1 X117.699 Y99.712 E7.83266
G0 F2625 X118.194 Y99.903
G1 F900 X118.588 Y99.523 E7.85085
G1 X119.033 Y99.204 E7.86904
G1 X119.52 Y98.954 E7.88723
G1 X120.038 Y98.777 E7.90543
G1 X120.576 Y98.678 E7.9236
G1 X120.981 Y98.655 E7.93709
G1 X126.497 Y98.646 E8.12039
G1 X131.958 Y98.492 E8.30195
G1 X137.422 Y98.027 E8.48418
G1 X143.379 Y97.199 E8.68405
G1 X143.63 Y97.172 E8.69244
G1 X145.04 Y97.072 E8.73941
G1 X145.332 Y97.063 E8.74912
G1 X147.413 Y97.078 E8.81828
G1 X148.144 Y97.155 E8.8427
G1 X154.928 Y98.556 E9.07291
G1 X155.455 Y98.706 E9.09112
G1 X155.974 Y98.941 E9.11005
G1 X161.547 Y101.999 E9.3213
G1 X162.006 Y102.297 E9.33949
G1 X162.486 Y102.73 E9.36097
G1 X166.858 Y107.421 E9.57407
G1 X167.201 Y107.848 E9.59227
G1 X167.479 Y108.32 E9.61047
G1 X170.582 Y114.616 E9.84373
G1 X170.787 Y115.124 E9.86194
G1 X170.875 Y115.444 E9.87297
G1 X172.456 Y122.414 E10.11048
G1 X172.547 Y123.135 E10.13463
G1 X172.759 Y130.451 E10.37786
G1 X172.718 Y131.123 E10.40023
G1 X171.618 Y138.366 E10.64369
G1 X171.426 Y139.111 E10.66926
G1 X169.028 Y145.557 E10.89781
G1 X168.8 Y146.054 E10.91598
G1 X168.653 Y146.3 E10.92551
G1 X166.934 Y148.932 E11.02997
G1 X166.616 Y149.351 E11.04746
G1 X164.747 Y151.486 E11.14175
G1 X164.554 Y151.691 E11.15111
G1 X163.335 Y152.889 E11.20791
G1 X163.174 Y153.038 E11.2152
G1 X161.277 Y154.696 E11.29892
G1 X160.809 Y155.044 E11.3183
G1 X158.316 Y156.616 E11.41625
G1 X158.006 Y156.792 E11.42809
G1 X154.968 Y158.325 E11.54118
G1 X150.202 Y160.997 E11.72275
G1 X145.609 Y163.925 E11.90376
G1 X141.197 Y167.102 E12.08444
G1 X136.965 Y170.528 E12.26539
G1 X132.917 Y174.204 E12.4471
G1 X130.267 Y176.839 E12.57129
G1 X129.851 Y177.196 E12.58951
G1 X129.389 Y177.488 E12.60767
G1 X128.888 Y177.71 E12.62588
G1 X128.361 Y177.857 E12.64406
G1 X127.623 Y177.93 E12.66871
G1 X120.987 Y177.93 E12.88923
G1 X120.441 Y177.89 E12.90743
G1 X119.907 Y177.771 E12.92561
G1 X119.396 Y177.576 E12.94379
G1 X118.918 Y177.308 E12.962
G1 X118.485 Y176.973 E12.98019
G1 X118.105 Y176.579 E12.99838
G1 X117.786 Y176.134 E13.01658
G1 X117.536 Y175.647 E13.03477
G1 X117.359 Y175.129 E13.05296
G1 X117.26 Y174.591 E13.07114
G1 X117.237 Y174.18 E13.08482
G1 X117.237 Y102.405 E15.47004
G1 X117.277 Y101.859 E15.48824
G1 X117.396 Y101.325 E15.50642
G1 X117.591 Y100.814 E15.52459
G1 X117.859 Y100.336 E15.54281
G1 X118.194 Y99.903 E15.561
G0 F2625 X118.357 Y100.496
G1 F900 X118.687 Y100.109 E15.5779
G1 X119.074 Y99.777 E15.59485
G1 X119.509 Y99.511 E15.61179
G1 X119.979 Y99.315 E15.62871
G1 X120.474 Y99.196 E15.64563
G1 X120.982 Y99.155 E15.66257
G1 X126.474 Y99.146 E15.84508
G1 X132.016 Y98.989 E16.02932
G1 X137.456 Y98.527 E16.21076
G1 X143.447 Y97.694 E16.41176
G1 X143.665 Y97.671 E16.41905
G1 X145.075 Y97.571 E16.46602
G1 X145.328 Y97.563 E16.47444
G1 X147.409 Y97.578 E16.54359
G1 X148.043 Y97.645 E16.56478
G1 X154.827 Y99.046 E16.79498
G1 X155.317 Y99.188 E16.81194
G1 X155.733 Y99.38 E16.82716
G1 X161.306 Y102.438 E17.03841
G1 X161.733 Y102.717 E17.05536
G1 X162.121 Y103.071 E17.07282
G1 X166.493 Y107.762 E17.28592
G1 X166.81 Y108.161 E17.30285
G1 X167.03 Y108.541 E17.31744
G1 X170.133 Y114.837 E17.5507
G1 X170.387 Y115.555 E17.57601
G1 X171.968 Y122.525 E17.81352
G1 X172.048 Y123.15 E17.83446
G1 X172.26 Y130.466 E18.07769
G1 X172.224 Y131.048 E18.09707
G1 X171.124 Y138.291 E18.34053
G1 X170.957 Y138.936 E18.36267
G1 X168.559 Y145.382 E18.59123
G1 X168.234 Y146.026 E18.6152
G1 X166.515 Y148.658 E18.71967
G1 X166.239 Y149.022 E18.73485
G1 X164.37 Y151.157 E18.82914
G1 X164.203 Y151.334 E18.83723
G1 X162.984 Y152.532 E18.89403
G1 X162.845 Y152.661 E18.90033
G1 X160.948 Y154.319 E18.98406
G1 X160.542 Y154.621 E19.00087
G1 X158.049 Y156.193 E19.09881
G1 X157.78 Y156.345 E19.10908
G1 X154.748 Y157.875 E19.22194
G1 X149.953 Y160.563 E19.40462
G1 X145.321 Y163.516 E19.58717
G1 X140.898 Y166.701 E19.7683
G1 X136.64 Y170.149 E19.95038
G1 X132.571 Y173.844 E20.13303
G1 X129.914 Y176.485 E20.25753
G1 X129.526 Y176.815 E20.27446
G1 X129.091 Y177.08 E20.29138
G1 X128.62 Y177.273 E20.3083
G1 X128.124 Y177.391 E20.32524
G1 X127.623 Y177.43 E20.34194
G1 X120.987 Y177.43 E20.56247
G1 X120.479 Y177.39 E20.5794
G1 X119.984 Y177.271 E20.59632
G1 X119.513 Y177.076 E20.61326
G1 X119.078 Y176.81 E20.63021
G1 X118.691 Y176.48 E20.64711
G1 X118.359 Y176.093 E20.66405
G1 X118.093 Y175.658 E20.681
G1 X117.897 Y175.188 E20.69792
G1 X117.778 Y174.693 E20.71484
G1 X117.737 Y174.18 E20.73194
G1 X117.737 Y102.405 E23.11717
G1 X117.777 Y101.897 E23.1341
G1 X117.896 Y101.402 E23.15102
G1 X118.091 Y100.931 E23.16796
G1 X118.357 Y100.496 E23.1849
G1 F600 E22.1849
G0 F2625 X127.409 Y101.735
G0 X133.409 Y103.912
G0 X134.255 Y105.068
G0 X147.272 Y105.683
G0 X151.217 Y106.461
G0 X151.184 Y106.555
;TYPE:WALL-INNER
G1 F600 E23.1849
G1 F900 X147.269 Y105.722 E23.31792
G1 X142.979 Y105.852 E23.46055
G1 X139.789 Y106.59 E23.56936
G1 X136.903 Y107.855 E23.67408
G1 X134.344 Y109.621 E23.7774
G1 X132.14 Y111.86 E23.88181
G1 X130.313 Y114.54 E23.9896
G1 X128.882 Y117.628 E24.1027
G1 X127.863 Y121.095 E24.22279
G1 X127.268 Y124.917 E24.35133
G1 X127.126 Y129.544 E24.50517
G1 X127.548 Y133.856 E24.64915
G1 X128.514 Y137.809 E24.78438
G1 X129.994 Y141.349 E24.91189
G1 X131.976 Y144.421 E25.03338
G1 X134.438 Y146.968 E25.1511
G1 X137.346 Y148.923 E25.26755
G1 X140.667 Y150.227 E25.38612
G1 X143.018 Y150.644 E25.46546
G1 X145.687 Y150.742 E25.55422
G1 X148.358 Y150.54 E25.64324
G1 X150.728 Y150.044 E25.7237
G1 X153.486 Y148.868 E25.82334
G1 X155.942 Y147.163 E25.9227
G1 X158.073 Y144.978 E26.02413
G1 X159.847 Y142.354 E26.12938
G1 X161.256 Y139.341 E26.23992
G1 X162.284 Y135.969 E26.35707
G1 X162.911 Y132.282 E26.48136
G1 X163.123 Y128.305 E26.61371
G1 X162.747 Y123.029 E26.78948
G1 X161.673 Y118.33 E26.94967
G1 X159.937 Y114.265 E27.09656
G1 X157.583 Y110.9 E27.23303
G1 X154.643 Y108.303 E27.36339
G1 X151.184 Y106.555 E27.49218
G0 F2625 X151.217 Y106.461
G0 X147.272 Y105.683
G0 X142.974 Y105.813
G0 X139.777 Y106.553
G0 X136.884 Y107.821
G0 X134.319 Y109.591
G0 X132.11 Y111.835
G0 X130.279 Y114.521
G0 X128.845 Y117.614
G0 X127.824 Y121.087
G0 X127.229 Y124.914
G0 X127.19 Y126.226
G0 X126.804 Y144.02
G0 X126.882 Y144.081
G1 F900 X126.882 Y173.439 E28.46781
G1 X121.728 Y173.439 E28.63909
G1 X121.728 Y103.146 E30.97506
G1 X126.531 Y103.146 E31.13468
G1 X126.531 Y112.25 E31.43722
G1 X127.636 Y112.551 E31.47528
G1 X128.96 Y110.303 E31.56198
G1 X130.338 Y108.367 E31.64095
G1 X132.114 Y106.615 E31.72385
G1 X134.245 Y105.052 E31.81168
G1 X136.653 Y103.721 E31.90311
G1 X139.243 Y102.672 E31.99597
G1 X141.943 Y101.942 E32.08892
G1 X144.678 Y101.561 E32.18069
G1 X147.338 Y101.569 E32.26909
G1 X153.918 Y102.933 E32.4924
G1 X159.305 Y105.889 E32.6966
G1 X163.519 Y110.424 E32.90233
G1 X166.528 Y116.548 E33.12908
G1 X168.061 Y123.338 E33.36041
G1 X168.27 Y130.586 E33.60137
G1 X167.186 Y137.65 E33.83887
G1 X164.853 Y143.904 E34.06069
G1 X163.187 Y146.455 E34.16195
G1 X160.9 Y149.042 E34.2767
G1 X158.366 Y151.276 E34.38896
G1 X155.964 Y152.792 E34.48335
G1 X154.954 Y153.23 E34.51993
G1 X153.774 Y153.678 E34.56188
G1 X152.578 Y154.083 E34.60384
G1 X151.599 Y154.368 E34.63773
G1 X149.099 Y154.729 E34.72167
G1 X146.018 Y154.853 E34.82414
G1 X142.936 Y154.729 E34.92664
G1 X140.457 Y154.372 E35.00987
G1 X137.045 Y153.146 E35.13036
G1 X133.882 Y151.241 E35.25306
G1 X131.21 Y148.838 E35.37249
G1 X129.25 Y146.089 E35.48468
G1 X128.016 Y143.796 E35.57122
G1 X126.882 Y144.081 E35.61008
G0 F2625 X127.382 Y144.471
;TYPE:WALL-OUTER
G1 F900 X127.382 Y144.691 E35.61739
G1 X127.382 Y173.939 E36.58936
G1 X121.228 Y173.939 E36.79387
G1 X121.228 Y102.646 E39.16307
G1 X127.031 Y102.646 E39.35592
G1 X127.031 Y111.65 E39.65514
G1 X127.031 Y111.868 E39.66238
G1 X127.399 Y111.968 E39.67506
G1 X127.509 Y111.781 E39.68143
G1 X128.537 Y110.036 E39.74874
G1 X129.957 Y108.041 E39.83012
G1 X131.789 Y106.233 E39.91565
G1 X133.978 Y104.628 E40.00586
G1 X136.432 Y103.271 E40.09905
G1 X139.087 Y102.196 E40.19423
G1 X141.84 Y101.452 E40.289
G1 X144.646 Y101.061 E40.38315
G1 X147.391 Y101.069 E40.47438
G1 X154.092 Y102.458 E40.7018
G1 X159.615 Y105.489 E40.91116
G1 X163.936 Y110.139 E41.12211
G1 X167.003 Y116.381 E41.35323
G1 X168.56 Y123.275 E41.5881
G1 X168.771 Y130.615 E41.83212
G1 X167.672 Y137.776 E42.07288
G1 X165.301 Y144.133 E42.29836
G1 X163.585 Y146.76 E42.40263
G1 X161.254 Y149.397 E42.51959
G1 X158.667 Y151.678 E42.63421
G1 X156.198 Y153.236 E42.73123
G1 X155.153 Y153.689 E42.76908
G1 X153.934 Y154.152 E42.81241
G1 X152.734 Y154.558 E42.85451
G1 X151.705 Y154.858 E42.89013
G1 X149.142 Y155.228 E42.97619
G1 X146.018 Y155.354 E43.08009
G1 X142.893 Y155.228 E43.18402
G1 X140.334 Y154.859 E43.26994
G1 X136.832 Y153.601 E43.3936
G1 X133.582 Y151.644 E43.51968
G1 X130.835 Y149.174 E43.64244
G1 X128.825 Y146.353 E43.75755
G1 X127.864 Y144.569 E43.82489
G1 X127.76 Y144.376 E43.83139
G1 X127.382 Y144.471 E43.84434
G0 F2625 X127.382 Y144.691
G0 X127.382 Y144.721
G0 X126.782 Y144.721
G0 X127.229 Y124.914
G0 X127.824 Y121.087
G0 X128.845 Y117.614
G0 X130.279 Y114.521
G0 X132.11 Y111.835
G0 X134.319 Y109.591
G0 X136.884 Y107.821
G0 X139.777 Y106.553
G0 X142.974 Y105.813
G0 X147.272 Y105.683
G0 X151.141 Y106.445
G0 X151.016 Y107.031
G1 F900 X147.224 Y106.224 E43.97318
G1 X143.044 Y106.35 E44.11216
G1 X139.947 Y107.067 E44.2178
G1 X137.148 Y108.294 E44.31936
G1 X134.667 Y110.006 E44.41953
G1 X132.528 Y112.179 E44.52086
G1 X130.749 Y114.788 E44.6258
G1 X129.351 Y117.805 E44.7363
G1 X128.352 Y121.204 E44.85403
G1 X127.767 Y124.963 E44.98046
G1 X127.627 Y129.527 E45.1322
G1 X128.042 Y133.772 E45.27394
G1 X128.99 Y137.652 E45.40667
G1 X130.438 Y141.115 E45.53141
G1 X132.37 Y144.109 E45.64983
G1 X134.761 Y146.583 E45.76416
G1 X137.58 Y148.478 E45.87704
G1 X140.803 Y149.743 E45.9921
G1 X143.071 Y150.146 E46.06866
G1 X145.677 Y150.241 E46.15532
G1 X148.288 Y150.044 E46.24233
G1 X150.577 Y149.565 E46.32005
G1 X153.243 Y148.428 E46.41636
G1 X155.618 Y146.78 E46.51243
G1 X157.684 Y144.661 E46.61078
G1 X159.411 Y142.107 E46.71324
G1 X160.788 Y139.161 E46.8213
G1 X161.796 Y135.854 E46.93619
G1 X162.413 Y132.227 E47.05846
G1 X162.622 Y128.309 E47.18885
G1 X162.251 Y123.103 E47.36229
G1 X161.196 Y118.485 E47.51971
G1 X159.498 Y114.509 E47.66338
G1 X157.207 Y111.235 E47.79618
G1 X154.36 Y108.72 E47.92242
G1 X151.016 Y107.031 E48.04692
G0 F2625 X150.772 Y106.979
G0 X150.897 Y106.393
G0 X151.348 Y106.089
;TYPE:SKIN
G1 F900 X147.314 Y105.23 E48.18398
G1 X142.916 Y105.364 E48.3302
G1 X139.634 Y106.123 E48.44215
G1 X136.664 Y107.425 E48.54992
G1 X134.027 Y109.244 E48.65637
G1 X131.76 Y111.548 E48.76379
G1 X129.886 Y114.297 E48.87435
G1 X128.422 Y117.455 E48.99003
G1 X127.384 Y120.987 E49.11237
G1 X126.78 Y124.872 E49.24302
G1 X126.636 Y129.56 E49.39889
G1 X127.064 Y133.938 E49.54507
G1 X128.047 Y137.962 E49.68273
G1 X129.559 Y141.578 E49.81298
G1 X131.59 Y144.727 E49.9375
G1 X134.122 Y147.346 E50.05856
G1 X137.117 Y149.36 E50.1785
G1 X140.534 Y150.701 E50.30049
G1 X142.966 Y151.132 E50.38257
G1 X145.697 Y151.232 E50.47339
G1 X148.427 Y151.026 E50.56437
G1 X150.875 Y150.514 E50.64748
G1 X153.725 Y149.299 E50.75044
G1 X156.26 Y147.539 E50.85299
G1 X158.455 Y145.289 E50.95745
G1 X160.274 Y142.597 E51.06542
G1 X161.715 Y139.517 E51.17842
G1 X162.762 Y136.082 E51.29776
G1 X163.399 Y132.337 E51.424
G1 X163.613 Y128.301 E51.55832
G1 X163.233 Y122.957 E51.73636
G1 X162.141 Y118.178 E51.89926
G1 X160.368 Y114.026 E52.0493
G1 X157.951 Y110.571 E52.18942
G1 X154.92 Y107.894 E52.32381
G1 X151.348 Y106.089 E52.45681
G0 F2625 X153.75 Y103.399
G1 F900 X158.999 Y106.279 E52.65577
G1 X163.113 Y110.706 E52.85661
G1 X166.062 Y116.709 E53.07887
G1 X167.573 Y123.399 E53.30679
G1 X167.778 Y130.559 E53.54483
G1 X166.71 Y137.525 E53.77903
G1 X164.413 Y143.682 E53.99742
G1 X162.798 Y146.155 E54.09557
G1 X160.553 Y148.694 E54.2082
G1 X158.067 Y150.886 E54.31834
G1 X155.735 Y152.358 E54.40999
G1 X154.795 Y152.766 E54.44404
G1 X153.607 Y153.217 E54.48627
G1 X152.425 Y153.617 E54.52774
G1 X151.498 Y153.888 E54.55983
G1 X149.058 Y154.24 E54.64176
G1 X146.018 Y154.363 E54.74287
G1 X142.977 Y154.24 E54.84401
G1 X140.576 Y153.894 E54.92462
G1 X137.258 Y152.702 E55.04179
G1 X134.174 Y150.845 E55.16142
G1 X131.577 Y148.509 E55.2775
G1 X129.665 Y145.828 E55.38693
G1 X128.267 Y143.228 E55.48503
G1 X126.392 Y143.699 E55.54928
G1 X126.392 Y172.949 E56.52131
G1 X122.218 Y172.949 E56.66002
G1 X122.218 Y103.636 E58.96343
G1 X126.041 Y103.636 E59.09048
G1 X126.041 Y112.624 E59.38917
G1 X127.869 Y113.122 E59.45213
G1 X129.366 Y110.579 E59.55019
G1 X130.712 Y108.687 E59.62736
