;Generated by Cura LulzBot Edition GCodeWriter Version: master
;FLAVOR:Marlin
;TIME:3195
;Filament used: 1.96139m
;Layer height: 0.25
;Generated with Cura_SteamEngine 3.2.32
M82 ;absolute extrusion mode
;This G-Code has been generated specifically for the LulzBot TAZ 5 with standard extruder
M75			 ; start GLCD timer
M140 S85    ; start bed heating up
G21                      ; set units to Millimetres
G90                      ; absolute positioning
M107                     ; disable fans
M82                      ; set extruder to absolute mode
G28 X0 Y0                ; home X and Y
G28 Z0                   ; home Z
G1 Z15.0 F175 ; move extruder up
M117 Heating...                     ; progress indicator message on LCD
M109 R240  ; wait for extruder to reach printing temp
M190 S85    ; wait for bed to reach printing temp
G92 E0                   ; set extruder position to 0
G1 F200 E0               ; prime the nozzle with filament
G92 E0                   ; re-set extruder position to 0
G1 F175       ; set travel speed
M203 X192 Y208 Z3        ; set limits on travel speed
M117 TAZ 5 Printing...   ; progress indicator message on LCD

M221 S100
;LAYER_COUNT:40
;LAYER:0
M107
G0 F2625 X114.437 Y98.788 Z0.424
;TYPE:SKIRT
G1 F900 X114.836 Y98.363 E0.01937
G1 X115.289 Y97.997 E0.03873
G1 X115.789 Y97.697 E0.0581
G1 X116.324 Y97.467 E0.07746
G1 X116.886 Y97.314 E0.09681
G1 X117.725 Y97.23 E0.12483
G1 X172.275 Y97.231 E1.93764
G1 X172.856 Y97.271 E1.95699
G1 X173.427 Y97.39 E1.97637
G1 X173.976 Y97.586 E1.99575
G1 X174.493 Y97.855 E2.01511
G1 X174.968 Y98.193 E2.03449
G1 X175.392 Y98.592 E2.05384
G1 X175.758 Y99.046 E2.07322
G1 X176.058 Y99.545 E2.09256
G1 X176.288 Y100.081 E2.11195
G1 X176.442 Y100.643 E2.13131
G1 X176.525 Y101.481 E2.1593
G1 X176.525 Y173.52 E4.5533
G1 X176.485 Y174.101 E4.57265
G1 X176.366 Y174.672 E4.59203
G1 X176.17 Y175.221 E4.6114
G1 X175.901 Y175.737 E4.63074
G1 X175.563 Y176.213 E4.65014
G1 X175.164 Y176.637 E4.66949
G1 X174.71 Y177.003 E4.68887
G1 X174.211 Y177.303 E4.70822
G1 X173.675 Y177.533 E4.7276
G1 X173.113 Y177.687 E4.74697
G1 X172.275 Y177.77 E4.77495
G1 X118.425 Y177.77 E6.56449
G1 X117.844 Y177.73 E6.58385
G1 X117.273 Y177.611 E6.60323
G1 X116.724 Y177.415 E6.6226
G1 X116.208 Y177.146 E6.64194
G1 X115.732 Y176.808 E6.66134
G1 X115.308 Y176.409 E6.68069
G1 X114.942 Y175.955 E6.70007
G1 X114.642 Y175.456 E6.71942
G1 X114.412 Y174.92 E6.7388
G1 X114.258 Y174.358 E6.75817
G1 X114.175 Y173.519 E6.78618
G1 X114.177 Y159.888 E7.23917
G1 X114.258 Y159.061 E7.26678
G1 X114.762 Y156.525 E7.35271
G1 X115.604 Y151.14 E7.53384
G1 X116.135 Y145.763 E7.71339
G1 X116.361 Y140.363 E7.893
G1 X116.282 Y134.922 E8.07384
G1 X115.896 Y129.53 E8.25348
G1 X115.207 Y124.165 E8.43324
G1 X114.211 Y118.822 E8.61386
G1 X113.582 Y116.057 E8.70809
G1 X113.492 Y115.481 E8.72746
G1 X113.476 Y115.114 E8.73967
G1 X113.475 Y101.48 E9.19276
G1 X113.515 Y100.899 E9.21211
G1 X113.634 Y100.328 E9.23149
G1 X113.83 Y99.78 E9.25083
G1 X114.099 Y99.263 E9.2702
G1 X114.437 Y98.788 E9.28957
G0 F2625 X114.932 Y98.978
G1 F900 X115.326 Y98.598 E9.30777
G1 X115.771 Y98.28 E9.32594
G1 X116.257 Y98.029 E9.34412
G1 X116.775 Y97.852 E9.36231
G1 X117.314 Y97.753 E9.38052
G1 X117.725 Y97.73 E9.3942
G1 X172.275 Y97.731 E11.20701
G1 X172.821 Y97.771 E11.2252
G1 X173.355 Y97.89 E11.24338
G1 X173.866 Y98.085 E11.26156
G1 X174.344 Y98.353 E11.27977
G1 X174.777 Y98.688 E11.29796
G1 X175.157 Y99.082 E11.31615
G1 X175.476 Y99.527 E11.33435
G1 X175.726 Y100.014 E11.35254
G1 X175.903 Y100.532 E11.37073
G1 X176.002 Y101.07 E11.38891
G1 X176.025 Y101.481 E11.40259
G1 X176.025 Y173.52 E13.79659
G1 X175.985 Y174.066 E13.81478
G1 X175.866 Y174.6 E13.83296
G1 X175.671 Y175.111 E13.85114
G1 X175.403 Y175.589 E13.86935
G1 X175.068 Y176.022 E13.88754
G1 X174.674 Y176.402 E13.90573
G1 X174.229 Y176.721 E13.92393
G1 X173.742 Y176.971 E13.94212
G1 X173.224 Y177.148 E13.96031
G1 X172.686 Y177.247 E13.97849
G1 X172.275 Y177.27 E13.99217
G1 X118.425 Y177.27 E15.78171
G1 X117.879 Y177.23 E15.79991
G1 X117.345 Y177.111 E15.81809
G1 X116.834 Y176.916 E15.83626
G1 X116.356 Y176.648 E15.85448
G1 X115.923 Y176.313 E15.87267
G1 X115.543 Y175.919 E15.89086
G1 X115.224 Y175.474 E15.90905
G1 X114.974 Y174.987 E15.92725
G1 X114.797 Y174.469 E15.94544
G1 X114.698 Y173.931 E15.96362
G1 X114.675 Y173.519 E15.97733
G1 X114.677 Y159.888 E16.43032
G1 X114.749 Y159.158 E16.45469
G1 X115.253 Y156.622 E16.54062
G1 X116.098 Y151.216 E16.72245
G1 X116.633 Y145.797 E16.90341
G1 X116.861 Y140.359 E17.08428
G1 X116.781 Y134.897 E17.26582
G1 X116.395 Y129.483 E17.44619
G1 X115.7 Y124.08 E17.62722
G1 X114.706 Y118.747 E17.8075
G1 X114.069 Y115.946 E17.90296
G1 X113.987 Y115.405 E17.92114
G1 X113.976 Y115.114 E17.93082
G1 X113.975 Y101.48 E18.38391
G1 X114.015 Y100.934 E18.4021
G1 X114.134 Y100.4 E18.42028
G1 X114.329 Y99.889 E18.43846
G1 X114.597 Y99.411 E18.45667
G1 X114.932 Y98.978 E18.47486
G0 F2625 X115.094 Y99.571
G1 F900 X115.425 Y99.184 E18.49179
G1 X115.812 Y98.853 E18.50871
G1 X116.246 Y98.586 E18.52564
G1 X116.717 Y98.39 E18.5426
G1 X117.212 Y98.271 E18.55951
G1 X117.725 Y98.23 E18.57662
G1 X172.275 Y98.231 E20.38942
G1 X172.783 Y98.271 E20.40635
G1 X173.278 Y98.39 E20.42327
G1 X173.749 Y98.585 E20.44021
G1 X174.184 Y98.851 E20.45716
G1 X174.571 Y99.181 E20.47406
G1 X174.903 Y99.568 E20.49101
G1 X175.169 Y100.003 E20.50795
G1 X175.365 Y100.473 E20.52487
G1 X175.484 Y100.968 E20.54179
G1 X175.525 Y101.481 E20.55889
G1 X175.525 Y173.52 E22.95289
G1 X175.485 Y174.028 E22.96983
G1 X175.366 Y174.523 E22.98674
G1 X175.171 Y174.994 E23.00369
G1 X174.905 Y175.429 E23.02063
G1 X174.575 Y175.816 E23.03753
G1 X174.188 Y176.148 E23.05448
G1 X173.753 Y176.414 E23.07142
G1 X173.283 Y176.61 E23.08834
G1 X172.788 Y176.729 E23.10526
G1 X172.275 Y176.77 E23.12236
G1 X118.425 Y176.77 E24.91191
G1 X117.917 Y176.73 E24.92884
G1 X117.422 Y176.611 E24.94576
G1 X116.951 Y176.416 E24.9627
G1 X116.516 Y176.15 E24.97964
G1 X116.129 Y175.82 E24.99655
G1 X115.797 Y175.433 E25.01349
G1 X115.531 Y174.998 E25.03044
G1 X115.335 Y174.528 E25.04736
G1 X115.216 Y174.033 E25.06428
G1 X115.175 Y173.52 E25.08138
G1 X115.177 Y159.889 E25.53436
G1 X115.239 Y159.256 E25.5555
G1 X115.746 Y156.703 E25.642
G1 X116.595 Y151.271 E25.82471
G1 X117.133 Y145.832 E26.00634
G1 X117.362 Y140.373 E26.18791
G1 X117.281 Y134.89 E26.37014
G1 X116.89 Y129.418 E26.55245
G1 X116.196 Y124.015 E26.73348
G1 X115.19 Y118.618 E26.91592
G1 X114.557 Y115.835 E27.01077
G1 X114.476 Y115.114 E27.03488
G1 X114.475 Y101.48 E27.48796
G1 X114.515 Y100.972 E27.5049
G1 X114.634 Y100.477 E27.52181
G1 X114.828 Y100.006 E27.53874
G1 X115.094 Y99.571 E27.55569
G1 F600 E26.55569
G0 F2625 X117.051 Y102.235
G0 X118.48 Y102.235
G0 X156.971 Y114.334
G0 X157.013 Y160.708
G0 X156.943 Y160.638
;TYPE:WALL-INNER
G1 F600 E27.55569
G1 F900 X156.943 Y144.095 E28.10544
G1 X122.314 Y144.095 E29.25623
G1 X122.314 Y133.003 E29.62484
G1 X156.943 Y133.003 E30.77563
G1 X156.943 Y114.362 E31.39511
G1 X118.466 Y114.362 E32.67378
G1 X118.466 Y102.221 E33.07725
G1 X171.534 Y102.221 E34.8408
G1 X171.534 Y172.779 E37.18558
G1 X119.166 Y172.779 E38.92588
G1 X119.166 Y160.638 E39.32935
G1 X156.943 Y160.638 E40.58475
G0 F2625 X156.443 Y160.138
;TYPE:WALL-OUTER
G1 F900 X156.443 Y144.595 E41.10128
G1 X121.814 Y144.595 E42.25207
G1 X121.814 Y132.503 E42.65391
G1 X156.443 Y132.503 E43.8047
G1 X156.443 Y114.862 E44.39094
G1 X117.966 Y114.862 E45.66961
G1 X117.966 Y101.721 E46.10631
G1 X172.034 Y101.721 E47.9031
G1 X172.034 Y173.279 E50.28111
G1 X118.666 Y173.279 E52.05464
G1 X118.666 Y160.138 E52.49134
G1 X156.443 Y160.138 E53.74674
G0 F2625 X156.443 Y159.888
G0 X157.043 Y159.888
G0 X157.433 Y161.128
;TYPE:SKIN
G1 F900 X157.433 Y143.605 E54.32907
G1 X122.804 Y143.605 E55.47986
G1 X122.804 Y133.493 E55.8159
G1 X157.433 Y133.493 E56.96669
G1 X157.433 Y113.872 E57.61873
G1 X118.956 Y113.872 E58.8974
G1 X118.956 Y102.711 E59.2683
G1 X171.044 Y102.711 E60.99929
G1 X171.044 Y172.289 E63.31151
G1 X119.656 Y172.289 E65.01923
G1 X119.656 Y161.128 E65.39013
G1 X157.433 Y161.128 E66.64554
G0 F2625 X120.444 Y172.063
G1 F900 X119.88 Y171.499 E66.67204
G0 F2625 X119.88 Y170.792
G1 F900 X121.151 Y172.063 E66.73178
G1 X121.239 Y172.151
G0 F2625 X121.858 Y172.063
G1 F900 X119.88 Y170.085 E66.82474
G1 X119.792 Y169.997
G0 F2625 X119.88 Y169.378
G1 F900 X122.565 Y172.063 E66.95093
G1 X122.653 Y172.151
G0 F2625 X123.272 Y172.063
G1 F900 X119.88 Y168.671 E67.11034
G1 X119.792 Y168.583
G0 F2625 X119.88 Y167.964
G1 F900 X123.979 Y172.063 E67.30298
G1 X124.067 Y172.151
G0 F2625 X124.686 Y172.063
G1 F900 X119.88 Y167.256 E67.52887
G1 X119.792 Y167.168
G0 F2625 X119.88 Y166.549
G1 F900 X125.394 Y172.063 E67.78802
G1 X125.482 Y172.151
G0 F2625 X126.101 Y172.063
G1 F900 X119.88 Y165.842 E68.08038
G1 X119.792 Y165.754
G0 F2625 X119.88 Y165.135
G1 F900 X126.808 Y172.063 E68.40598
G1 X126.896 Y172.151
G0 F2625 X127.515 Y172.063
G1 F900 X119.88 Y164.428 E68.7648
G1 X119.792 Y164.34
G0 F2625 X119.88 Y163.721
G1 F900 X128.222 Y172.063 E69.15685
G1 X128.31 Y172.151
G0 F2625 X128.929 Y172.063
G1 F900 X119.88 Y163.014 E69.58213
G1 X119.792 Y162.926
G0 F2625 X119.88 Y162.307
G1 F900 X129.636 Y172.063 E70.04063
G1 X129.724 Y172.151
G0 F2625 X130.343 Y172.063
G1 F900 X119.88 Y161.6 E70.53236
G1 X119.792 Y161.512
G0 F2625 X120.34 Y161.352
G1 F900 X131.05 Y172.063 E71.03573
G1 X131.138 Y172.151
G0 F2625 X131.758 Y172.063
G1 F900 X121.047 Y161.352 E71.53911
G1 X120.959 Y161.264
G0 F2625 X121.754 Y161.352
G1 F900 X132.465 Y172.063 E72.0425
G1 X132.553 Y172.151
G0 F2625 X133.172 Y172.063
G1 F900 X122.461 Y161.352 E72.54589
G1 X122.373 Y161.264
G0 F2625 X123.168 Y161.352
G1 F900 X133.879 Y172.063 E73.04927
G1 X133.967 Y172.151
G0 F2625 X134.586 Y172.063
G1 F900 X123.875 Y161.352 E73.55266
G1 X123.787 Y161.264
G0 F2625 X124.583 Y161.352
G1 F900 X135.293 Y172.063 E74.05602
G1 X135.381 Y172.151
G0 F2625 X136 Y172.063
G1 F900 X125.29 Y161.352 E74.55938
G1 X125.202 Y161.264
G0 F2625 X125.997 Y161.352
G1 F900 X136.707 Y172.063 E75.06275
G1 X136.795 Y172.151
G0 F2625 X137.414 Y172.063
G1 F900 X126.704 Y161.352 E75.56611
G1 X126.616 Y161.264
G0 F2625 X127.411 Y161.352
G1 F900 X138.121 Y172.063 E76.06947
G1 X138.209 Y172.151
G0 F2625 X138.829 Y172.063
G1 F900 X128.118 Y161.352 E76.57286
G1 X128.03 Y161.264
G0 F2625 X128.825 Y161.352
G1 F900 X139.536 Y172.063 E77.07624
G1 X139.624 Y172.151
G0 F2625 X140.243 Y172.063
G1 F900 X129.532 Y161.352 E77.57963
G1 X129.444 Y161.264
G0 F2625 X130.239 Y161.352
G1 F900 X140.95 Y172.063 E78.08302
G1 X141.038 Y172.151
G0 F2625 X141.657 Y172.063
G1 F900 X130.946 Y161.352 E78.5864
G1 X130.858 Y161.264
G0 F2625 X131.654 Y161.352
G1 F900 X142.364 Y172.063 E79.08977
G1 X142.452 Y172.151
G0 F2625 X143.071 Y172.063
G1 F900 X132.361 Y161.352 E79.59313
G1 X132.273 Y161.264
G0 F2625 X133.068 Y161.352
G1 F900 X143.778 Y172.063 E80.09649
G1 X143.866 Y172.151
G0 F2625 X144.485 Y172.063
G1 F900 X133.775 Y161.352 E80.59985
G1 X133.687 Y161.264
G0 F2625 X134.482 Y161.352
G1 F900 X145.193 Y172.063 E81.10324
G1 X145.281 Y172.151
G0 F2625 X145.9 Y172.063
G1 F900 X135.189 Y161.352 E81.60663
G1 X135.101 Y161.264
G0 F2625 X135.896 Y161.352
G1 F900 X146.607 Y172.063 E82.11001
G1 X146.695 Y172.151
G0 F2625 X147.314 Y172.063
G1 F900 X136.603 Y161.352 E82.6134
G1 X136.515 Y161.264
G0 F2625 X137.31 Y161.352
G1 F900 X148.021 Y172.063 E83.11678
G1 X148.109 Y172.151
G0 F2625 X148.728 Y172.063
G1 F900 X138.018 Y161.352 E83.62015
G1 X137.93 Y161.264
G0 F2625 X138.725 Y161.352
G1 F900 X149.435 Y172.063 E84.12351
G1 X149.523 Y172.151
G0 F2625 X150.142 Y172.063
G1 F900 X139.432 Y161.352 E84.62687
G1 X139.344 Y161.264
G0 F2625 X140.139 Y161.352
G1 F900 X150.849 Y172.063 E85.13023
G1 X150.937 Y172.151
G0 F2625 X151.557 Y172.063
G1 F900 X140.846 Y161.352 E85.63362
G1 X140.758 Y161.264
G0 F2625 X141.553 Y161.352
G1 F900 X152.264 Y172.063 E86.13701
G1 X152.352 Y172.151
G0 F2625 X152.971 Y172.063
G1 F900 X142.26 Y161.352 E86.64039
G1 X142.172 Y161.264
G0 F2625 X142.967 Y161.352
G1 F900 X153.678 Y172.063 E87.14378
G1 X153.766 Y172.151
G0 F2625 X154.385 Y172.063
G1 F900 X143.674 Y161.352 E87.64717
G1 X143.586 Y161.264
G0 F2625 X144.382 Y161.352
G1 F900 X155.092 Y172.063 E88.15053
G1 X155.18 Y172.151
G0 F2625 X155.799 Y172.063
G1 F900 X145.089 Y161.352 E88.65389
G1 X145.001 Y161.264
G0 F2625 X145.796 Y161.352
G1 F900 X156.506 Y172.063 E89.15725
G1 X156.594 Y172.151
G0 F2625 X157.213 Y172.063
G1 F900 X146.503 Y161.352 E89.66062
G1 X146.415 Y161.264
G0 F2625 X147.21 Y161.352
G1 F900 X157.92 Y172.063 E90.16398
G1 X158.008 Y172.151
G0 F2625 X158.628 Y172.063
G1 F900 X147.917 Y161.352 E90.66737
G1 X147.829 Y161.264
G0 F2625 X148.624 Y161.352
G1 F900 X159.335 Y172.063 E91.17075
G1 X159.423 Y172.151
G0 F2625 X160.042 Y172.063
G1 F900 X149.331 Y161.352 E91.67414
G1 X149.243 Y161.264
G0 F2625 X150.038 Y161.352
G1 F900 X160.749 Y172.063 E92.17752
G1 X160.837 Y172.151
G0 F2625 X161.456 Y172.063
G1 F900 X150.745 Y161.352 E92.68091
G1 X150.657 Y161.264
G0 F2625 X151.453 Y161.352
G1 F900 X162.163 Y172.063 E93.18427
G1 X162.251 Y172.151
G0 F2625 X162.87 Y172.063
G1 F900 X152.16 Y161.352 E93.68764
G1 X152.072 Y161.264
G0 F2625 X152.867 Y161.352
G1 F900 X163.577 Y172.063 E94.191
G1 X163.665 Y172.151
G0 F2625 X164.284 Y172.063
G1 F900 X153.574 Y161.352 E94.69436
G1 X153.486 Y161.264
G0 F2625 X154.281 Y161.352
G1 F900 X164.992 Y172.063 E95.19775
G1 X165.08 Y172.151
G0 F2625 X165.699 Y172.063
G1 F900 X154.988 Y161.352 E95.70113
G1 X154.9 Y161.264
G0 F2625 X155.695 Y161.352
G1 F900 X166.406 Y172.063 E96.20452
G1 X166.494 Y172.151
G0 F2625 X167.113 Y172.063
G1 F900 X156.402 Y161.352 E96.70791
G1 X156.314 Y161.264
G0 F2625 X157.109 Y161.352
G1 F900 X167.82 Y172.063 E97.21129
G1 X167.908 Y172.151
G0 F2625 X168.527 Y172.063
G1 F900 X157.657 Y161.193 E97.72215
G1 X157.569 Y161.105
G0 F2625 X157.657 Y160.486
G1 F900 X169.234 Y172.063 E98.26624
G1 X169.322 Y172.151
G0 F2625 X169.941 Y172.063
G1 F900 X157.657 Y159.779 E98.84355
G1 X157.569 Y159.691
G0 F2625 X157.657 Y159.072
G1 F900 X170.648 Y172.063 E99.45409
G1 X170.736 Y172.151
G0 F2625 X170.818 Y171.525
G1 F900 X157.657 Y158.365 E100.07259
G1 X157.569 Y158.277
G0 F2625 X157.657 Y157.657
G1 F900 X170.818 Y170.818 E100.69112
G1 X170.906 Y170.906
G0 F2625 X170.818 Y170.111
G1 F900 X157.657 Y156.95 E101.30965
G1 X157.569 Y156.862
G0 F2625 X157.657 Y156.243
G1 F900 X170.818 Y169.404 E101.92818
G1 X170.906 Y169.492
G0 F2625 X170.818 Y168.697
G1 F900 X157.657 Y155.536 E102.54671
G1 X157.569 Y155.448
G0 F2625 X157.657 Y154.829
G1 F900 X170.818 Y167.99 E103.16524
G1 X170.906 Y168.078
G0 F2625 X170.818 Y167.283
G1 F900 X157.657 Y154.122 E103.78377
G1 X157.569 Y154.034
G0 F2625 X157.657 Y153.415
G1 F900 X170.818 Y166.575 E104.40227
G1 X170.906 Y166.663
G0 F2625 X170.818 Y165.868
G1 F900 X157.657 Y152.708 E105.02078
G1 X157.569 Y152.62
G0 F2625 X157.657 Y152.001
G1 F900 X170.818 Y165.161 E105.63929
G1 X170.906 Y165.249
G0 F2625 X170.818 Y164.454
G1 F900 X157.657 Y151.293 E106.25781
G1 X157.569 Y151.205
G0 F2625 X157.657 Y150.586
G1 F900 X170.818 Y163.747 E106.87634
G1 X170.906 Y163.835
G0 F2625 X170.818 Y163.04
G1 F900 X157.657 Y149.879 E107.49487
G1 X157.569 Y149.791
G0 F2625 X157.657 Y149.172
G1 F900 X170.818 Y162.333 E108.1134
G1 X170.906 Y162.421
G0 F2625 X170.818 Y161.626
G1 F900 X157.657 Y148.465 E108.73193
G1 X157.569 Y148.377
G0 F2625 X157.657 Y147.758
G1 F900 X170.818 Y160.919 E109.35046
G1 X170.906 Y161.007
G0 F2625 X170.818 Y160.212
G1 F900 X157.657 Y147.051 E109.96899
G1 X157.569 Y146.963
G0 F2625 X157.657 Y146.344
G1 F900 X170.818 Y159.504 E110.58749
G1 X170.906 Y159.592
G0 F2625 X170.818 Y158.797
G1 F900 X157.657 Y145.637 E111.206
G1 X157.569 Y145.549
G0 F2625 X157.657 Y144.93
G1 F900 X170.818 Y158.09 E111.82451
G1 X170.906 Y158.178
G0 F2625 X170.818 Y157.383
G1 F900 X157.657 Y144.222 E112.44303
G1 X157.569 Y144.134
G0 F2625 X157.657 Y143.515
G1 F900 X170.818 Y156.676 E113.06156
G1 X170.906 Y156.764
G0 F2625 X170.818 Y155.969
G1 F900 X148.566 Y133.717 E114.10734
G1 X148.478 Y133.629
