;Generated by Cura LulzBot Edition GCodeWriter Version: master
;FLAVOR:Marlin
;TIME:1505
;Filament used: 0.799409m
;Layer height: 0.25
;Generated with Cura_SteamEngine 3.2.32
M82 ;absolute extrusion mode
;This G-Code has been generated specifically for the LulzBot TAZ 5 with standard extruder
M75			 ; start GLCD timer
M140 S85    ; start bed heating up
G21                      ; set units to Millimetres
G90                      ; absolute positioning
M107                     ; disable fans
M82                      ; set extruder to absolute mode
G28 X0 Y0                ; home X and Y
G28 Z0                   ; home Z
G1 Z15.0 F175 ; move extruder up
M117 Heating...                     ; progress indicator message on LCD
M109 R240  ; wait for extruder to reach printing temp
M190 S85    ; wait for bed to reach printing temp
G92 E0                   ; set extruder position to 0
G1 F200 E0               ; prime the nozzle with filament
G92 E0                   ; re-set extruder position to 0
G1 F175       ; set travel speed
M203 X192 Y208 Z3        ; set limits on travel speed
M117 TAZ 5 Printing...   ; progress indicator message on LCD

M221 S100
;LAYER_COUNT:40
;LAYER:0
M107
G0 F2625 X120.579 Y108.042 Z0.424
;TYPE:SKIRT
G1 F900 X120.978 Y107.618 E0.01935
G1 X121.432 Y107.252 E0.03873
G1 X121.931 Y106.951 E0.05809
G1 X122.467 Y106.722 E0.07746
G1 X123.029 Y106.568 E0.09683
G1 X123.861 Y106.485 E0.12461
G1 X129.839 Y106.476 E0.32328
G1 X130.297 Y106.5 E0.33852
G1 X135.549 Y107.062 E0.51405
G1 X141.004 Y107.446 E0.69578
G1 X146.428 Y107.519 E0.87604
G1 X151.814 Y107.289 E1.05519
G1 X158.992 Y106.511 E1.29513
G1 X159.449 Y106.486 E1.31034
G1 X166.133 Y106.485 E1.53246
G1 X166.715 Y106.525 E1.55185
G1 X167.285 Y106.644 E1.5712
G1 X167.834 Y106.84 E1.59057
G1 X168.351 Y107.109 E1.60994
G1 X168.826 Y107.446 E1.62929
G1 X169.251 Y107.846 E1.64869
G1 X169.617 Y108.299 E1.66804
G1 X169.917 Y108.798 E1.68739
G1 X170.146 Y109.334 E1.70676
G1 X170.3 Y109.896 E1.72613
G1 X170.384 Y110.735 E1.75415
G1 X170.384 Y162.868 E3.48663
G1 X170.344 Y163.449 E3.50598
G1 X170.225 Y164.02 E3.52537
G1 X170.029 Y164.569 E3.54474
G1 X169.76 Y165.085 E3.56408
G1 X169.422 Y165.561 E3.58348
G1 X169.023 Y165.985 E3.60283
G1 X168.569 Y166.351 E3.62221
G1 X168.07 Y166.651 E3.64155
G1 X167.534 Y166.881 E3.66094
G1 X166.972 Y167.035 E3.6803
G1 X166.142 Y167.118 E3.70802
G1 X161.362 Y167.127 E3.86687
G1 X155.906 Y167.281 E4.04826
G1 X150.478 Y167.743 E4.22929
G1 X146.458 Y168.284 E4.36409
G1 X146.225 Y168.309 E4.37188
G1 X144.513 Y168.444 E4.42895
G1 X144.284 Y168.456 E4.43657
G1 X142.028 Y168.512 E4.51156
G1 X141.662 Y168.505 E4.52373
G1 X138.106 Y168.286 E4.64212
G1 X137.628 Y168.229 E4.65812
G1 X134.749 Y167.721 E4.75527
G1 X134.018 Y167.524 E4.78043
G1 X130.511 Y166.231 E4.90465
G1 X129.727 Y165.846 E4.93367
G1 X127.307 Y164.332 E5.02854
G1 X126.835 Y163.99 E5.04791
G1 X126.506 Y163.684 E5.06284
G1 X124.416 Y161.523 E5.16274
G1 X124.041 Y161.077 E5.18211
G1 X123.824 Y160.751 E5.19512
G1 X122.498 Y158.536 E5.28091
G1 X122.306 Y158.177 E5.29444
G1 X121.382 Y156.232 E5.366
G1 X121.187 Y155.746 E5.3834
G1 X120.699 Y154.275 E5.43491
G1 X120.547 Y153.674 E5.45551
G1 X120.094 Y151.1 E5.54236
G1 X120.041 Y150.671 E5.55673
G1 X119.787 Y147.177 E5.67315
G1 X119.777 Y146.937 E5.68113
G1 X119.616 Y136.906 E6.01452
G1 X119.615 Y136.838 E6.01678
G1 X119.617 Y110.735 E6.88424
G1 X119.657 Y110.153 E6.90362
G1 X119.776 Y109.583 E6.92297
G1 X119.972 Y109.034 E6.94235
G1 X120.242 Y108.517 E6.96173
G1 X120.579 Y108.042 E6.98108
G0 F2625 X121.074 Y108.233
G1 F900 X121.468 Y107.853 E6.99927
G1 X121.913 Y107.534 E7.01747
G1 X122.4 Y107.284 E7.03566
G1 X122.918 Y107.107 E7.05385
G1 X123.456 Y107.008 E7.07203
G1 X123.861 Y106.985 E7.08551
G1 X129.839 Y106.976 E7.28417
G1 X130.244 Y106.997 E7.29765
G1 X135.516 Y107.561 E7.47385
G1 X140.98 Y107.945 E7.65588
G1 X146.425 Y108.02 E7.83684
G1 X151.858 Y107.787 E8.01756
G1 X159.046 Y107.008 E8.25783
G1 X159.449 Y106.986 E8.27124
G1 X166.133 Y106.985 E8.49336
G1 X166.679 Y107.025 E8.51156
G1 X167.214 Y107.144 E8.52977
G1 X167.725 Y107.339 E8.54795
G1 X168.202 Y107.607 E8.56613
G1 X168.636 Y107.941 E8.58433
G1 X169.016 Y108.335 E8.60252
G1 X169.334 Y108.78 E8.62069
G1 X169.585 Y109.267 E8.6389
G1 X169.762 Y109.785 E8.65709
G1 X169.861 Y110.323 E8.67527
G1 X169.884 Y110.735 E8.68898
G1 X169.884 Y162.868 E10.42147
G1 X169.844 Y163.414 E10.43966
G1 X169.725 Y163.948 E10.45784
G1 X169.53 Y164.459 E10.47602
G1 X169.262 Y164.937 E10.49423
G1 X168.927 Y165.37 E10.51242
G1 X168.533 Y165.75 E10.53061
G1 X168.088 Y166.069 E10.54881
G1 X167.601 Y166.319 E10.567
G1 X167.083 Y166.496 E10.58519
G1 X166.545 Y166.595 E10.60337
G1 X166.141 Y166.618 E10.61682
G1 X161.347 Y166.627 E10.77613
G1 X155.886 Y166.781 E10.95768
G1 X150.409 Y167.247 E11.14035
G1 X146.391 Y167.788 E11.27509
G1 X146.186 Y167.81 E11.28194
G1 X144.474 Y167.945 E11.33901
G1 X144.272 Y167.956 E11.34573
G1 X142.016 Y168.012 E11.42072
G1 X141.692 Y168.006 E11.43149
G1 X138.136 Y167.787 E11.54989
G1 X137.715 Y167.737 E11.56398
G1 X134.836 Y167.229 E11.66113
G1 X134.191 Y167.054 E11.68334
G1 X130.684 Y165.761 E11.80755
G1 X129.992 Y165.422 E11.83316
G1 X127.572 Y163.908 E11.92803
G1 X127.13 Y163.585 E11.94622
G1 X126.865 Y163.336 E11.9583
G1 X124.775 Y161.175 E12.05821
G1 X124.425 Y160.755 E12.07638
G1 X124.253 Y160.494 E12.08676
G1 X122.927 Y158.279 E12.17256
G1 X122.758 Y157.962 E12.18449
G1 X121.834 Y156.017 E12.25605
G1 X121.662 Y155.589 E12.27138
G1 X121.174 Y154.118 E12.32289
G1 X121.04 Y153.587 E12.34108
G1 X120.587 Y151.013 E12.42794
G1 X120.54 Y150.635 E12.4406
G1 X120.286 Y147.141 E12.55702
G1 X120.276 Y146.929 E12.56407
G1 X120.115 Y136.898 E12.89746
G1 X120.115 Y136.838 E12.89946
G1 X120.117 Y110.735 E13.76691
G1 X120.157 Y110.189 E13.7851
G1 X120.276 Y109.655 E13.80328
G1 X120.472 Y109.143 E13.8215
G1 X120.739 Y108.666 E13.83967
G1 X121.074 Y108.233 E13.85786
G0 F2625 X121.237 Y108.826
G1 F900 X121.567 Y108.438 E13.87479
G1 X121.955 Y108.107 E13.89174
G1 X122.389 Y107.841 E13.90865
G1 X122.859 Y107.645 E13.92558
G1 X123.355 Y107.526 E13.94253
G1 X123.862 Y107.485 E13.95943
G1 X129.84 Y107.476 E14.15809
G1 X130.191 Y107.494 E14.16977
G1 X135.483 Y108.06 E14.34664
G1 X140.956 Y108.445 E14.52897
G1 X146.439 Y108.52 E14.71119
G1 X151.888 Y108.286 E14.89244
G1 X159.1 Y107.505 E15.13351
G1 X159.45 Y107.486 E15.14516
G1 X166.134 Y107.485 E15.36728
G1 X166.641 Y107.525 E15.38418
G1 X167.137 Y107.644 E15.40114
G1 X167.608 Y107.838 E15.41806
G1 X168.042 Y108.104 E15.43498
G1 X168.43 Y108.435 E15.45193
G1 X168.761 Y108.822 E15.46885
G1 X169.028 Y109.256 E15.48579
G1 X169.224 Y109.727 E15.50274
G1 X169.343 Y110.222 E15.51966
G1 X169.384 Y110.735 E15.53676
G1 X169.384 Y162.868 E17.26924
G1 X169.344 Y163.376 E17.28618
G1 X169.225 Y163.871 E17.30309
G1 X169.03 Y164.342 E17.32004
G1 X168.764 Y164.777 E17.33698
G1 X168.434 Y165.164 E17.35388
G1 X168.047 Y165.496 E17.37083
G1 X167.612 Y165.762 E17.38777
G1 X167.142 Y165.958 E17.40469
G1 X166.647 Y166.077 E17.42161
G1 X166.14 Y166.118 E17.43852
G1 X161.37 Y166.127 E17.59703
G1 X155.828 Y166.284 E17.78128
G1 X150.384 Y166.746 E17.96284
G1 X146.325 Y167.293 E18.09895
G1 X146.146 Y167.312 E18.10493
G1 X144.434 Y167.447 E18.162
G1 X144.26 Y167.456 E18.16779
G1 X142.004 Y167.512 E18.24279
G1 X141.723 Y167.507 E18.25213
G1 X138.167 Y167.288 E18.37052
G1 X137.802 Y167.245 E18.38274
G1 X134.923 Y166.737 E18.47989
G1 X134.364 Y166.585 E18.49914
G1 X130.857 Y165.292 E18.62336
G1 X130.257 Y164.998 E18.64556
G1 X127.837 Y163.484 E18.74042
G1 X127.428 Y163.181 E18.75734
G1 X127.225 Y162.988 E18.76665
G1 X125.135 Y160.827 E18.86655
G1 X124.682 Y160.237 E18.89127
G1 X123.356 Y158.022 E18.97706
G1 X123.209 Y157.748 E18.9874
G1 X122.285 Y155.803 E19.05896
G1 X122.136 Y155.431 E19.07227
G1 X121.648 Y153.96 E19.12378
G1 X121.532 Y153.5 E19.13954
G1 X121.079 Y150.926 E19.2264
G1 X121.039 Y150.599 E19.23734
G1 X120.785 Y147.105 E19.35376
G1 X120.776 Y146.921 E19.35988
G1 X120.615 Y136.89 E19.69328
G1 X120.615 Y136.838 E19.69501
G1 X120.617 Y110.735 E20.56246
G1 X120.657 Y110.227 E20.57939
G1 X120.776 Y109.731 E20.59634
G1 X120.971 Y109.261 E20.61325
G1 X121.237 Y108.826 E20.6302
G1 F600 E19.6302
G0 F2625 X123.192 Y111.49
G0 X124.621 Y111.49
G0 X130.159 Y149.005
G0 X131.132 Y152.116
G0 X132.651 Y154.749
G0 X134.694 Y156.875
G0 X137.212 Y158.442
G0 X138.336 Y158.877
G0 X139.567 Y159.126
G0 X141.175 Y159.236
G0 X145.955 Y159.241
G0 X147.633 Y159.083
G0 X148.35 Y158.902
G0 X149.179 Y158.556
G0 X159.1 Y153.976
G0 X159.133 Y154.07
;TYPE:WALL-INNER
G1 F600 E20.6302
G1 F900 X157.642 Y156.303 E20.71943
G1 X155.761 Y158.544 E20.81666
G1 X153.429 Y160.451 E20.91677
G1 X150.724 Y161.968 E21.01983
G1 X147.738 Y163.029 E21.12514
G1 X145.149 Y163.429 E21.2122
G1 X141.863 Y163.523 E21.32144
G1 X138.495 Y163.315 E21.43358
G1 X135.679 Y162.819 E21.5286
G1 X132.543 Y161.711 E21.63913
G1 X130.031 Y160.15 E21.73742
G1 X128.036 Y158.084 E21.83286
G1 X126.466 Y155.42 E21.93562
G1 X125.886 Y154.077 E21.98423
G1 X125.442 Y152.727 E22.03146
G1 X125.117 Y151.131 E22.08559
G1 X124.885 Y148.977 E22.15758
G1 X124.735 Y146.048 E22.25505
G1 X124.652 Y142.039 E22.3883
G1 X124.614 Y136.732 E22.56467
G1 X124.607 Y129.858 E22.79311
G1 X124.607 Y111.476 E23.40398
G1 X129.802 Y111.476 E23.57662
G1 X129.803 Y129.113 E24.16273
G1 X129.83 Y137.047 E24.42639
G1 X129.906 Y143.017 E24.6248
G1 X130.03 Y146.993 E24.757
G1 X130.198 Y148.998 E24.82386
G1 X131.168 Y152.1 E24.93187
G1 X132.682 Y154.725 E25.03257
G1 X134.719 Y156.844 E25.13025
G1 X137.229 Y158.407 E25.22852
G1 X138.347 Y158.839 E25.26835
G1 X139.572 Y159.087 E25.30988
G1 X141.176 Y159.197 E25.36331
G1 X143.446 Y159.222 E25.43875
G1 X144.849 Y159.221 E25.48538
G1 X145.954 Y159.202 E25.5221
G1 X146.853 Y159.149 E25.55203
G1 X147.626 Y159.044 E25.57796
G1 X148.339 Y158.864 E25.60239
G1 X149.039 Y158.602 E25.62723
G1 X149.797 Y158.253 E25.65496
G1 X150.726 Y157.788 E25.68949
G1 X153.818 Y155.825 E25.8112
G1 X156.357 Y153.235 E25.93173
G1 X158.295 Y150.052 E26.05557
G1 X159.645 Y146.305 E26.18793
G1 X159.803 Y145.496 E26.21532
G1 X159.927 Y144.467 E26.24976
G1 X160.02 Y143.096 E26.29543
G1 X160.091 Y141.279 E26.35586
G1 X160.141 Y138.905 E26.43477
G1 X160.173 Y135.87 E26.53563
G1 X160.191 Y132.067 E26.66201
G1 X160.198 Y127.395 E26.81727
G1 X160.198 Y111.476 E27.34629
G1 X165.393 Y111.476 E27.51893
G1 X165.393 Y162.127 E29.20217
G1 X160.198 Y162.127 E29.37481
G1 X160.198 Y154.393 E29.63182
G1 X159.133 Y154.07 E29.66881
G0 F2625 X159.343 Y154.656
;TYPE:WALL-OUTER
G1 F900 X159.226 Y154.832 E29.67583
G1 X158.046 Y156.599 E29.74644
G1 X156.114 Y158.901 E29.84631
G1 X153.709 Y160.867 E29.94954
G1 X150.934 Y162.424 E30.05528
G1 X147.86 Y163.516 E30.16369
G1 X145.191 Y163.928 E30.25344
G1 X141.857 Y164.024 E30.36428
G1 X138.439 Y163.812 E30.47809
G1 X135.551 Y163.304 E30.57553
G1 X132.323 Y162.163 E30.68931
G1 X129.715 Y160.543 E30.79134
G1 X127.634 Y158.388 E30.8909
G1 X126.021 Y155.65 E30.9965
G1 X125.418 Y154.254 E31.04703
G1 X124.958 Y152.854 E31.09601
G1 X124.623 Y151.21 E31.15176
G1 X124.387 Y149.021 E31.22493
G1 X124.235 Y146.058 E31.32352
G1 X124.152 Y142.049 E31.45678
G1 X124.114 Y136.736 E31.63335
G1 X124.107 Y129.859 E31.86188
G1 X124.107 Y110.976 E32.4894
G1 X130.302 Y110.976 E32.69527
G1 X130.303 Y129.112 E33.29797
G1 X130.33 Y137.043 E33.56153
G1 X130.406 Y143.006 E33.75971
G1 X130.529 Y146.964 E33.89131
G1 X130.692 Y148.901 E33.95591
G1 X131.629 Y151.898 E34.06026
G1 X133.085 Y154.422 E34.15709
G1 X135.036 Y156.453 E34.25068
G1 X137.453 Y157.958 E34.3453
G1 X138.488 Y158.357 E34.38216
G1 X139.639 Y158.59 E34.42119
G1 X141.196 Y158.697 E34.47305
G1 X143.449 Y158.722 E34.54793
G1 X144.844 Y158.721 E34.59429
G1 X145.935 Y158.702 E34.63055
G1 X146.805 Y158.651 E34.65951
G1 X147.531 Y158.552 E34.68386
G1 X148.19 Y158.386 E34.70644
G1 X148.846 Y158.14 E34.72973
G1 X149.58 Y157.802 E34.75658
G1 X150.479 Y157.352 E34.78999
G1 X153.501 Y155.434 E34.90894
G1 X155.96 Y152.926 E35.02566
G1 X157.842 Y149.835 E35.14592
G1 X159.162 Y146.172 E35.27531
G1 X159.309 Y145.418 E35.30084
G1 X159.429 Y144.42 E35.33425
G1 X159.521 Y143.069 E35.37925
G1 X159.591 Y141.264 E35.43928
G1 X159.641 Y138.897 E35.51795
G1 X159.673 Y135.866 E35.61868
G1 X159.691 Y132.065 E35.745
G1 X159.698 Y127.394 E35.90023
G1 X159.698 Y110.976 E36.44583
G1 X165.893 Y110.976 E36.6517
G1 X165.893 Y162.627 E38.36817
G1 X159.698 Y162.627 E38.57404
G1 X159.698 Y154.976 E38.8283
G1 X159.698 Y154.764 E38.83447
G1 X159.343 Y154.656 E38.84681
G0 F2625 X159.226 Y154.832
G0 X159.205 Y154.864
G0 X158.706 Y154.53
G0 X158.927 Y153.496
;TYPE:SKIN
G1 F900 X157.246 Y156.013 E38.94739
G1 X155.418 Y158.191 E39.04188
G1 X153.147 Y160.048 E39.13937
G1 X150.526 Y161.518 E39.23924
G1 X147.615 Y162.552 E39.3419
G1 X145.108 Y162.939 E39.4262
G1 X141.879 Y163.033 E39.53355
G1 X138.54 Y162.826 E39.64472
G1 X135.806 Y162.344 E39.73698
G1 X132.757 Y161.266 E39.84445
G1 X130.344 Y159.768 E39.93884
G1 X128.427 Y157.782 E40.03056
G1 X126.904 Y155.197 E40.13027
G1 X126.342 Y153.897 E40.17734
G1 X125.917 Y152.604 E40.22257
G1 X125.603 Y151.066 E40.27473
G1 X125.373 Y148.924 E40.34632
G1 X125.225 Y146.023 E40.44286
G1 X125.142 Y142.029 E40.57561
G1 X125.104 Y136.732 E40.75165
G1 X125.097 Y129.858 E40.98008
G1 X125.097 Y111.966 E41.57467
G1 X129.312 Y111.966 E41.71474
G1 X129.313 Y129.113 E42.28457
G1 X129.34 Y137.051 E42.54837
G1 X129.416 Y143.027 E42.74698
G1 X129.54 Y147.021 E42.87977
G1 X129.714 Y149.092 E42.94884
G1 X130.717 Y152.298 E43.06047
G1 X132.288 Y155.021 E43.16494
G1 X134.408 Y157.228 E43.26664
G1 X137.009 Y158.848 E43.36847
G1 X138.21 Y159.311 E43.41125
G1 X139.507 Y159.573 E43.45522
G1 X141.156 Y159.687 E43.51015
G1 X143.444 Y159.712 E43.58619
G1 X144.853 Y159.711 E43.63301
G1 X145.973 Y159.692 E43.67024
G1 X146.9 Y159.637 E43.7011
G1 X147.72 Y159.526 E43.7286
G1 X148.486 Y159.332 E43.75486
G1 X149.227 Y159.055 E43.78115
G1 X150.009 Y158.694 E43.80977
G1 X150.967 Y158.215 E43.84536
G1 X154.128 Y156.209 E43.96978
G1 X156.747 Y153.538 E44.09409
G1 X158.74 Y150.264 E44.22146
G1 X160.119 Y146.436 E44.35668
G1 X160.287 Y145.572 E44.38593
G1 X160.415 Y144.513 E44.42138
G1 X160.51 Y143.122 E44.46771
G1 X160.581 Y141.294 E44.52851
G1 X160.631 Y138.913 E44.60765
G1 X160.663 Y135.874 E44.70865
G1 X160.681 Y132.069 E44.8351
G1 X160.688 Y127.397 E44.99036
G1 X160.688 Y111.966 E45.50316
G1 X164.903 Y111.966 E45.64323
G1 X164.903 Y161.637 E47.2939
G1 X160.688 Y161.637 E47.43397
G1 X160.688 Y154.03 E47.68677
G1 X158.927 Y153.496 E47.74792
G0 F2625 X149.814 Y158.289
G0 X148.35 Y158.902
G0 X147.633 Y159.083
G0 X146.275 Y159.21
G0 X130.788 Y159.779
G1 F900 X128.542 Y157.534 E47.85345
G1 X128.454 Y157.446
G0 F2625 X127.527 Y155.811
G1 F900 X132.651 Y160.935 E48.09426
G1 X132.739 Y161.023
G0 F2625 X133.827 Y161.404
G1 F900 X126.79 Y154.367 E48.42498
G1 X126.702 Y154.279
G0 F2625 X126.359 Y153.229
G1 F900 X134.92 Y161.79 E48.82732
G1 X135.008 Y161.878
G0 F2625 X135.982 Y162.145
G1 F900 X126.07 Y152.233 E49.29316
G1 X125.982 Y152.145
G0 F2625 X125.888 Y151.344
G1 F900 X136.841 Y162.297 E49.80792
G1 X136.929 Y162.385
G0 F2625 X137.7 Y162.449
G1 F900 X125.769 Y150.518 E50.36864
G1 X125.681 Y150.43
G0 F2625 X125.684 Y149.726
G1 F900 X138.559 Y162.601 E50.97373
G1 X138.647 Y162.689
G0 F2625 X139.312 Y162.647
G1 F900 X125.599 Y148.934 E51.6182
G1 X125.511 Y148.846
G0 F2625 X125.56 Y148.187
G1 F900 X131.532 Y154.159 E51.89887
G1 X131.62 Y154.247
G0 F2625 X130.566 Y152.486
G1 F900 X125.522 Y147.442 E52.13592
G1 X125.434 Y147.354
G0 F2625 X125.484 Y146.697
G1 F900 X130.206 Y151.419 E52.35784
G1 X130.294 Y151.507
G0 F2625 X129.884 Y150.391
G1 F900 X125.448 Y145.954 E52.56634
G1 X125.36 Y145.866
G0 F2625 X125.433 Y145.232
G1 F900 X129.563 Y149.362 E52.76044
G1 X129.651 Y149.45
G0 F2625 X129.441 Y148.533
G1 F900 X125.418 Y144.509 E52.94954
G1 X125.33 Y144.421
G0 F2625 X125.403 Y143.788
G1 F900 X129.376 Y147.761 E53.13626
G1 X129.464 Y147.849
G0 F2625 X129.314 Y146.991
G1 F900 X125.388 Y143.066 E53.32074
