;Generated by Cura LulzBot Edition GCodeWriter Version: master
;FLAVOR:Marlin
;TIME:2126
;Filament used: 1.09694m
;Layer height: 0.25
;Generated with Cura_SteamEngine 3.2.32
M82 ;absolute extrusion mode
;This G-Code has been generated specifically for the LulzBot TAZ 5 with standard extruder
M75			 ; start GLCD timer
M140 S85    ; start bed heating up
G21                      ; set units to Millimetres
G90                      ; absolute positioning
M107                     ; disable fans
M82                      ; set extruder to absolute mode
G28 X0 Y0                ; home X and Y
G28 Z0                   ; home Z
G1 Z15.0 F175 ; move extruder up
M117 Heating...                     ; progress indicator message on LCD
M109 R240  ; wait for extruder to reach printing temp
M190 S85    ; wait for bed to reach printing temp
G92 E0                   ; set extruder position to 0
G1 F200 E0               ; prime the nozzle with filament
G92 E0                   ; re-set extruder position to 0
G1 F175       ; set travel speed
M203 X192 Y208 Z3        ; set limits on travel speed
M117 TAZ 5 Printing...   ; progress indicator message on LCD

M221 S100
;LAYER_COUNT:40
;LAYER:0
M107
G0 F2625 X109.315 Y98.9 Z0.424
;TYPE:SKIRT
G1 F900 X109.731 Y98.492 E0.01936
G1 X110.198 Y98.143 E0.03874
G1 X110.709 Y97.863 E0.0581
G1 X111.314 Y97.636 E0.07958
G1 X111.818 Y97.49 E0.09701
G1 X112.388 Y97.366 E0.1164
G1 X112.875 Y97.324 E0.13264
G1 X115.512 Y97.246 E0.22031
G1 X115.746 Y97.245 E0.22809
G1 X120.293 Y97.361 E0.37924
G1 X121.096 Y97.459 E0.40613
G1 X127.652 Y98.897 E0.62918
G1 X130.258 Y99.337 E0.717
G1 X135.636 Y100.019 E0.89716
G1 X141.047 Y100.395 E1.07741
G1 X146.468 Y100.464 E1.25757
G1 X151.87 Y100.226 E1.43727
G1 X157.265 Y99.684 E1.61746
G1 X162.655 Y98.831 E1.79881
G1 X165.223 Y98.314 E1.88586
G1 X168.713 Y97.488 E2.00504
G1 X169.575 Y97.376 E2.03393
G1 X174.875 Y97.231 E2.21012
G1 X175.035 Y97.229 E2.21544
G1 X177.548 Y97.255 E2.29896
G1 X178.129 Y97.301 E2.31833
G1 X178.698 Y97.426 E2.33769
G1 X179.245 Y97.628 E2.35706
G1 X179.759 Y97.902 E2.37642
G1 X180.23 Y98.245 E2.39578
G1 X180.651 Y98.648 E2.41515
G1 X181.012 Y99.106 E2.43453
G1 X181.307 Y99.608 E2.45388
G1 X181.531 Y100.146 E2.47325
G1 X181.679 Y100.71 E2.49262
G1 X181.748 Y101.288 E2.51197
G1 X181.738 Y101.871 E2.53135
G1 X181.648 Y102.447 E2.55072
G1 X181.446 Y103.095 E2.57328
G1 X152.472 Y174.936 E5.14755
G1 X152.217 Y175.46 E5.16691
G1 X151.893 Y175.944 E5.18627
G1 X151.506 Y176.38 E5.20564
G1 X151.063 Y176.759 E5.22502
G1 X150.572 Y177.073 E5.24439
G1 X150.043 Y177.317 E5.26375
G1 X149.486 Y177.487 E5.2831
G1 X148.91 Y177.579 E5.30248
G1 X148.604 Y177.595 E5.31267
G1 X140.656 Y177.734 E5.57683
G1 X140.074 Y177.705 E5.5962
G1 X139.502 Y177.595 E5.61556
G1 X138.95 Y177.409 E5.63491
G1 X138.428 Y177.149 E5.65429
G1 X137.947 Y176.82 E5.67366
G1 X137.516 Y176.428 E5.69302
G1 X137.142 Y175.981 E5.71239
G1 X136.833 Y175.487 E5.73175
G1 X136.624 Y175.034 E5.74833
G1 X108.539 Y103.267 E8.30941
G1 X108.365 Y102.711 E8.32877
G1 X108.268 Y102.136 E8.34815
G1 X108.25 Y101.554 E8.3675
G1 X108.313 Y100.974 E8.38689
G1 X108.454 Y100.409 E8.40624
G1 X108.671 Y99.868 E8.42561
G1 X108.96 Y99.362 E8.44497
G1 X109.315 Y98.9 E8.46434
G0 F2625 X109.873 Y99.039
G1 F900 X110.291 Y98.686 E8.48252
G1 X110.756 Y98.397 E8.50071
G1 X111.454 Y98.116 E8.52572
G1 X111.958 Y97.97 E8.54315
G1 X112.493 Y97.857 E8.56133
G1 X112.89 Y97.824 E8.57456
G1 X115.527 Y97.746 E8.66224
G1 X115.734 Y97.745 E8.66912
G1 X120.281 Y97.861 E8.82027
G1 X120.989 Y97.947 E8.84397
G1 X127.567 Y99.39 E9.06777
G1 X130.182 Y99.832 E9.1559
G1 X135.591 Y100.517 E9.33709
G1 X141.023 Y100.894 E9.51804
G1 X146.483 Y100.964 E9.6995
G1 X151.906 Y100.726 E9.87989
G1 X157.322 Y100.181 E10.06079
G1 X162.733 Y99.325 E10.24284
G1 X165.35 Y98.798 E10.33156
G1 X168.828 Y97.975 E10.45033
G1 X169.588 Y97.875 E10.4758
G1 X174.888 Y97.73 E10.652
G1 X175.03 Y97.729 E10.65672
G1 X177.543 Y97.755 E10.74023
G1 X178.088 Y97.801 E10.75841
G1 X178.621 Y97.925 E10.77659
G1 X179.13 Y98.126 E10.79478
G1 X179.605 Y98.399 E10.81299
G1 X180.035 Y98.738 E10.83118
G1 X180.411 Y99.136 E10.84938
G1 X180.725 Y99.584 E10.86756
G1 X180.97 Y100.073 E10.88574
G1 X181.141 Y100.593 E10.90393
G1 X181.235 Y101.132 E10.92211
G1 X181.25 Y101.68 E10.94033
G1 X181.185 Y102.223 E10.9585
G1 X180.982 Y102.908 E10.98224
G1 X152.008 Y174.749 E13.55651
G1 X151.767 Y175.24 E13.57469
G1 X151.456 Y175.691 E13.5929
G1 X151.084 Y176.092 E13.61107
G1 X150.657 Y176.434 E13.62925
G1 X150.185 Y176.711 E13.64744
G1 X149.677 Y176.916 E13.66565
G1 X149.145 Y177.045 E13.68384
G1 X148.596 Y177.095 E13.70216
G1 X140.648 Y177.234 E13.96633
G1 X140.101 Y177.204 E13.98453
G1 X139.565 Y177.094 E14.00271
G1 X139.05 Y176.908 E14.02091
G1 X138.568 Y176.648 E14.03911
G1 X138.129 Y176.322 E14.05728
G1 X137.742 Y175.934 E14.07549
G1 X137.416 Y175.495 E14.09367
G1 X137.09 Y174.852 E14.11762
G1 X109.005 Y103.085 E16.6787
G1 X108.843 Y102.562 E16.6969
G1 X108.759 Y102.021 E16.71509
G1 X108.755 Y101.473 E16.7333
G1 X108.83 Y100.931 E16.75148
G1 X108.984 Y100.406 E16.76967
G1 X109.212 Y99.909 E16.78784
G1 X109.511 Y99.45 E16.80604
G1 X109.873 Y99.039 E16.82424
G0 F2625 X110.065 Y99.562
G1 F900 X110.432 Y99.208 E16.84119
G1 X110.85 Y98.916 E16.85813
G1 X111.308 Y98.693 E16.87506
G1 X111.593 Y98.596 E16.88507
G1 X112.097 Y98.45 E16.9025
G1 X112.596 Y98.347 E16.91944
G1 X112.905 Y98.323 E16.92974
G1 X115.542 Y98.245 E17.01741
G1 X115.721 Y98.245 E17.02335
G1 X120.268 Y98.361 E17.17451
G1 X120.881 Y98.435 E17.19503
G1 X127.474 Y99.881 E17.41934
G1 X130.107 Y100.326 E17.50808
G1 X135.549 Y101.015 E17.69037
G1 X140.999 Y101.394 E17.87192
G1 X146.481 Y101.464 E18.05411
G1 X151.943 Y101.224 E18.2358
G1 X157.397 Y100.676 E18.41796
G1 X162.817 Y99.818 E18.60032
G1 X165.443 Y99.289 E18.68934
G1 X168.943 Y98.461 E18.80886
G1 X169.602 Y98.375 E18.83095
G1 X174.902 Y98.23 E19.00714
G1 X175.025 Y98.229 E19.01123
G1 X177.538 Y98.255 E19.09475
G1 X178.045 Y98.3 E19.11166
G1 X178.539 Y98.424 E19.12859
G1 X179.008 Y98.624 E19.14553
G1 X179.44 Y98.894 E19.16246
G1 X179.824 Y99.229 E19.1794
G1 X180.151 Y99.62 E19.19634
G1 X180.413 Y100.057 E19.21327
G1 X180.604 Y100.529 E19.23019
G1 X180.718 Y101.026 E19.24713
G1 X180.754 Y101.534 E19.26406
G1 X180.709 Y102.041 E19.28097
G1 X180.518 Y102.721 E19.30445
G1 X151.544 Y174.562 E21.87872
G1 X151.317 Y175.018 E21.89565
G1 X151.022 Y175.433 E21.91257
G1 X150.665 Y175.797 E21.92951
G1 X150.256 Y176.1 E21.94642
G1 X149.804 Y176.336 E21.96337
G1 X149.321 Y176.498 E21.9803
G1 X148.587 Y176.596 E22.00491
G1 X140.639 Y176.735 E22.26908
G1 X140.13 Y176.703 E22.28602
G1 X139.633 Y176.593 E22.30294
G1 X139.159 Y176.407 E22.31986
G1 X138.72 Y176.148 E22.3368
G1 X138.326 Y175.825 E22.35373
G1 X137.988 Y175.443 E22.37068
G1 X137.714 Y175.014 E22.3876
G1 X137.555 Y174.669 E22.40022
G1 X109.47 Y102.902 E24.9613
G1 X109.323 Y102.415 E24.97821
G1 X109.253 Y101.91 E24.99515
G1 X109.263 Y101.401 E25.01207
G1 X109.352 Y100.899 E25.02901
G1 X109.518 Y100.418 E25.04592
G1 X109.758 Y99.968 E25.06287
G1 X110.065 Y99.562 E25.07978
G1 F600 E24.07978
G0 F2625 X113.39 Y100.868
G0 X113.517 Y102.288
G0 X128.368 Y124.66
G0 X128.424 Y124.578
;TYPE:WALL-INNER
G1 F600 E25.07978
G1 F900 X145.04 Y124.507 E25.63197
G1 X161.686 Y124.4 E26.18516
G1 X166.142 Y112.899 E26.59505
G1 X170.265 Y102.338 E26.97181
G1 X173.653 Y102.246 E27.08444
G1 X175.149 Y102.227 E27.13416
G1 X176.053 Y102.222 E27.1642
G1 X176.055 Y102.221 E27.16427
G1 X176.423 Y102.22 E27.1765
G1 X176.287 Y102.563 E27.18368
G1 X175.677 Y104.095 E27.23848
G1 X172.568 Y111.831 E27.51555
G1 X148.024 Y172.619 E29.6941
G1 X144.56 Y172.711 E29.80926
G1 X141.1 Y172.771 E29.92426
G1 X115.63 Y107.742 E32.24515
G1 X113.629 Y102.606 E32.42833
G1 X113.501 Y102.277 E32.44006
G1 X113.854 Y102.268 E32.447
G1 X113.855 Y102.267 E32.44704
G1 X114.733 Y102.241 E32.47624
G1 X116.244 Y102.246 E32.52645
G1 X119.671 Y102.338 E32.64038
G1 X121.165 Y106.075 E32.77412
G1 X125.541 Y117.206 E33.17158
G1 X128.424 Y124.578 E33.43464
G0 F2625 X128.368 Y124.66
G0 X160.077 Y129.155
G0 X159.995 Y129.211
G1 F900 X159.634 Y129.21 E33.44664
G1 X159.632 Y129.209 E33.44671
G1 X145.214 Y129.098 E33.92586
G1 X139.912 Y129.079 E34.10206
G1 X135.547 Y129.075 E34.24712
G1 X132.563 Y129.093 E34.34628
G1 X130.782 Y129.155 E34.40551
G1 X130.461 Y129.166 E34.41618
G1 X130.552 Y129.474 E34.42264
G1 X130.851 Y130.49 E34.45783
G1 X131.228 Y131.566 E34.49572
G1 X132.635 Y135.419 E34.63204
G1 X134.744 Y141.092 E34.83317
G1 X137.333 Y147.997 E35.07823
G1 X139.946 Y154.878 E35.32283
G1 X142.123 Y160.479 E35.52253
G1 X142.974 Y162.623 E35.59919
G1 X143.633 Y164.238 E35.65715
G1 X144.079 Y165.275 E35.69467
G1 X144.491 Y166.038 E35.72348
G1 X145.422 Y166.002 E35.75445
G1 X145.796 Y165.17 E35.78476
G1 X146.241 Y164.096 E35.82339
G1 X147.783 Y160.258 E35.96085
G1 X150.013 Y154.632 E36.16196
G1 X159.863 Y129.548 E37.05752
G1 X159.995 Y129.211 E37.06458
G0 F2625 X159.264 Y129.705
;TYPE:WALL-OUTER
G1 F900 X158.903 Y129.704 E37.07658
G1 X158.901 Y129.703 E37.07665
G1 X145.211 Y129.598 E37.53161
G1 X139.911 Y129.579 E37.70774
G1 X135.548 Y129.575 E37.85274
G1 X132.573 Y129.593 E37.9516
G1 X131.445 Y129.632 E37.98911
G1 X131.444 Y129.633 E37.98916
G1 X131.123 Y129.643 E37.99983
G1 X131.213 Y129.952 E38.00629
G1 X131.327 Y130.337 E38.01964
G1 X131.699 Y131.398 E38.057
G1 X133.104 Y135.246 E38.19313
G1 X135.212 Y140.917 E38.39419
G1 X137.801 Y147.821 E38.63923
G1 X139.148 Y151.383 E38.76578
G1 X140.413 Y154.698 E38.88369
G1 X142.588 Y160.296 E39.08327
G1 X143.438 Y162.436 E39.15979
G1 X144.094 Y164.045 E39.21754
G1 X144.529 Y165.057 E39.25414
G1 X144.692 Y165.358 E39.26552
G1 X144.783 Y165.526 E39.27187
G1 X145.093 Y165.514 E39.28218
G1 X145.171 Y165.34 E39.28852
G1 X145.337 Y164.972 E39.30193
G1 X145.778 Y163.907 E39.34024
G1 X147.319 Y160.073 E39.47756
G1 X149.548 Y154.449 E39.6786
G1 X159.132 Y130.042 E40.54998
G1 X159.264 Y129.705 E40.55704
G0 F2625 X159.014 Y129.705
G0 X159.018 Y129.104
G0 X128.402 Y124.611
G0 X128.206 Y124.295
G0 X128.764 Y124.077
G1 F900 X145.037 Y124.007 E41.09783
G1 X161.343 Y123.902 E41.63973
G1 X165.676 Y112.717 E42.03834
G1 X169.92 Y101.847 E42.42613
G1 X173.639 Y101.746 E42.54977
G1 X175.143 Y101.727 E42.59975
G1 X176.373 Y101.72 E42.64063
G1 X176.793 Y101.724 E42.65458
G1 X176.794 Y101.725 E42.65463
G1 X177.158 Y101.727 E42.66673
G1 X177.024 Y102.066 E42.67384
G1 X176.142 Y104.28 E42.75304
G1 X173.032 Y112.017 E43.03015
G1 X148.365 Y173.11 E45.21964
G1 X144.573 Y173.211 E45.3457
G1 X140.761 Y173.277 E45.4724
G1 X115.164 Y107.924 E47.80485
G1 X113.041 Y102.475 E47.99919
G1 X112.916 Y102.145 E48.01092
G1 X112.8 Y101.839 E48.02179
G1 X113.126 Y101.81 E48.02834
G1 X113.521 Y101.773 E48.04152
G1 X114.722 Y101.741 E48.08145
G1 X116.257 Y101.746 E48.13246
G1 X120.013 Y101.847 E48.25732
G1 X121.63 Y105.892 E48.40209
G1 X126.006 Y117.023 E48.79955
G1 X128.764 Y124.077 E49.05125
G0 F2625 X129.014 Y124.076
G0 X129.016 Y124.676
G0 X128.091 Y125.07
;TYPE:SKIN
G1 F900 X145.042 Y124.997 E49.61457
G1 X162.023 Y124.888 E50.17889
G1 X166.599 Y113.076 E50.59986
G1 X170.603 Y102.82 E50.96574
G1 X173.667 Y102.736 E51.0676
G1 X175.699 Y102.714 E51.13513
G1 X172.174 Y111.497 E51.44964
G1 X147.689 Y172.137 E53.6229
G1 X144.547 Y172.221 E53.72735
G1 X141.432 Y172.275 E53.83088
G1 X116.086 Y107.563 E56.14046
G1 X114.21 Y102.747 E56.31222
G1 X114.745 Y102.731 E56.33001
G1 X116.231 Y102.736 E56.37939
G1 X119.336 Y102.82 E56.48261
G1 X120.709 Y106.254 E56.60552
G1 X125.085 Y117.385 E57.00298
G1 X128.091 Y125.07 E57.27721
G0 F2625 X129.812 Y128.698
G1 F900 X130.385 Y130.641 E57.34453
G1 X130.767 Y131.731 E57.38291
G1 X132.175 Y135.588 E57.51936
G1 X134.285 Y141.263 E57.72057
G1 X136.874 Y148.169 E57.96566
G1 X139.489 Y155.054 E58.21041
G1 X141.667 Y160.658 E58.41022
G1 X142.519 Y162.806 E58.48701
G1 X143.181 Y164.428 E58.54523
G1 X143.638 Y165.489 E58.58362
G1 X144.205 Y166.54 E58.6233
G1 X145.744 Y166.48 E58.67449
G1 X146.246 Y165.364 E58.71515
G1 X146.694 Y164.281 E58.7541
G1 X148.238 Y160.44 E58.89167
G1 X150.468 Y154.812 E59.09285
G1 X160.714 Y128.727 E60.02418
G1 X145.217 Y128.608 E60.53919
G1 X139.914 Y128.589 E60.71542
G1 X135.546 Y128.585 E60.86058
G1 X132.553 Y128.603 E60.96004
G1 X129.812 Y128.698 E61.05119
G0 F2625 X141.639 Y172.044
G1 F900 X141.549 Y171.954 E61.05542
G0 F2625 X142.334 Y172.032
G1 F900 X141.093 Y170.792 E61.11372
G1 X141.005 Y170.704
G0 F2625 X140.638 Y169.629
G1 F900 X143.029 Y172.02 E61.22609
G1 X143.117 Y172.108
G0 F2625 X143.724 Y172.008
G1 F900 X140.183 Y168.468 E61.39248
G1 X140.095 Y168.38
G0 F2625 X139.728 Y167.305
G1 F900 X144.419 Y171.996 E61.61294
G1 X144.507 Y172.084
G0 F2625 X145.109 Y171.979
G1 F900 X139.273 Y166.143 E61.88722
G1 X139.185 Y166.055
G0 F2625 X138.817 Y164.98
G1 F900 X145.798 Y171.961 E62.2153
G1 X145.886 Y172.049
G0 F2625 X146.487 Y171.942
G1 F900 X138.362 Y163.818 E62.59713
G1 X138.274 Y163.73
G0 F2625 X137.907 Y162.655
G1 F900 X147.175 Y171.924 E63.03273
G1 X147.263 Y172.012
G0 F2625 X147.633 Y171.674
G1 F900 X137.451 Y161.493 E63.51123
G1 X137.363 Y161.405
G0 F2625 X136.996 Y160.33
G1 F900 X147.836 Y171.171 E64.0207
G1 X147.924 Y171.259
G0 F2625 X148.039 Y170.667
G1 F900 X144.139 Y166.766 E64.20401
G1 X144.051 Y166.678
G0 F2625 X143.994 Y166.621
G1 F900 X136.54 Y159.168 E64.5543
G1 X136.452 Y159.08
G0 F2625 X136.085 Y158.005
G1 F900 X143.259 Y165.18 E64.89149
G1 X143.347 Y165.268
G0 F2625 X142.746 Y163.959
G1 F900 X135.63 Y156.844 E65.22589
G1 X135.542 Y156.756
G0 F2625 X135.175 Y155.681
G1 F900 X142.261 Y162.767 E65.55891
G1 X142.349 Y162.855
G0 F2625 X141.796 Y161.595
G1 F900 X134.72 Y154.519 E65.89147
G1 X134.632 Y154.431
G0 F2625 X134.264 Y153.356
G1 F900 X141.336 Y160.428 E66.22383
G1 X141.424 Y160.516
G0 F2625 X140.887 Y159.272
G1 F900 X133.809 Y152.194 E66.55648
G1 X133.721 Y152.106
G0 F2625 X133.353 Y151.031
G1 F900 X140.438 Y158.116 E66.88945
G1 X140.526 Y158.204
G0 F2625 X139.989 Y156.96
G1 F900 X132.898 Y149.869 E67.22271
G1 X132.81 Y149.781
G0 F2625 X132.443 Y148.706
G1 F900 X139.54 Y155.803 E67.55625
G1 X139.628 Y155.891
G0 F2625 X139.097 Y154.654
G1 F900 X131.987 Y147.544 E67.89039
G1 X131.899 Y147.456
G0 F2625 X131.532 Y146.381
G1 F900 X138.664 Y153.513 E68.22558
G1 X138.752 Y153.601
G0 F2625 X138.231 Y152.373
G1 F900 X131.077 Y145.219 E68.5618
G1 X130.989 Y145.131
G0 F2625 X130.622 Y144.057
G1 F900 X137.798 Y151.233 E68.89905
G1 X137.886 Y151.321
G0 F2625 X137.365 Y150.093
G1 F900 X130.167 Y142.894 E69.23736
G1 X130.079 Y142.806
G0 F2625 X129.711 Y141.732
G1 F900 X136.931 Y148.952 E69.57668
G1 X137.019 Y149.04
G0 F2625 X136.502 Y147.815
G1 F900 X129.256 Y140.569 E69.91722
G1 X129.168 Y140.481
G0 F2625 X128.8 Y139.407
G1 F900 X136.078 Y146.685 E70.25926
G1 X136.166 Y146.773
G0 F2625 X135.654 Y145.553
G1 F900 X128.345 Y138.245 E70.60274
G1 X128.257 Y138.157
G0 F2625 X127.89 Y137.082
G1 F900 X135.23 Y144.423 E70.94772
G1 X135.318 Y144.511
G0 F2625 X134.806 Y143.291
G1 F900 X127.434 Y135.92 E71.29416
G1 X127.346 Y135.832
G0 F2625 X126.979 Y134.757
G1 F900 X134.382 Y142.16 E71.64208
G1 X134.47 Y142.248
G0 F2625 X133.959 Y141.031
G1 F900 X126.524 Y133.595 E71.99153
G1 X126.436 Y133.507
G0 F2625 X126.069 Y132.433
G1 F900 X133.541 Y139.905 E72.34269
G1 X133.629 Y139.993
G0 F2625 X133.122 Y138.779
G1 F900 X125.613 Y131.27 E72.69559
G1 X125.525 Y131.182
G0 F2625 X125.158 Y130.108
G1 F900 X132.703 Y137.653 E73.05019
G1 X132.791 Y137.741
G0 F2625 X132.284 Y136.527
G1 F900 X124.703 Y128.945 E73.40649
G1 X124.615 Y128.857
G0 F2625 X124.247 Y127.783
G1 F900 X131.869 Y135.404 E73.76468
G1 X131.957 Y135.492
G0 F2625 X131.463 Y134.291
G1 F900 X123.792 Y126.62 E74.1252
G1 X123.704 Y126.532
G0 F2625 X123.337 Y125.458
G1 F900 X131.056 Y133.177 E74.48797
G1 X131.144 Y133.265
G0 F2625 X130.65 Y132.064
G1 F900 X122.881 Y124.295 E74.85309
G1 X122.793 Y124.207
G0 F2625 X122.426 Y123.133
G1 F900 X130.261 Y130.968 E75.22131
G1 X130.349 Y131.056
G0 F2625 X129.945 Y129.945
G1 F900 X121.97 Y121.97 E75.59611
G1 X121.882 Y121.882
