;Generated by Cura LulzBot Edition GCodeWriter Version: 3.2.32
;FLAVOR:Marlin
;TIME:1141
;Filament used: 1.11368m
;Layer height: 0.38
;Generated with Cura_SteamEngine 3.2.32
M82 ;absolute extrusion mode
;This G-Code has been generated specifically for the LulzBot TAZ 5 with standard extruder
M75			 ; start GLCD timer
M140 S85    ; start bed heating up
G21                      ; set units to Millimetres
G90                      ; absolute positioning
M107                     ; disable fans
M82                      ; set extruder to absolute mode
G28 X0 Y0                ; home X and Y
G28 Z0                   ; home Z
G1 Z15.0 F175 ; move extruder up
M117 Heating...                     ; progress indicator message on LCD
M109 R240  ; wait for extruder to reach printing temp
M190 S85    ; wait for bed to reach printing temp
G92 E0                   ; set extruder position to 0
G1 F200 E0               ; prime the nozzle with filament
G92 E0                   ; re-set extruder position to 0
G1 F175       ; set travel speed
M203 X192 Y208 Z3        ; set limits on travel speed
M117 TAZ 5 Printing...   ; progress indicator message on LCD

M221 S100
;LAYER_COUNT:27
;LAYER:0
M107
G0 F2625 X116.185 Y98.786 Z0.424
;TYPE:SKIRT
G1 F900 X116.584 Y98.362 E0.01935
G1 X117.038 Y97.996 E0.03873
G1 X117.537 Y97.696 E0.05808
G1 X118.073 Y97.466 E0.07746
G1 X118.635 Y97.312 E0.09682
G1 X119.473 Y97.229 E0.12481
G1 X170.527 Y97.23 E1.82143
G1 X171.108 Y97.27 E1.84079
G1 X171.679 Y97.389 E1.86017
G1 X172.228 Y97.585 E1.87954
G1 X172.745 Y97.854 E1.89891
G1 X173.22 Y98.192 E1.91828
G1 X173.644 Y98.591 E1.93763
G1 X174.01 Y99.045 E1.95701
G1 X174.31 Y99.544 E1.97636
G1 X174.54 Y100.08 E1.99574
G1 X174.694 Y100.642 E2.01511
G1 X174.777 Y101.48 E2.04309
G1 X174.777 Y173.521 E4.43716
G1 X174.737 Y174.102 E4.45651
G1 X174.618 Y174.673 E4.4759
G1 X174.422 Y175.222 E4.49527
G1 X174.153 Y175.738 E4.51461
G1 X173.815 Y176.214 E4.53401
G1 X173.416 Y176.638 E4.55336
G1 X172.962 Y177.004 E4.57273
G1 X172.463 Y177.304 E4.59208
G1 X171.927 Y177.534 E4.61147
G1 X171.365 Y177.688 E4.63083
G1 X170.527 Y177.771 E4.65882
G1 X154.454 Y177.77 E5.19295
G1 X153.872 Y177.73 E5.21234
G1 X153.302 Y177.611 E5.23169
G1 X152.753 Y177.415 E5.25106
G1 X152.236 Y177.146 E5.27043
G1 X151.761 Y176.808 E5.2898
G1 X151.337 Y176.409 E5.30915
G1 X150.971 Y175.955 E5.32853
G1 X150.67 Y175.456 E5.3479
G1 X150.441 Y174.92 E5.36727
G1 X150.31 Y174.465 E5.383
G1 X148.937 Y168.441 E5.58833
G1 X147.416 Y163.228 E5.76879
G1 X145.607 Y158.117 E5.94896
G1 X143.523 Y153.147 E6.12806
G1 X141.134 Y148.246 E6.30925
G1 X138.504 Y143.543 E6.48831
G1 X135.595 Y138.97 E6.66843
G1 X132.423 Y134.557 E6.84903
G1 X129.033 Y130.362 E7.02827
G1 X125.398 Y126.352 E7.20813
G1 X121.526 Y122.537 E7.38877
G1 X116.678 Y118.304 E7.60265
G1 X116.266 Y117.892 E7.62201
G1 X115.915 Y117.427 E7.64137
G1 X115.63 Y116.918 E7.66076
G1 X115.418 Y116.376 E7.6801
G1 X115.282 Y115.809 E7.69948
G1 X115.223 Y115.103 E7.72302
G1 X115.223 Y101.479 E8.17577
G1 X115.263 Y100.898 E8.19513
G1 X115.382 Y100.327 E8.21451
G1 X115.578 Y99.778 E8.23388
G1 X115.847 Y99.262 E8.25322
G1 X116.185 Y98.786 E8.27262
G0 F2625 X116.68 Y98.977
G1 F900 X117.074 Y98.597 E8.29081
G1 X117.519 Y98.278 E8.30901
G1 X118.006 Y98.028 E8.3272
G1 X118.524 Y97.851 E8.34539
G1 X119.062 Y97.752 E8.36357
G1 X119.473 Y97.729 E8.37725
G1 X170.527 Y97.73 E10.07388
G1 X171.073 Y97.77 E10.09207
G1 X171.607 Y97.889 E10.11025
G1 X172.118 Y98.084 E10.12843
G1 X172.596 Y98.352 E10.14664
G1 X173.029 Y98.687 E10.16483
G1 X173.409 Y99.081 E10.18302
G1 X173.728 Y99.526 E10.20122
G1 X173.978 Y100.013 E10.21941
G1 X174.155 Y100.531 E10.2376
G1 X174.254 Y101.069 E10.25578
G1 X174.277 Y101.48 E10.26946
G1 X174.277 Y173.521 E12.66352
G1 X174.237 Y174.067 E12.68172
G1 X174.118 Y174.601 E12.6999
G1 X173.923 Y175.112 E12.71807
G1 X173.655 Y175.59 E12.73629
G1 X173.32 Y176.023 E12.75448
G1 X172.926 Y176.403 E12.77267
G1 X172.481 Y176.722 E12.79086
G1 X171.994 Y176.972 E12.80906
G1 X171.476 Y177.149 E12.82725
G1 X170.938 Y177.248 E12.84543
G1 X170.527 Y177.271 E12.85911
G1 X154.454 Y177.27 E13.39324
G1 X153.908 Y177.23 E13.41144
G1 X153.374 Y177.111 E13.42962
G1 X152.862 Y176.915 E13.44784
G1 X152.385 Y176.648 E13.466
G1 X151.952 Y176.313 E13.4842
G1 X151.572 Y175.919 E13.50239
G1 X151.253 Y175.474 E13.52058
G1 X151.003 Y174.987 E13.53878
G1 X150.798 Y174.354 E13.56089
G1 X149.423 Y168.323 E13.76645
G1 X147.893 Y163.079 E13.94799
G1 X146.073 Y157.936 E14.12928
G1 X143.973 Y152.93 E14.30969
G1 X141.585 Y148.027 E14.49092
G1 X138.931 Y143.282 E14.6716
G1 X136.008 Y138.687 E14.85258
G1 X132.831 Y134.267 E15.03347
G1 X129.405 Y130.029 E15.21457
G1 X125.749 Y125.994 E15.39552
G1 X121.879 Y122.182 E15.57604
G1 X117.007 Y117.928 E15.79098
G1 X116.622 Y117.539 E15.80916
G1 X116.297 Y117.098 E15.82737
G1 X116.041 Y116.614 E15.84557
G1 X115.858 Y116.098 E15.86376
G1 X115.751 Y115.562 E15.88192
G1 X115.723 Y115.103 E15.89721
G1 X115.723 Y101.479 E16.34996
G1 X115.763 Y100.933 E16.36815
G1 X115.882 Y100.399 E16.38633
G1 X116.077 Y99.888 E16.40451
G1 X116.345 Y99.41 E16.42272
G1 X116.68 Y98.977 E16.44091
G0 F2625 X116.843 Y99.57
G1 F900 X117.173 Y99.183 E16.45781
G1 X117.56 Y98.851 E16.47476
G1 X117.995 Y98.585 E16.4917
G1 X118.465 Y98.389 E16.50863
G1 X118.96 Y98.27 E16.52555
G1 X119.473 Y98.229 E16.54265
G1 X170.527 Y98.23 E18.23927
G1 X171.035 Y98.27 E18.25621
G1 X171.53 Y98.389 E18.27313
G1 X172.001 Y98.584 E18.29007
G1 X172.436 Y98.85 E18.30701
G1 X172.823 Y99.18 E18.32391
G1 X173.155 Y99.567 E18.34086
G1 X173.421 Y100.002 E18.3578
G1 X173.617 Y100.472 E18.37472
G1 X173.736 Y100.967 E18.39164
G1 X173.777 Y101.48 E18.40875
G1 X173.777 Y173.521 E20.80281
G1 X173.737 Y174.029 E20.81974
G1 X173.618 Y174.524 E20.83666
G1 X173.423 Y174.995 E20.8536
G1 X173.157 Y175.43 E20.87055
G1 X172.827 Y175.817 E20.88745
G1 X172.44 Y176.149 E20.90439
G1 X172.005 Y176.415 E20.92134
G1 X171.535 Y176.611 E20.93826
G1 X171.04 Y176.73 E20.95518
G1 X170.527 Y176.771 E20.97228
G1 X154.454 Y176.77 E21.50642
G1 X153.946 Y176.73 E21.52335
G1 X153.45 Y176.611 E21.54031
G1 X152.98 Y176.416 E21.55722
G1 X152.545 Y176.15 E21.57416
G1 X152.157 Y175.82 E21.59109
G1 X151.826 Y175.432 E21.60804
G1 X151.56 Y174.998 E21.62495
G1 X151.364 Y174.528 E21.64187
G1 X151.285 Y174.242 E21.65173
G1 X149.906 Y168.193 E21.85791
G1 X148.371 Y162.93 E22.0401
G1 X146.539 Y157.755 E22.22253
G1 X144.43 Y152.727 E22.40373
G1 X142.027 Y147.795 E22.58605
G1 X139.353 Y143.014 E22.76809
G1 X136.426 Y138.411 E22.94936
G1 X133.23 Y133.966 E23.1313
G1 X129.778 Y129.695 E23.3138
G1 X126.118 Y125.656 E23.49493
G1 X122.222 Y121.818 E23.67667
G1 X117.335 Y117.551 E23.89227
G1 X116.979 Y117.187 E23.90919
G1 X116.684 Y116.772 E23.92611
G1 X116.458 Y116.315 E23.94306
G1 X116.305 Y115.829 E23.95999
G1 X116.223 Y115.103 E23.98427
G1 X116.223 Y101.479 E24.43702
G1 X116.263 Y100.971 E24.45395
G1 X116.382 Y100.476 E24.47087
G1 X116.577 Y100.005 E24.48781
G1 X116.843 Y99.57 E24.50476
G1 F600 E23.50476
G0 F2625 X118.799 Y102.234
G0 X120.228 Y102.234
G0 X155.264 Y114.292
G0 X155.194 Y114.362
;TYPE:WALL-INNER
G1 F600 E24.50476
G1 F900 X120.214 Y114.362 E25.66721
G1 X120.214 Y102.22 E26.07072
G1 X169.786 Y102.22 E27.71809
G1 X169.786 Y172.78 E30.06294
G1 X155.194 Y172.78 E30.54786
G1 X155.194 Y114.362 E32.48921
G0 F2625 X154.694 Y114.862
;TYPE:WALL-OUTER
G1 F900 X119.714 Y114.862 E33.65166
G1 X119.714 Y101.72 E34.0884
G1 X170.286 Y101.72 E35.769
G1 X170.286 Y173.28 E38.14709
G1 X154.694 Y173.28 E38.66524
G1 X154.694 Y114.862 E40.60658
G0 F2625 X154.444 Y114.862
G0 X154.444 Y114.262
G0 X155.684 Y113.872
;TYPE:SKIN
G1 F900 X120.704 Y113.872 E41.76904
G1 X120.704 Y102.71 E42.13997
G1 X169.296 Y102.71 E43.75478
G1 X169.296 Y172.29 E46.06706
G1 X155.684 Y172.29 E46.51942
G1 X155.684 Y113.872 E48.46076
G0 F2625 X169.07 Y103.309
G1 F900 X168.695 Y102.934 E48.47839
G0 F2625 X167.988 Y102.934
G1 F900 X169.07 Y104.016 E48.52924
G1 X169.158 Y104.104
G0 F2625 X169.07 Y104.723
G1 F900 X167.281 Y102.934 E48.61332
G1 X167.193 Y102.846
G0 F2625 X166.574 Y102.934
G1 F900 X169.07 Y105.431 E48.73065
G1 X169.158 Y105.519
G0 F2625 X169.07 Y106.138
G1 F900 X165.867 Y102.934 E48.8812
G1 X165.779 Y102.846
G0 F2625 X165.16 Y102.934
G1 F900 X169.07 Y106.845 E49.06498
G1 X169.158 Y106.933
G0 F2625 X169.07 Y107.552
G1 F900 X164.453 Y102.934 E49.28199
G1 X164.365 Y102.846
G0 F2625 X163.746 Y102.934
G1 F900 X169.07 Y108.259 E49.53223
G1 X169.158 Y108.347
G0 F2625 X169.07 Y108.966
G1 F900 X163.039 Y102.934 E49.81569
G1 X162.951 Y102.846
G0 F2625 X162.331 Y102.934
G1 F900 X169.07 Y109.673 E50.13241
G1 X169.158 Y109.761
G0 F2625 X169.07 Y110.38
G1 F900 X161.624 Y102.934 E50.48235
G1 X161.536 Y102.846
G0 F2625 X160.917 Y102.934
G1 F900 X169.07 Y111.087 E50.86551
G1 X169.158 Y111.175
G0 F2625 X169.07 Y111.794
G1 F900 X160.21 Y102.934 E51.28191
G1 X160.122 Y102.846
G0 F2625 X159.503 Y102.934
G1 F900 X169.07 Y112.502 E51.73155
G1 X169.158 Y112.59
G0 F2625 X169.07 Y113.209
G1 F900 X158.796 Y102.934 E52.21442
G1 X158.708 Y102.846
G0 F2625 X158.089 Y102.934
G1 F900 X169.07 Y113.916 E52.73052
G1 X169.158 Y114.004
G0 F2625 X169.07 Y114.623
G1 F900 X157.382 Y102.934 E53.27985
G1 X157.294 Y102.846
G0 F2625 X156.675 Y102.934
G1 F900 X169.07 Y115.33 E53.8624
G1 X169.158 Y115.418
G0 F2625 X169.07 Y116.037
G1 F900 X155.967 Y102.934 E54.47821
G1 X155.879 Y102.846
G0 F2625 X155.26 Y102.934
G1 F900 X169.07 Y116.744 E55.12724
G1 X169.158 Y116.832
G0 F2625 X169.07 Y117.451
G1 F900 X154.553 Y102.934 E55.80949
G1 X154.465 Y102.846
G0 F2625 X153.846 Y102.934
G1 F900 X169.07 Y118.158 E56.52498
G1 X169.158 Y118.246
G0 F2625 X169.07 Y118.866
G1 F900 X153.139 Y102.934 E57.27371
G1 X153.051 Y102.846
G0 F2625 X152.432 Y102.934
G1 F900 X169.07 Y119.573 E58.05567
G1 X169.158 Y119.661
G0 F2625 X169.07 Y120.28
G1 F900 X151.725 Y102.934 E58.87086
G1 X151.637 Y102.846
G0 F2625 X151.018 Y102.934
G1 F900 X169.07 Y120.987 E59.71928
G1 X169.158 Y121.075
G0 F2625 X169.07 Y121.694
G1 F900 X150.311 Y102.934 E60.60092
G1 X150.223 Y102.846
G0 F2625 X149.603 Y102.934
G1 F900 X169.07 Y122.401 E61.51581
G1 X169.158 Y122.489
G0 F2625 X169.07 Y123.108
G1 F900 X148.896 Y102.934 E62.46393
G1 X148.808 Y102.846
G0 F2625 X148.189 Y102.934
G1 F900 X169.07 Y123.815 E63.44528
G1 X169.158 Y123.903
G0 F2625 X169.07 Y124.522
G1 F900 X147.482 Y102.934 E64.45985
G1 X147.394 Y102.846
G0 F2625 X146.775 Y102.934
G1 F900 X169.07 Y125.23 E65.50768
G1 X169.158 Y125.318
G0 F2625 X169.07 Y125.937
G1 F900 X146.068 Y102.934 E66.58873
G1 X145.98 Y102.846
G0 F2625 X145.361 Y102.934
G1 F900 X169.07 Y126.644 E67.70301
G1 X169.158 Y126.732
G0 F2625 X169.07 Y127.351
G1 F900 X155.907 Y114.188 E68.32163
G1 X155.819 Y114.1
G0 F2625 X155.907 Y114.895
G1 F900 X169.07 Y128.058 E68.94025
G1 X169.158 Y128.146
G0 F2625 X169.07 Y128.765
G1 F900 X155.907 Y115.602 E69.55888
G1 X155.819 Y115.514
G0 F2625 X155.907 Y116.309
G1 F900 X169.07 Y129.472 E70.1775
G1 X169.158 Y129.56
G0 F2625 X169.07 Y130.179
G1 F900 X155.907 Y117.016 E70.79612
G1 X155.819 Y116.928
G0 F2625 X155.907 Y117.724
G1 F900 X169.07 Y130.886 E71.41472
G1 X169.158 Y130.974
G0 F2625 X169.07 Y131.593
G1 F900 X155.907 Y118.431 E72.03332
G1 X155.819 Y118.343
G0 F2625 X155.907 Y119.138
G1 F900 X169.07 Y132.301 E72.65195
G1 X169.158 Y132.389
G0 F2625 X169.07 Y133.008
G1 F900 X155.907 Y119.845 E73.27057
G1 X155.819 Y119.757
G0 F2625 X155.907 Y120.552
G1 F900 X169.07 Y133.715 E73.88919
G1 X169.158 Y133.803
G0 F2625 X169.07 Y134.422
G1 F900 X155.907 Y121.259 E74.50781
G1 X155.819 Y121.171
G0 F2625 X155.907 Y121.966
G1 F900 X169.07 Y135.129 E75.12644
G1 X169.158 Y135.217
G0 F2625 X169.07 Y135.836
G1 F900 X155.907 Y122.673 E75.74506
G1 X155.819 Y122.585
G0 F2625 X155.907 Y123.38
G1 F900 X169.07 Y136.543 E76.36368
G1 X169.158 Y136.631
G0 F2625 X169.07 Y137.25
G1 F900 X155.907 Y124.088 E76.98228
G1 X155.819 Y124
G0 F2625 X155.907 Y124.795
G1 F900 X169.07 Y137.957 E77.60088
G1 X169.158 Y138.045
G0 F2625 X169.07 Y138.665
G1 F900 X155.907 Y125.502 E78.21951
G1 X155.819 Y125.414
G0 F2625 X155.907 Y126.209
G1 F900 X169.07 Y139.372 E78.83813
G1 X169.158 Y139.46
G0 F2625 X169.07 Y140.079
G1 F900 X155.907 Y126.916 E79.45675
G1 X155.819 Y126.828
G0 F2625 X155.907 Y127.623
G1 F900 X169.07 Y140.786 E80.07538
G1 X169.158 Y140.874
G0 F2625 X169.07 Y141.493
G1 F900 X155.907 Y128.33 E80.694
G1 X155.819 Y128.242
G0 F2625 X155.907 Y129.037
G1 F900 X169.07 Y142.2 E81.31262
G1 X169.158 Y142.288
G0 F2625 X169.07 Y142.907
G1 F900 X155.907 Y129.744 E81.93125
G1 X155.819 Y129.656
G0 F2625 X155.907 Y130.452
G1 F900 X169.07 Y143.614 E82.54984
G1 X169.158 Y143.702
G0 F2625 X169.07 Y144.321
G1 F900 X155.907 Y131.159 E83.16844
G1 X155.819 Y131.071
G0 F2625 X155.907 Y131.866
G1 F900 X169.07 Y145.029 E83.78707
G1 X169.158 Y145.117
G0 F2625 X169.07 Y145.736
G1 F900 X155.907 Y132.573 E84.40569
G1 X155.819 Y132.485
G0 F2625 X155.907 Y133.28
G1 F900 X169.07 Y146.443 E85.02431
G1 X169.158 Y146.531
G0 F2625 X169.07 Y147.15
G1 F900 X155.907 Y133.987 E85.64294
G1 X155.819 Y133.899
G0 F2625 X155.907 Y134.694
G1 F900 X169.07 Y147.857 E86.26156
G1 X169.158 Y147.945
G0 F2625 X169.07 Y148.564
G1 F900 X155.907 Y135.401 E86.88018
G1 X155.819 Y135.313
G0 F2625 X155.907 Y136.108
G1 F900 X169.07 Y149.271 E87.49881
G1 X169.158 Y149.359
G0 F2625 X169.07 Y149.978
G1 F900 X155.907 Y136.815 E88.11743
G1 X155.819 Y136.727
G0 F2625 X155.907 Y137.523
G1 F900 X169.07 Y150.685 E88.73603
G1 X169.158 Y150.773
G0 F2625 X169.07 Y151.392
G1 F900 X155.907 Y138.23 E89.35463
G1 X155.819 Y138.142
G0 F2625 X155.907 Y138.937
G1 F900 X169.07 Y152.1 E89.97325
G1 X169.158 Y152.188
G0 F2625 X169.07 Y152.807
G1 F900 X155.907 Y139.644 E90.59187
G1 X155.819 Y139.556
G0 F2625 X155.907 Y140.351
G1 F900 X169.07 Y153.514 E91.2105
G1 X169.158 Y153.602
G0 F2625 X169.07 Y154.221
G1 F900 X155.907 Y141.058 E91.82912
G1 X155.819 Y140.97
G0 F2625 X155.907 Y141.765
G1 F900 X169.07 Y154.928 E92.44774
G1 X169.158 Y155.016
G0 F2625 X169.07 Y155.635
G1 F900 X155.907 Y142.472 E93.06637
G1 X155.819 Y142.384
G0 F2625 X155.907 Y143.179
G1 F900 X169.07 Y156.342 E93.68499
G1 X169.158 Y156.43
G0 F2625 X169.07 Y157.049
G1 F900 X155.907 Y143.887 E94.30359
G1 X155.819 Y143.799
G0 F2625 X155.907 Y144.594
G1 F900 X169.07 Y157.756 E94.92219
G1 X169.158 Y157.844
G0 F2625 X169.07 Y158.464
G1 F900 X155.907 Y145.301 E95.54081
G1 X155.819 Y145.213
G0 F2625 X155.907 Y146.008
G1 F900 X169.07 Y159.171 E96.15944
G1 X169.158 Y159.259
G0 F2625 X169.07 Y159.878
G1 F900 X155.907 Y146.715 E96.77806
G1 X155.819 Y146.627
G0 F2625 X155.907 Y147.422
G1 F900 X169.07 Y160.585 E97.39668
G1 X169.158 Y160.673
G0 F2625 X169.07 Y161.292
G1 F900 X155.907 Y148.129 E98.0153
G1 X155.819 Y148.041
G0 F2625 X155.907 Y148.836
G1 F900 X169.07 Y161.999 E98.63393
G1 X169.158 Y162.087
G0 F2625 X169.07 Y162.706
G1 F900 X155.907 Y149.543 E99.25255
G1 X155.819 Y149.455
G0 F2625 X155.907 Y150.25
G1 F900 X169.07 Y163.413 E99.87117
G1 X169.158 Y163.501
G0 F2625 X169.07 Y164.12
G1 F900 X155.907 Y150.958 E100.48977
G1 X155.819 Y150.87
G0 F2625 X155.907 Y151.665
G1 F900 X169.07 Y164.828 E101.1084
G1 X169.158 Y164.916
G0 F2625 X169.07 Y165.535
G1 F900 X155.907 Y152.372 E101.72702
G1 X155.819 Y152.284
G0 F2625 X155.907 Y153.079
G1 F900 X169.07 Y166.242 E102.34564
G1 X169.158 Y166.33
G0 F2625 X169.07 Y166.949
G1 F900 X155.907 Y153.786 E102.96427
G1 X155.819 Y153.698
G0 F2625 X155.907 Y154.493
G1 F900 X169.07 Y167.656 E103.58289
G1 X169.158 Y167.744
G0 F2625 X169.07 Y168.363
G1 F900 X155.907 Y155.2 E104.20151
G1 X155.819 Y155.112
G0 F2625 X155.907 Y155.907
G1 F900 X169.07 Y169.07 E104.82014
G1 X169.158 Y169.158
G0 F2625 X169.07 Y169.777
G1 F900 X155.907 Y156.614 E105.43876
G1 X155.819 Y156.526
G0 F2625 X155.907 Y157.322
G1 F900 X169.07 Y170.484 E106.05736
G1 X169.158 Y170.572
G0 F2625 X169.07 Y171.191
G1 F900 X155.907 Y158.029 E106.67596
G1 X155.819 Y157.941
G0 F2625 X155.907 Y158.736
G1 F900 X169.07 Y171.899 E107.29458
G1 X169.158 Y171.987
G0 F2625 X168.529 Y172.064
G1 F900 X155.907 Y159.443 E107.88776
G1 X155.819 Y159.355
G0 F2625 X155.907 Y160.15
